%
; ============================================================
; 2.5D Arc Surface Constant-Thickness Scanning
; 
; Auto-generated by Python Generator v2
; Parameters: R0=15.0mm, Layers=10, DX=0.2mm
; Arc center: (X=0.0, Z=0.0)
; ============================================================

; ========== INITIALIZATION ==========
G90                 ; Absolute coordinates
G21                 ; Metric units
G40 G49 G80         ; Cancel offsets and cycles

F20            ; Set feed rate

G0 Z5.0         ; Retract to safe height
G0 X0.0 Y0.0    ; Move to start position


; ========== MAIN MACHINING LOOP ==========

; ====== Layer 1: Z = -0.1 ======
; R = 14.9, X = [-14.90, 14.90]


G1 Y0.400

G1 X-14.900 Y0.400 Z-0.100
G1 X-14.700 Y0.400 Z-2.435
G1 X-14.500 Y0.400 Z-3.431
G1 X-14.300 Y0.400 Z-4.187
G1 X-14.100 Y0.400 Z-4.818
G1 X-13.900 Y0.400 Z-5.367
G1 X-13.700 Y0.400 Z-5.859
G1 X-13.500 Y0.400 Z-6.306
G1 X-13.300 Y0.400 Z-6.718
G1 X-13.100 Y0.400 Z-7.100
G1 X-12.900 Y0.400 Z-7.457
G1 X-12.700 Y0.400 Z-7.793
G1 X-12.500 Y0.400 Z-8.110
G1 X-12.300 Y0.400 Z-8.410
G1 X-12.100 Y0.400 Z-8.695
G1 X-11.900 Y0.400 Z-8.967
G1 X-11.700 Y0.400 Z-9.226
G1 X-11.500 Y0.400 Z-9.475
G1 X-11.300 Y0.400 Z-9.712
G1 X-11.100 Y0.400 Z-9.940
G1 X-10.900 Y0.400 Z-10.159
G1 X-10.700 Y0.400 Z-10.370
G1 X-10.500 Y0.400 Z-10.572
G1 X-10.300 Y0.400 Z-10.767
G1 X-10.100 Y0.400 Z-10.955
G1 X-9.900 Y0.400 Z-11.136
G1 X-9.700 Y0.400 Z-11.310
G1 X-9.500 Y0.400 Z-11.479
G1 X-9.300 Y0.400 Z-11.642
G1 X-9.100 Y0.400 Z-11.799
G1 X-8.900 Y0.400 Z-11.950
G1 X-8.700 Y0.400 Z-12.097
G1 X-8.500 Y0.400 Z-12.238
G1 X-8.300 Y0.400 Z-12.374
G1 X-8.100 Y0.400 Z-12.506
G1 X-7.900 Y0.400 Z-12.633
G1 X-7.700 Y0.400 Z-12.756
G1 X-7.500 Y0.400 Z-12.875
G1 X-7.300 Y0.400 Z-12.989
G1 X-7.100 Y0.400 Z-13.100
G1 X-6.900 Y0.400 Z-13.206
G1 X-6.700 Y0.400 Z-13.309
G1 X-6.500 Y0.400 Z-13.408
G1 X-6.300 Y0.400 Z-13.503
G1 X-6.100 Y0.400 Z-13.594
G1 X-5.900 Y0.400 Z-13.682
G1 X-5.700 Y0.400 Z-13.767
G1 X-5.500 Y0.400 Z-13.848
G1 X-5.300 Y0.400 Z-13.926
G1 X-5.100 Y0.400 Z-14.000
G1 X-4.900 Y0.400 Z-14.071
G1 X-4.700 Y0.400 Z-14.139
G1 X-4.500 Y0.400 Z-14.204
G1 X-4.300 Y0.400 Z-14.266
G1 X-4.100 Y0.400 Z-14.325
G1 X-3.900 Y0.400 Z-14.381
G1 X-3.700 Y0.400 Z-14.433
G1 X-3.500 Y0.400 Z-14.483
G1 X-3.300 Y0.400 Z-14.530
G1 X-3.100 Y0.400 Z-14.574
G1 X-2.900 Y0.400 Z-14.615
G1 X-2.700 Y0.400 Z-14.653
G1 X-2.500 Y0.400 Z-14.689
G1 X-2.300 Y0.400 Z-14.721
G1 X-2.100 Y0.400 Z-14.751
G1 X-1.900 Y0.400 Z-14.778
G1 X-1.700 Y0.400 Z-14.803
G1 X-1.500 Y0.400 Z-14.824
G1 X-1.300 Y0.400 Z-14.843
G1 X-1.100 Y0.400 Z-14.859
G1 X-0.900 Y0.400 Z-14.873
G1 X-0.700 Y0.400 Z-14.884
G1 X-0.500 Y0.400 Z-14.892
G1 X-0.300 Y0.400 Z-14.897
G1 X-0.100 Y0.400 Z-14.900

G1 X0.000 Y0.400 Z-14.900
G1 X0.200 Y0.400 Z-14.899
G1 X0.400 Y0.400 Z-14.895
G1 X0.600 Y0.400 Z-14.888
G1 X0.800 Y0.400 Z-14.879
G1 X1.000 Y0.400 Z-14.866
G1 X1.200 Y0.400 Z-14.852
G1 X1.400 Y0.400 Z-14.834
G1 X1.600 Y0.400 Z-14.814
G1 X1.800 Y0.400 Z-14.791
G1 X2.000 Y0.400 Z-14.765
G1 X2.200 Y0.400 Z-14.737
G1 X2.400 Y0.400 Z-14.705
G1 X2.600 Y0.400 Z-14.671
G1 X2.800 Y0.400 Z-14.635
G1 X3.000 Y0.400 Z-14.595
G1 X3.200 Y0.400 Z-14.552
G1 X3.400 Y0.400 Z-14.507
G1 X3.600 Y0.400 Z-14.459
G1 X3.800 Y0.400 Z-14.407
G1 X4.000 Y0.400 Z-14.353
G1 X4.200 Y0.400 Z-14.296
G1 X4.400 Y0.400 Z-14.236
G1 X4.600 Y0.400 Z-14.172
G1 X4.800 Y0.400 Z-14.106
G1 X5.000 Y0.400 Z-14.036
G1 X5.200 Y0.400 Z-13.963
G1 X5.400 Y0.400 Z-13.887
G1 X5.600 Y0.400 Z-13.808
G1 X5.800 Y0.400 Z-13.725
G1 X6.000 Y0.400 Z-13.639
G1 X6.200 Y0.400 Z-13.549
G1 X6.400 Y0.400 Z-13.455
G1 X6.600 Y0.400 Z-13.359
G1 X6.800 Y0.400 Z-13.258
G1 X7.000 Y0.400 Z-13.153
G1 X7.200 Y0.400 Z-13.045
G1 X7.400 Y0.400 Z-12.933
G1 X7.600 Y0.400 Z-12.816
G1 X7.800 Y0.400 Z-12.695
G1 X8.000 Y0.400 Z-12.570
G1 X8.200 Y0.400 Z-12.441
G1 X8.400 Y0.400 Z-12.307
G1 X8.600 Y0.400 Z-12.168
G1 X8.800 Y0.400 Z-12.024
G1 X9.000 Y0.400 Z-11.875
G1 X9.200 Y0.400 Z-11.720
G1 X9.400 Y0.400 Z-11.561
G1 X9.600 Y0.400 Z-11.395
G1 X9.800 Y0.400 Z-11.224
G1 X10.000 Y0.400 Z-11.046
G1 X10.200 Y0.400 Z-10.861
G1 X10.400 Y0.400 Z-10.670
G1 X10.600 Y0.400 Z-10.471
G1 X10.800 Y0.400 Z-10.265
G1 X11.000 Y0.400 Z-10.050
G1 X11.200 Y0.400 Z-9.827
G1 X11.400 Y0.400 Z-9.594
G1 X11.600 Y0.400 Z-9.351
G1 X11.800 Y0.400 Z-9.098
G1 X12.000 Y0.400 Z-8.832
G1 X12.200 Y0.400 Z-8.554
G1 X12.400 Y0.400 Z-8.261
G1 X12.600 Y0.400 Z-7.953
G1 X12.800 Y0.400 Z-7.627
G1 X13.000 Y0.400 Z-7.281
G1 X13.200 Y0.400 Z-6.912
G1 X13.400 Y0.400 Z-6.515
G1 X13.600 Y0.400 Z-6.087
G1 X13.800 Y0.400 Z-5.619
G1 X14.000 Y0.400 Z-5.100
G1 X14.200 Y0.400 Z-4.513
G1 X14.400 Y0.400 Z-3.828
G1 X14.600 Y0.400 Z-2.975
G1 X14.800 Y0.400 Z-1.723

G1 Y0.000



; ====== Layer 2: Z = -0.2 ======
; R = 14.8, X = [-14.80, 14.80]

G1 X0.000 Y0.000 Z-14.800
G1 X0.200 Y0.000 Z-14.799
G1 X0.400 Y0.000 Z-14.795
G1 X0.600 Y0.000 Z-14.788
G1 X0.800 Y0.000 Z-14.778
G1 X1.000 Y0.000 Z-14.766
G1 X1.200 Y0.000 Z-14.751
G1 X1.400 Y0.000 Z-14.734
G1 X1.600 Y0.000 Z-14.713
G1 X1.800 Y0.000 Z-14.690
G1 X2.000 Y0.000 Z-14.664
G1 X2.200 Y0.000 Z-14.636
G1 X2.400 Y0.000 Z-14.604
G1 X2.600 Y0.000 Z-14.570
G1 X2.800 Y0.000 Z-14.533
G1 X3.000 Y0.000 Z-14.493
G1 X3.200 Y0.000 Z-14.450
G1 X3.400 Y0.000 Z-14.404
G1 X3.600 Y0.000 Z-14.355
G1 X3.800 Y0.000 Z-14.304
G1 X4.000 Y0.000 Z-14.249
G1 X4.200 Y0.000 Z-14.192
G1 X4.400 Y0.000 Z-14.131
G1 X4.600 Y0.000 Z-14.067
G1 X4.800 Y0.000 Z-14.000
G1 X5.000 Y0.000 Z-13.930
G1 X5.200 Y0.000 Z-13.856
G1 X5.400 Y0.000 Z-13.780
G1 X5.600 Y0.000 Z-13.700
G1 X5.800 Y0.000 Z-13.616
G1 X6.000 Y0.000 Z-13.529
G1 X6.200 Y0.000 Z-13.439
G1 X6.400 Y0.000 Z-13.345
G1 X6.600 Y0.000 Z-13.247
G1 X6.800 Y0.000 Z-13.145
G1 X7.000 Y0.000 Z-13.040
G1 X7.200 Y0.000 Z-12.931
G1 X7.400 Y0.000 Z-12.817
G1 X7.600 Y0.000 Z-12.700
G1 X7.800 Y0.000 Z-12.578
G1 X8.000 Y0.000 Z-12.452
G1 X8.200 Y0.000 Z-12.321
G1 X8.400 Y0.000 Z-12.185
G1 X8.600 Y0.000 Z-12.045
G1 X8.800 Y0.000 Z-11.900
G1 X9.000 Y0.000 Z-11.749
G1 X9.200 Y0.000 Z-11.593
G1 X9.400 Y0.000 Z-11.432
G1 X9.600 Y0.000 Z-11.264
G1 X9.800 Y0.000 Z-11.091
G1 X10.000 Y0.000 Z-10.911
G1 X10.200 Y0.000 Z-10.724
G1 X10.400 Y0.000 Z-10.530
G1 X10.600 Y0.000 Z-10.329
G1 X10.800 Y0.000 Z-10.119
G1 X11.000 Y0.000 Z-9.902
G1 X11.200 Y0.000 Z-9.675
G1 X11.400 Y0.000 Z-9.438
G1 X11.600 Y0.000 Z-9.191
G1 X11.800 Y0.000 Z-8.933
G1 X12.000 Y0.000 Z-8.663
G1 X12.200 Y0.000 Z-8.379
G1 X12.400 Y0.000 Z-8.080
G1 X12.600 Y0.000 Z-7.764
G1 X12.800 Y0.000 Z-7.430
G1 X13.000 Y0.000 Z-7.074
G1 X13.200 Y0.000 Z-6.693
G1 X13.400 Y0.000 Z-6.283
G1 X13.600 Y0.000 Z-5.838
G1 X13.800 Y0.000 Z-5.348
G1 X14.000 Y0.000 Z-4.800
G1 X14.200 Y0.000 Z-4.171
G1 X14.400 Y0.000 Z-3.418
G1 X14.600 Y0.000 Z-2.425

G1 Y0.400



G1 Y0.000

G1 X-14.799 Y0.000 Z-0.200
G1 X-14.599 Y0.000 Z-2.433
G1 X-14.399 Y0.000 Z-3.423
G1 X-14.199 Y0.000 Z-4.176
G1 X-13.999 Y0.000 Z-4.804
G1 X-13.799 Y0.000 Z-5.351
G1 X-13.599 Y0.000 Z-5.841
G1 X-13.399 Y0.000 Z-6.286
G1 X-13.199 Y0.000 Z-6.696
G1 X-12.999 Y0.000 Z-7.076
G1 X-12.799 Y0.000 Z-7.432
G1 X-12.599 Y0.000 Z-7.766
G1 X-12.399 Y0.000 Z-8.082
G1 X-12.199 Y0.000 Z-8.381
G1 X-11.999 Y0.000 Z-8.664
G1 X-11.799 Y0.000 Z-8.935
G1 X-11.599 Y0.000 Z-9.193
G1 X-11.399 Y0.000 Z-9.440
G1 X-11.199 Y0.000 Z-9.676
G1 X-10.999 Y0.000 Z-9.903
G1 X-10.799 Y0.000 Z-10.121
G1 X-10.599 Y0.000 Z-10.330
G1 X-10.399 Y0.000 Z-10.531
G1 X-10.199 Y0.000 Z-10.725
G1 X-9.999 Y0.000 Z-10.912
G1 X-9.799 Y0.000 Z-11.092
G1 X-9.599 Y0.000 Z-11.265
G1 X-9.399 Y0.000 Z-11.433
G1 X-9.199 Y0.000 Z-11.594
G1 X-8.999 Y0.000 Z-11.750
G1 X-8.799 Y0.000 Z-11.901
G1 X-8.599 Y0.000 Z-12.046
G1 X-8.399 Y0.000 Z-12.186
G1 X-8.199 Y0.000 Z-12.322
G1 X-7.999 Y0.000 Z-12.452
G1 X-7.799 Y0.000 Z-12.579
G1 X-7.599 Y0.000 Z-12.700
G1 X-7.399 Y0.000 Z-12.818
G1 X-7.199 Y0.000 Z-12.931
G1 X-6.999 Y0.000 Z-13.041
G1 X-6.799 Y0.000 Z-13.146
G1 X-6.599 Y0.000 Z-13.248
G1 X-6.399 Y0.000 Z-13.345
G1 X-6.199 Y0.000 Z-13.439
G1 X-5.999 Y0.000 Z-13.530
G1 X-5.799 Y0.000 Z-13.617
G1 X-5.599 Y0.000 Z-13.700
G1 X-5.399 Y0.000 Z-13.780
G1 X-5.199 Y0.000 Z-13.857
G1 X-4.999 Y0.000 Z-13.930
G1 X-4.799 Y0.000 Z-14.000
G1 X-4.599 Y0.000 Z-14.067
G1 X-4.399 Y0.000 Z-14.131
G1 X-4.199 Y0.000 Z-14.192
G1 X-3.999 Y0.000 Z-14.250
G1 X-3.799 Y0.000 Z-14.304
G1 X-3.599 Y0.000 Z-14.356
G1 X-3.399 Y0.000 Z-14.404
G1 X-3.199 Y0.000 Z-14.450
G1 X-2.999 Y0.000 Z-14.493
G1 X-2.799 Y0.000 Z-14.533
G1 X-2.599 Y0.000 Z-14.570
G1 X-2.399 Y0.000 Z-14.604
G1 X-2.199 Y0.000 Z-14.636
G1 X-1.999 Y0.000 Z-14.664
G1 X-1.799 Y0.000 Z-14.690
G1 X-1.599 Y0.000 Z-14.713
G1 X-1.399 Y0.000 Z-14.734
G1 X-1.199 Y0.000 Z-14.751
G1 X-0.999 Y0.000 Z-14.766
G1 X-0.799 Y0.000 Z-14.778
G1 X-0.599 Y0.000 Z-14.788
G1 X-0.399 Y0.000 Z-14.795
G1 X-0.199 Y0.000 Z-14.799


; ====== Layer 3: Z = -0.3 ======
; R = 14.7, X = [-14.70, 14.70]


G1 Y0.400

G1 X-14.697 Y0.400 Z-0.300
G1 X-14.497 Y0.400 Z-2.435
G1 X-14.297 Y0.400 Z-3.419
G1 X-14.097 Y0.400 Z-4.167
G1 X-13.897 Y0.400 Z-4.792
G1 X-13.697 Y0.400 Z-5.337
G1 X-13.497 Y0.400 Z-5.824
G1 X-13.297 Y0.400 Z-6.267
G1 X-13.097 Y0.400 Z-6.675
G1 X-12.897 Y0.400 Z-7.054
G1 X-12.697 Y0.400 Z-7.408
G1 X-12.497 Y0.400 Z-7.741
G1 X-12.297 Y0.400 Z-8.055
G1 X-12.097 Y0.400 Z-8.352
G1 X-11.897 Y0.400 Z-8.634
G1 X-11.697 Y0.400 Z-8.903
G1 X-11.497 Y0.400 Z-9.160
G1 X-11.297 Y0.400 Z-9.406
G1 X-11.097 Y0.400 Z-9.641
G1 X-10.897 Y0.400 Z-9.866
G1 X-10.697 Y0.400 Z-10.083
G1 X-10.497 Y0.400 Z-10.291
G1 X-10.297 Y0.400 Z-10.491
G1 X-10.097 Y0.400 Z-10.684
G1 X-9.897 Y0.400 Z-10.869
G1 X-9.697 Y0.400 Z-11.048
G1 X-9.497 Y0.400 Z-11.220
G1 X-9.297 Y0.400 Z-11.387
G1 X-9.097 Y0.400 Z-11.547
G1 X-8.897 Y0.400 Z-11.702
G1 X-8.697 Y0.400 Z-11.851
G1 X-8.497 Y0.400 Z-11.996
G1 X-8.297 Y0.400 Z-12.135
G1 X-8.097 Y0.400 Z-12.269
G1 X-7.897 Y0.400 Z-12.399
G1 X-7.697 Y0.400 Z-12.524
G1 X-7.497 Y0.400 Z-12.645
G1 X-7.297 Y0.400 Z-12.761
G1 X-7.097 Y0.400 Z-12.873
G1 X-6.897 Y0.400 Z-12.982
G1 X-6.697 Y0.400 Z-13.086
G1 X-6.497 Y0.400 Z-13.186
G1 X-6.297 Y0.400 Z-13.283
G1 X-6.097 Y0.400 Z-13.376
G1 X-5.897 Y0.400 Z-13.465
G1 X-5.697 Y0.400 Z-13.551
G1 X-5.497 Y0.400 Z-13.634
G1 X-5.297 Y0.400 Z-13.712
G1 X-5.097 Y0.400 Z-13.788
G1 X-4.897 Y0.400 Z-13.860
G1 X-4.697 Y0.400 Z-13.929
G1 X-4.497 Y0.400 Z-13.995
G1 X-4.297 Y0.400 Z-14.058
G1 X-4.097 Y0.400 Z-14.118
G1 X-3.897 Y0.400 Z-14.174
G1 X-3.697 Y0.400 Z-14.228
G1 X-3.497 Y0.400 Z-14.278
G1 X-3.297 Y0.400 Z-14.326
G1 X-3.097 Y0.400 Z-14.370
G1 X-2.897 Y0.400 Z-14.412
G1 X-2.697 Y0.400 Z-14.450
G1 X-2.497 Y0.400 Z-14.486
G1 X-2.297 Y0.400 Z-14.519
G1 X-2.097 Y0.400 Z-14.550
G1 X-1.897 Y0.400 Z-14.577
G1 X-1.697 Y0.400 Z-14.602
G1 X-1.497 Y0.400 Z-14.624
G1 X-1.297 Y0.400 Z-14.643
G1 X-1.097 Y0.400 Z-14.659
G1 X-0.897 Y0.400 Z-14.673
G1 X-0.697 Y0.400 Z-14.683
G1 X-0.497 Y0.400 Z-14.692
G1 X-0.297 Y0.400 Z-14.697
G1 X-0.097 Y0.400 Z-14.700

G1 X0.000 Y0.400 Z-14.700
G1 X0.200 Y0.400 Z-14.699
G1 X0.400 Y0.400 Z-14.695
G1 X0.600 Y0.400 Z-14.688
G1 X0.800 Y0.400 Z-14.678
G1 X1.000 Y0.400 Z-14.666
G1 X1.200 Y0.400 Z-14.651
G1 X1.400 Y0.400 Z-14.633
G1 X1.600 Y0.400 Z-14.613
G1 X1.800 Y0.400 Z-14.589
G1 X2.000 Y0.400 Z-14.563
G1 X2.200 Y0.400 Z-14.534
G1 X2.400 Y0.400 Z-14.503
G1 X2.600 Y0.400 Z-14.468
G1 X2.800 Y0.400 Z-14.431
G1 X3.000 Y0.400 Z-14.391
G1 X3.200 Y0.400 Z-14.347
G1 X3.400 Y0.400 Z-14.301
G1 X3.600 Y0.400 Z-14.252
G1 X3.800 Y0.400 Z-14.200
G1 X4.000 Y0.400 Z-14.145
G1 X4.200 Y0.400 Z-14.087
G1 X4.400 Y0.400 Z-14.026
G1 X4.600 Y0.400 Z-13.962
G1 X4.800 Y0.400 Z-13.894
G1 X5.000 Y0.400 Z-13.824
G1 X5.200 Y0.400 Z-13.750
G1 X5.400 Y0.400 Z-13.672
G1 X5.600 Y0.400 Z-13.592
G1 X5.800 Y0.400 Z-13.507
G1 X6.000 Y0.400 Z-13.420
G1 X6.200 Y0.400 Z-13.329
G1 X6.400 Y0.400 Z-13.234
G1 X6.600 Y0.400 Z-13.135
G1 X6.800 Y0.400 Z-13.033
G1 X7.000 Y0.400 Z-12.926
G1 X7.200 Y0.400 Z-12.816
G1 X7.400 Y0.400 Z-12.702
G1 X7.600 Y0.400 Z-12.583
G1 X7.800 Y0.400 Z-12.460
G1 X8.000 Y0.400 Z-12.332
G1 X8.200 Y0.400 Z-12.200
G1 X8.400 Y0.400 Z-12.064
G1 X8.600 Y0.400 Z-11.922
G1 X8.800 Y0.400 Z-11.775
G1 X9.000 Y0.400 Z-11.623
G1 X9.200 Y0.400 Z-11.465
G1 X9.400 Y0.400 Z-11.302
G1 X9.600 Y0.400 Z-11.132
G1 X9.800 Y0.400 Z-10.957
G1 X10.000 Y0.400 Z-10.775
G1 X10.200 Y0.400 Z-10.585
G1 X10.400 Y0.400 Z-10.389
G1 X10.600 Y0.400 Z-10.185
G1 X10.800 Y0.400 Z-9.972
G1 X11.000 Y0.400 Z-9.751
G1 X11.200 Y0.400 Z-9.521
G1 X11.400 Y0.400 Z-9.281
G1 X11.600 Y0.400 Z-9.029
G1 X11.800 Y0.400 Z-8.766
G1 X12.000 Y0.400 Z-8.491
G1 X12.200 Y0.400 Z-8.201
G1 X12.400 Y0.400 Z-7.895
G1 X12.600 Y0.400 Z-7.572
G1 X12.800 Y0.400 Z-7.228
G1 X13.000 Y0.400 Z-6.862
G1 X13.200 Y0.400 Z-6.469
G1 X13.400 Y0.400 Z-6.044
G1 X13.600 Y0.400 Z-5.579
G1 X13.800 Y0.400 Z-5.065
G1 X14.000 Y0.400 Z-4.482
G1 X14.200 Y0.400 Z-3.801
G1 X14.400 Y0.400 Z-2.955
G1 X14.600 Y0.400 Z-1.712

G1 Y0.000



; ====== Layer 4: Z = -0.4 ======
; R = 14.6, X = [-14.59, 14.59]

G1 X0.000 Y0.000 Z-14.600
G1 X0.200 Y0.000 Z-14.599
G1 X0.400 Y0.000 Z-14.595
G1 X0.600 Y0.000 Z-14.588
G1 X0.800 Y0.000 Z-14.578
G1 X1.000 Y0.000 Z-14.566
G1 X1.200 Y0.000 Z-14.551
G1 X1.400 Y0.000 Z-14.533
G1 X1.600 Y0.000 Z-14.512
G1 X1.800 Y0.000 Z-14.489
G1 X2.000 Y0.000 Z-14.462
G1 X2.200 Y0.000 Z-14.433
G1 X2.400 Y0.000 Z-14.401
G1 X2.600 Y0.000 Z-14.367
G1 X2.800 Y0.000 Z-14.329
G1 X3.000 Y0.000 Z-14.288
G1 X3.200 Y0.000 Z-14.245
G1 X3.400 Y0.000 Z-14.199
G1 X3.600 Y0.000 Z-14.149
G1 X3.800 Y0.000 Z-14.097
G1 X4.000 Y0.000 Z-14.041
G1 X4.200 Y0.000 Z-13.983
G1 X4.400 Y0.000 Z-13.921
G1 X4.600 Y0.000 Z-13.856
G1 X4.800 Y0.000 Z-13.788
G1 X5.000 Y0.000 Z-13.717
G1 X5.200 Y0.000 Z-13.643
G1 X5.400 Y0.000 Z-13.565
G1 X5.600 Y0.000 Z-13.483
G1 X5.800 Y0.000 Z-13.399
G1 X6.000 Y0.000 Z-13.310
G1 X6.200 Y0.000 Z-13.218
G1 X6.400 Y0.000 Z-13.122
G1 X6.600 Y0.000 Z-13.023
G1 X6.800 Y0.000 Z-12.920
G1 X7.000 Y0.000 Z-12.812
G1 X7.200 Y0.000 Z-12.701
G1 X7.400 Y0.000 Z-12.586
G1 X7.600 Y0.000 Z-12.466
G1 X7.800 Y0.000 Z-12.342
G1 X8.000 Y0.000 Z-12.213
G1 X8.200 Y0.000 Z-12.080
G1 X8.400 Y0.000 Z-11.942
G1 X8.600 Y0.000 Z-11.798
G1 X8.800 Y0.000 Z-11.650
G1 X9.000 Y0.000 Z-11.496
G1 X9.200 Y0.000 Z-11.337
G1 X9.400 Y0.000 Z-11.171
G1 X9.600 Y0.000 Z-11.000
G1 X9.800 Y0.000 Z-10.822
G1 X10.000 Y0.000 Z-10.638
G1 X10.200 Y0.000 Z-10.446
G1 X10.400 Y0.000 Z-10.247
G1 X10.600 Y0.000 Z-10.040
G1 X10.800 Y0.000 Z-9.824
G1 X11.000 Y0.000 Z-9.600
G1 X11.200 Y0.000 Z-9.366
G1 X11.400 Y0.000 Z-9.121
G1 X11.600 Y0.000 Z-8.866
G1 X11.800 Y0.000 Z-8.598
G1 X12.000 Y0.000 Z-8.316
G1 X12.200 Y0.000 Z-8.020
G1 X12.400 Y0.000 Z-7.707
G1 X12.600 Y0.000 Z-7.376
G1 X12.800 Y0.000 Z-7.023
G1 X13.000 Y0.000 Z-6.645
G1 X13.200 Y0.000 Z-6.239
G1 X13.400 Y0.000 Z-5.797
G1 X13.600 Y0.000 Z-5.310
G1 X13.800 Y0.000 Z-4.767
G1 X14.000 Y0.000 Z-4.142
G1 X14.200 Y0.000 Z-3.394
G1 X14.400 Y0.000 Z-2.408

G1 Y0.400



G1 Y0.000

G1 X-14.595 Y0.000 Z-0.400
G1 X-14.395 Y0.000 Z-2.441
G1 X-14.195 Y0.000 Z-3.417
G1 X-13.995 Y0.000 Z-4.161
G1 X-13.795 Y0.000 Z-4.782
G1 X-13.595 Y0.000 Z-5.324
G1 X-13.395 Y0.000 Z-5.809
G1 X-13.195 Y0.000 Z-6.250
G1 X-12.995 Y0.000 Z-6.656
G1 X-12.795 Y0.000 Z-7.033
G1 X-12.595 Y0.000 Z-7.385
G1 X-12.395 Y0.000 Z-7.716
G1 X-12.195 Y0.000 Z-8.028
G1 X-11.995 Y0.000 Z-8.324
G1 X-11.795 Y0.000 Z-8.605
G1 X-11.595 Y0.000 Z-8.873
G1 X-11.395 Y0.000 Z-9.128
G1 X-11.195 Y0.000 Z-9.372
G1 X-10.995 Y0.000 Z-9.606
G1 X-10.795 Y0.000 Z-9.830
G1 X-10.595 Y0.000 Z-10.046
G1 X-10.395 Y0.000 Z-10.253
G1 X-10.195 Y0.000 Z-10.451
G1 X-9.995 Y0.000 Z-10.643
G1 X-9.795 Y0.000 Z-10.827
G1 X-9.595 Y0.000 Z-11.005
G1 X-9.395 Y0.000 Z-11.176
G1 X-9.195 Y0.000 Z-11.341
G1 X-8.995 Y0.000 Z-11.500
G1 X-8.795 Y0.000 Z-11.654
G1 X-8.595 Y0.000 Z-11.802
G1 X-8.395 Y0.000 Z-11.945
G1 X-8.195 Y0.000 Z-12.083
G1 X-7.995 Y0.000 Z-12.217
G1 X-7.795 Y0.000 Z-12.345
G1 X-7.595 Y0.000 Z-12.469
G1 X-7.395 Y0.000 Z-12.589
G1 X-7.195 Y0.000 Z-12.704
G1 X-6.995 Y0.000 Z-12.815
G1 X-6.795 Y0.000 Z-12.923
G1 X-6.595 Y0.000 Z-13.026
G1 X-6.395 Y0.000 Z-13.125
G1 X-6.195 Y0.000 Z-13.221
G1 X-5.995 Y0.000 Z-13.313
G1 X-5.795 Y0.000 Z-13.401
G1 X-5.595 Y0.000 Z-13.486
G1 X-5.395 Y0.000 Z-13.567
G1 X-5.195 Y0.000 Z-13.645
G1 X-4.995 Y0.000 Z-13.719
G1 X-4.795 Y0.000 Z-13.790
G1 X-4.595 Y0.000 Z-13.858
G1 X-4.395 Y0.000 Z-13.923
G1 X-4.195 Y0.000 Z-13.984
G1 X-3.995 Y0.000 Z-14.043
G1 X-3.795 Y0.000 Z-14.098
G1 X-3.595 Y0.000 Z-14.151
G1 X-3.395 Y0.000 Z-14.200
G1 X-3.195 Y0.000 Z-14.246
G1 X-2.995 Y0.000 Z-14.290
G1 X-2.795 Y0.000 Z-14.330
G1 X-2.595 Y0.000 Z-14.368
G1 X-2.395 Y0.000 Z-14.402
G1 X-2.195 Y0.000 Z-14.434
G1 X-1.995 Y0.000 Z-14.463
G1 X-1.795 Y0.000 Z-14.489
G1 X-1.595 Y0.000 Z-14.513
G1 X-1.395 Y0.000 Z-14.533
G1 X-1.195 Y0.000 Z-14.551
G1 X-0.995 Y0.000 Z-14.566
G1 X-0.795 Y0.000 Z-14.578
G1 X-0.595 Y0.000 Z-14.588
G1 X-0.395 Y0.000 Z-14.595
G1 X-0.195 Y0.000 Z-14.599


; ====== Layer 5: Z = -0.5 ======
; R = 14.5, X = [-14.49, 14.49]


G1 Y0.400

G1 X-14.491 Y0.400 Z-0.500
G1 X-14.291 Y0.400 Z-2.451
G1 X-14.091 Y0.400 Z-3.418
G1 X-13.891 Y0.400 Z-4.157
G1 X-13.691 Y0.400 Z-4.775
G1 X-13.491 Y0.400 Z-5.313
G1 X-13.291 Y0.400 Z-5.796
G1 X-13.091 Y0.400 Z-6.234
G1 X-12.891 Y0.400 Z-6.638
G1 X-12.691 Y0.400 Z-7.013
G1 X-12.491 Y0.400 Z-7.363
G1 X-12.291 Y0.400 Z-7.692
G1 X-12.091 Y0.400 Z-8.003
G1 X-11.891 Y0.400 Z-8.297
G1 X-11.691 Y0.400 Z-8.577
G1 X-11.491 Y0.400 Z-8.843
G1 X-11.291 Y0.400 Z-9.097
G1 X-11.091 Y0.400 Z-9.340
G1 X-10.891 Y0.400 Z-9.572
G1 X-10.691 Y0.400 Z-9.795
G1 X-10.491 Y0.400 Z-10.009
G1 X-10.291 Y0.400 Z-10.215
G1 X-10.091 Y0.400 Z-10.412
G1 X-9.891 Y0.400 Z-10.602
G1 X-9.691 Y0.400 Z-10.786
G1 X-9.491 Y0.400 Z-10.962
G1 X-9.291 Y0.400 Z-11.132
G1 X-9.091 Y0.400 Z-11.296
G1 X-8.891 Y0.400 Z-11.454
G1 X-8.691 Y0.400 Z-11.606
G1 X-8.491 Y0.400 Z-11.754
G1 X-8.291 Y0.400 Z-11.896
G1 X-8.091 Y0.400 Z-12.032
G1 X-7.891 Y0.400 Z-12.165
G1 X-7.691 Y0.400 Z-12.292
G1 X-7.491 Y0.400 Z-12.415
G1 X-7.291 Y0.400 Z-12.533
G1 X-7.091 Y0.400 Z-12.648
G1 X-6.891 Y0.400 Z-12.758
G1 X-6.691 Y0.400 Z-12.864
G1 X-6.491 Y0.400 Z-12.966
G1 X-6.291 Y0.400 Z-13.064
G1 X-6.091 Y0.400 Z-13.158
G1 X-5.891 Y0.400 Z-13.249
G1 X-5.691 Y0.400 Z-13.336
G1 X-5.491 Y0.400 Z-13.420
G1 X-5.291 Y0.400 Z-13.500
G1 X-5.091 Y0.400 Z-13.577
G1 X-4.891 Y0.400 Z-13.650
G1 X-4.691 Y0.400 Z-13.720
G1 X-4.491 Y0.400 Z-13.787
G1 X-4.291 Y0.400 Z-13.850
G1 X-4.091 Y0.400 Z-13.911
G1 X-3.891 Y0.400 Z-13.968
G1 X-3.691 Y0.400 Z-14.022
G1 X-3.491 Y0.400 Z-14.073
G1 X-3.291 Y0.400 Z-14.122
G1 X-3.091 Y0.400 Z-14.167
G1 X-2.891 Y0.400 Z-14.209
G1 X-2.691 Y0.400 Z-14.248
G1 X-2.491 Y0.400 Z-14.284
G1 X-2.291 Y0.400 Z-14.318
G1 X-2.091 Y0.400 Z-14.348
G1 X-1.891 Y0.400 Z-14.376
G1 X-1.691 Y0.400 Z-14.401
G1 X-1.491 Y0.400 Z-14.423
G1 X-1.291 Y0.400 Z-14.442
G1 X-1.091 Y0.400 Z-14.459
G1 X-0.891 Y0.400 Z-14.473
G1 X-0.691 Y0.400 Z-14.484
G1 X-0.491 Y0.400 Z-14.492
G1 X-0.291 Y0.400 Z-14.497
G1 X-0.091 Y0.400 Z-14.500

G1 X0.000 Y0.400 Z-14.500
G1 X0.200 Y0.400 Z-14.499
G1 X0.400 Y0.400 Z-14.494
G1 X0.600 Y0.400 Z-14.488
G1 X0.800 Y0.400 Z-14.478
G1 X1.000 Y0.400 Z-14.465
G1 X1.200 Y0.400 Z-14.450
G1 X1.400 Y0.400 Z-14.432
G1 X1.600 Y0.400 Z-14.411
G1 X1.800 Y0.400 Z-14.388
G1 X2.000 Y0.400 Z-14.361
G1 X2.200 Y0.400 Z-14.332
G1 X2.400 Y0.400 Z-14.300
G1 X2.600 Y0.400 Z-14.265
G1 X2.800 Y0.400 Z-14.227
G1 X3.000 Y0.400 Z-14.186
G1 X3.200 Y0.400 Z-14.142
G1 X3.400 Y0.400 Z-14.096
G1 X3.600 Y0.400 Z-14.046
G1 X3.800 Y0.400 Z-13.993
G1 X4.000 Y0.400 Z-13.937
G1 X4.200 Y0.400 Z-13.878
G1 X4.400 Y0.400 Z-13.816
G1 X4.600 Y0.400 Z-13.751
G1 X4.800 Y0.400 Z-13.682
G1 X5.000 Y0.400 Z-13.611
G1 X5.200 Y0.400 Z-13.536
G1 X5.400 Y0.400 Z-13.457
G1 X5.600 Y0.400 Z-13.375
G1 X5.800 Y0.400 Z-13.289
G1 X6.000 Y0.400 Z-13.200
G1 X6.200 Y0.400 Z-13.108
G1 X6.400 Y0.400 Z-13.011
G1 X6.600 Y0.400 Z-12.911
G1 X6.800 Y0.400 Z-12.807
G1 X7.000 Y0.400 Z-12.698
G1 X7.200 Y0.400 Z-12.586
G1 X7.400 Y0.400 Z-12.470
G1 X7.600 Y0.400 Z-12.349
G1 X7.800 Y0.400 Z-12.223
G1 X8.000 Y0.400 Z-12.093
G1 X8.200 Y0.400 Z-11.959
G1 X8.400 Y0.400 Z-11.819
G1 X8.600 Y0.400 Z-11.674
G1 X8.800 Y0.400 Z-11.524
G1 X9.000 Y0.400 Z-11.369
G1 X9.200 Y0.400 Z-11.208
G1 X9.400 Y0.400 Z-11.040
G1 X9.600 Y0.400 Z-10.867
G1 X9.800 Y0.400 Z-10.687
G1 X10.000 Y0.400 Z-10.500
G1 X10.200 Y0.400 Z-10.306
G1 X10.400 Y0.400 Z-10.104
G1 X10.600 Y0.400 Z-9.894
G1 X10.800 Y0.400 Z-9.675
G1 X11.000 Y0.400 Z-9.447
G1 X11.200 Y0.400 Z-9.209
G1 X11.400 Y0.400 Z-8.960
G1 X11.600 Y0.400 Z-8.700
G1 X11.800 Y0.400 Z-8.427
G1 X12.000 Y0.400 Z-8.139
G1 X12.200 Y0.400 Z-7.836
G1 X12.400 Y0.400 Z-7.516
G1 X12.600 Y0.400 Z-7.176
G1 X12.800 Y0.400 Z-6.812
G1 X13.000 Y0.400 Z-6.423
G1 X13.200 Y0.400 Z-6.001
G1 X13.400 Y0.400 Z-5.540
G1 X13.600 Y0.400 Z-5.029
G1 X13.800 Y0.400 Z-4.451
G1 X14.000 Y0.400 Z-3.775
G1 X14.200 Y0.400 Z-2.934
G1 X14.400 Y0.400 Z-1.700

G1 Y0.000



; ====== Layer 6: Z = -0.6 ======
; R = 14.4, X = [-14.39, 14.39]

G1 X0.000 Y0.000 Z-14.400
G1 X0.200 Y0.000 Z-14.399
G1 X0.400 Y0.000 Z-14.394
G1 X0.600 Y0.000 Z-14.387
G1 X0.800 Y0.000 Z-14.378
G1 X1.000 Y0.000 Z-14.365
G1 X1.200 Y0.000 Z-14.350
G1 X1.400 Y0.000 Z-14.332
G1 X1.600 Y0.000 Z-14.311
G1 X1.800 Y0.000 Z-14.287
G1 X2.000 Y0.000 Z-14.260
G1 X2.200 Y0.000 Z-14.231
G1 X2.400 Y0.000 Z-14.199
G1 X2.600 Y0.000 Z-14.163
G1 X2.800 Y0.000 Z-14.125
G1 X3.000 Y0.000 Z-14.084
G1 X3.200 Y0.000 Z-14.040
G1 X3.400 Y0.000 Z-13.993
G1 X3.600 Y0.000 Z-13.943
G1 X3.800 Y0.000 Z-13.890
G1 X4.000 Y0.000 Z-13.833
G1 X4.200 Y0.000 Z-13.774
G1 X4.400 Y0.000 Z-13.711
G1 X4.600 Y0.000 Z-13.646
G1 X4.800 Y0.000 Z-13.576
G1 X5.000 Y0.000 Z-13.504
G1 X5.200 Y0.000 Z-13.428
G1 X5.400 Y0.000 Z-13.349
G1 X5.600 Y0.000 Z-13.266
G1 X5.800 Y0.000 Z-13.180
G1 X6.000 Y0.000 Z-13.090
G1 X6.200 Y0.000 Z-12.997
G1 X6.400 Y0.000 Z-12.900
G1 X6.600 Y0.000 Z-12.798
G1 X6.800 Y0.000 Z-12.693
G1 X7.000 Y0.000 Z-12.584
G1 X7.200 Y0.000 Z-12.471
G1 X7.400 Y0.000 Z-12.353
G1 X7.600 Y0.000 Z-12.231
G1 X7.800 Y0.000 Z-12.105
G1 X8.000 Y0.000 Z-11.973
G1 X8.200 Y0.000 Z-11.837
G1 X8.400 Y0.000 Z-11.696
G1 X8.600 Y0.000 Z-11.550
G1 X8.800 Y0.000 Z-11.398
G1 X9.000 Y0.000 Z-11.241
G1 X9.200 Y0.000 Z-11.078
G1 X9.400 Y0.000 Z-10.909
G1 X9.600 Y0.000 Z-10.733
G1 X9.800 Y0.000 Z-10.551
G1 X10.000 Y0.000 Z-10.361
G1 X10.200 Y0.000 Z-10.165
G1 X10.400 Y0.000 Z-9.960
G1 X10.600 Y0.000 Z-9.747
G1 X10.800 Y0.000 Z-9.525
G1 X11.000 Y0.000 Z-9.293
G1 X11.200 Y0.000 Z-9.051
G1 X11.400 Y0.000 Z-8.798
G1 X11.600 Y0.000 Z-8.532
G1 X11.800 Y0.000 Z-8.253
G1 X12.000 Y0.000 Z-7.960
G1 X12.200 Y0.000 Z-7.650
G1 X12.400 Y0.000 Z-7.321
G1 X12.600 Y0.000 Z-6.971
G1 X12.800 Y0.000 Z-6.597
G1 X13.000 Y0.000 Z-6.194
G1 X13.200 Y0.000 Z-5.755
G1 X13.400 Y0.000 Z-5.273
G1 X13.600 Y0.000 Z-4.733
G1 X13.800 Y0.000 Z-4.113
G1 X14.000 Y0.000 Z-3.370
G1 X14.200 Y0.000 Z-2.392

G1 Y0.400



G1 Y0.000

G1 X-14.387 Y0.000 Z-0.600
G1 X-14.187 Y0.000 Z-2.465
G1 X-13.987 Y0.000 Z-3.422
G1 X-13.787 Y0.000 Z-4.155
G1 X-13.587 Y0.000 Z-4.769
G1 X-13.387 Y0.000 Z-5.304
G1 X-13.187 Y0.000 Z-5.784
G1 X-12.987 Y0.000 Z-6.220
G1 X-12.787 Y0.000 Z-6.621
G1 X-12.587 Y0.000 Z-6.994
G1 X-12.387 Y0.000 Z-7.342
G1 X-12.187 Y0.000 Z-7.670
G1 X-11.987 Y0.000 Z-7.979
G1 X-11.787 Y0.000 Z-8.271
G1 X-11.587 Y0.000 Z-8.549
G1 X-11.387 Y0.000 Z-8.814
G1 X-11.187 Y0.000 Z-9.066
G1 X-10.987 Y0.000 Z-9.308
G1 X-10.787 Y0.000 Z-9.539
G1 X-10.587 Y0.000 Z-9.760
G1 X-10.387 Y0.000 Z-9.973
G1 X-10.187 Y0.000 Z-10.177
G1 X-9.987 Y0.000 Z-10.374
G1 X-9.787 Y0.000 Z-10.562
G1 X-9.587 Y0.000 Z-10.744
G1 X-9.387 Y0.000 Z-10.919
G1 X-9.187 Y0.000 Z-11.088
G1 X-8.987 Y0.000 Z-11.251
G1 X-8.787 Y0.000 Z-11.408
G1 X-8.587 Y0.000 Z-11.559
G1 X-8.387 Y0.000 Z-11.705
G1 X-8.187 Y0.000 Z-11.846
G1 X-7.987 Y0.000 Z-11.982
G1 X-7.787 Y0.000 Z-12.113
G1 X-7.587 Y0.000 Z-12.239
G1 X-7.387 Y0.000 Z-12.361
G1 X-7.187 Y0.000 Z-12.478
G1 X-6.987 Y0.000 Z-12.591
G1 X-6.787 Y0.000 Z-12.700
G1 X-6.587 Y0.000 Z-12.805
G1 X-6.387 Y0.000 Z-12.906
G1 X-6.187 Y0.000 Z-13.003
G1 X-5.987 Y0.000 Z-13.096
G1 X-5.787 Y0.000 Z-13.186
G1 X-5.587 Y0.000 Z-13.272
G1 X-5.387 Y0.000 Z-13.354
G1 X-5.187 Y0.000 Z-13.433
G1 X-4.987 Y0.000 Z-13.509
G1 X-4.787 Y0.000 Z-13.581
G1 X-4.587 Y0.000 Z-13.650
G1 X-4.387 Y0.000 Z-13.715
G1 X-4.187 Y0.000 Z-13.778
G1 X-3.987 Y0.000 Z-13.837
G1 X-3.787 Y0.000 Z-13.893
G1 X-3.587 Y0.000 Z-13.946
G1 X-3.387 Y0.000 Z-13.996
G1 X-3.187 Y0.000 Z-14.043
G1 X-2.987 Y0.000 Z-14.087
G1 X-2.787 Y0.000 Z-14.128
G1 X-2.587 Y0.000 Z-14.166
G1 X-2.387 Y0.000 Z-14.201
G1 X-2.187 Y0.000 Z-14.233
G1 X-1.987 Y0.000 Z-14.262
G1 X-1.787 Y0.000 Z-14.289
G1 X-1.587 Y0.000 Z-14.312
G1 X-1.387 Y0.000 Z-14.333
G1 X-1.187 Y0.000 Z-14.351
G1 X-0.987 Y0.000 Z-14.366
G1 X-0.787 Y0.000 Z-14.378
G1 X-0.587 Y0.000 Z-14.388
G1 X-0.387 Y0.000 Z-14.395
G1 X-0.187 Y0.000 Z-14.399


; ====== Layer 7: Z = -0.7 ======
; R = 14.3, X = [-14.28, 14.28]


G1 Y0.400

G1 X-14.283 Y0.400 Z-0.700
G1 X-14.083 Y0.400 Z-2.483
G1 X-13.883 Y0.400 Z-3.429
G1 X-13.683 Y0.400 Z-4.156
G1 X-13.483 Y0.400 Z-4.765
G1 X-13.283 Y0.400 Z-5.297
G1 X-13.083 Y0.400 Z-5.773
G1 X-12.883 Y0.400 Z-6.207
G1 X-12.683 Y0.400 Z-6.606
G1 X-12.483 Y0.400 Z-6.976
G1 X-12.283 Y0.400 Z-7.323
G1 X-12.083 Y0.400 Z-7.648
G1 X-11.883 Y0.400 Z-7.955
G1 X-11.683 Y0.400 Z-8.246
G1 X-11.483 Y0.400 Z-8.523
G1 X-11.283 Y0.400 Z-8.786
G1 X-11.083 Y0.400 Z-9.037
G1 X-10.883 Y0.400 Z-9.276
G1 X-10.683 Y0.400 Z-9.506
G1 X-10.483 Y0.400 Z-9.726
G1 X-10.283 Y0.400 Z-9.937
G1 X-10.083 Y0.400 Z-10.140
G1 X-9.883 Y0.400 Z-10.335
G1 X-9.683 Y0.400 Z-10.523
G1 X-9.483 Y0.400 Z-10.704
G1 X-9.283 Y0.400 Z-10.877
G1 X-9.083 Y0.400 Z-11.045
G1 X-8.883 Y0.400 Z-11.206
G1 X-8.683 Y0.400 Z-11.362
G1 X-8.483 Y0.400 Z-11.512
G1 X-8.283 Y0.400 Z-11.657
G1 X-8.083 Y0.400 Z-11.797
G1 X-7.883 Y0.400 Z-11.931
G1 X-7.683 Y0.400 Z-12.061
G1 X-7.483 Y0.400 Z-12.186
G1 X-7.283 Y0.400 Z-12.307
G1 X-7.083 Y0.400 Z-12.423
G1 X-6.883 Y0.400 Z-12.535
G1 X-6.683 Y0.400 Z-12.642
G1 X-6.483 Y0.400 Z-12.746
G1 X-6.283 Y0.400 Z-12.846
G1 X-6.083 Y0.400 Z-12.942
G1 X-5.883 Y0.400 Z-13.034
G1 X-5.683 Y0.400 Z-13.122
G1 X-5.483 Y0.400 Z-13.207
G1 X-5.283 Y0.400 Z-13.288
G1 X-5.083 Y0.400 Z-13.366
G1 X-4.883 Y0.400 Z-13.441
G1 X-4.683 Y0.400 Z-13.512
G1 X-4.483 Y0.400 Z-13.579
G1 X-4.283 Y0.400 Z-13.644
G1 X-4.083 Y0.400 Z-13.705
G1 X-3.883 Y0.400 Z-13.763
G1 X-3.683 Y0.400 Z-13.818
G1 X-3.483 Y0.400 Z-13.869
G1 X-3.283 Y0.400 Z-13.918
G1 X-3.083 Y0.400 Z-13.964
G1 X-2.883 Y0.400 Z-14.006
G1 X-2.683 Y0.400 Z-14.046
G1 X-2.483 Y0.400 Z-14.083
G1 X-2.283 Y0.400 Z-14.117
G1 X-2.083 Y0.400 Z-14.147
G1 X-1.883 Y0.400 Z-14.176
G1 X-1.683 Y0.400 Z-14.201
G1 X-1.483 Y0.400 Z-14.223
G1 X-1.283 Y0.400 Z-14.242
G1 X-1.083 Y0.400 Z-14.259
G1 X-0.883 Y0.400 Z-14.273
G1 X-0.683 Y0.400 Z-14.284
G1 X-0.483 Y0.400 Z-14.292
G1 X-0.283 Y0.400 Z-14.297
G1 X-0.083 Y0.400 Z-14.300

G1 X0.000 Y0.400 Z-14.300
G1 X0.200 Y0.400 Z-14.299
G1 X0.400 Y0.400 Z-14.294
G1 X0.600 Y0.400 Z-14.287
G1 X0.800 Y0.400 Z-14.278
G1 X1.000 Y0.400 Z-14.265
G1 X1.200 Y0.400 Z-14.250
G1 X1.400 Y0.400 Z-14.231
G1 X1.600 Y0.400 Z-14.210
G1 X1.800 Y0.400 Z-14.186
G1 X2.000 Y0.400 Z-14.159
G1 X2.200 Y0.400 Z-14.130
G1 X2.400 Y0.400 Z-14.097
G1 X2.600 Y0.400 Z-14.062
G1 X2.800 Y0.400 Z-14.023
G1 X3.000 Y0.400 Z-13.982
G1 X3.200 Y0.400 Z-13.937
G1 X3.400 Y0.400 Z-13.890
G1 X3.600 Y0.400 Z-13.839
G1 X3.800 Y0.400 Z-13.786
G1 X4.000 Y0.400 Z-13.729
G1 X4.200 Y0.400 Z-13.669
G1 X4.400 Y0.400 Z-13.606
G1 X4.600 Y0.400 Z-13.540
G1 X4.800 Y0.400 Z-13.470
G1 X5.000 Y0.400 Z-13.397
G1 X5.200 Y0.400 Z-13.321
G1 X5.400 Y0.400 Z-13.241
G1 X5.600 Y0.400 Z-13.158
G1 X5.800 Y0.400 Z-13.071
G1 X6.000 Y0.400 Z-12.980
G1 X6.200 Y0.400 Z-12.886
G1 X6.400 Y0.400 Z-12.788
G1 X6.600 Y0.400 Z-12.686
G1 X6.800 Y0.400 Z-12.580
G1 X7.000 Y0.400 Z-12.470
G1 X7.200 Y0.400 Z-12.355
G1 X7.400 Y0.400 Z-12.236
G1 X7.600 Y0.400 Z-12.113
G1 X7.800 Y0.400 Z-11.985
G1 X8.000 Y0.400 Z-11.853
G1 X8.200 Y0.400 Z-11.715
G1 X8.400 Y0.400 Z-11.573
G1 X8.600 Y0.400 Z-11.425
G1 X8.800 Y0.400 Z-11.272
G1 X9.000 Y0.400 Z-11.113
G1 X9.200 Y0.400 Z-10.948
G1 X9.400 Y0.400 Z-10.776
G1 X9.600 Y0.400 Z-10.599
G1 X9.800 Y0.400 Z-10.414
G1 X10.000 Y0.400 Z-10.222
G1 X10.200 Y0.400 Z-10.022
G1 X10.400 Y0.400 Z-9.815
G1 X10.600 Y0.400 Z-9.598
G1 X10.800 Y0.400 Z-9.373
G1 X11.000 Y0.400 Z-9.137
G1 X11.200 Y0.400 Z-8.891
G1 X11.400 Y0.400 Z-8.633
G1 X11.600 Y0.400 Z-8.362
G1 X11.800 Y0.400 Z-8.078
G1 X12.000 Y0.400 Z-7.778
G1 X12.200 Y0.400 Z-7.460
G1 X12.400 Y0.400 Z-7.122
G1 X12.600 Y0.400 Z-6.762
G1 X12.800 Y0.400 Z-6.376
G1 X13.000 Y0.400 Z-5.957
G1 X13.200 Y0.400 Z-5.500
G1 X13.400 Y0.400 Z-4.993
G1 X13.600 Y0.400 Z-4.419
G1 X13.800 Y0.400 Z-3.748
G1 X14.000 Y0.400 Z-2.914
G1 X14.200 Y0.400 Z-1.688

G1 Y0.000



; ====== Layer 8: Z = -0.8 ======
; R = 14.2, X = [-14.18, 14.18]

G1 X0.000 Y0.000 Z-14.200
G1 X0.200 Y0.000 Z-14.199
G1 X0.400 Y0.000 Z-14.194
G1 X0.600 Y0.000 Z-14.187
G1 X0.800 Y0.000 Z-14.177
G1 X1.000 Y0.000 Z-14.165
G1 X1.200 Y0.000 Z-14.149
G1 X1.400 Y0.000 Z-14.131
G1 X1.600 Y0.000 Z-14.110
G1 X1.800 Y0.000 Z-14.085
G1 X2.000 Y0.000 Z-14.058
G1 X2.200 Y0.000 Z-14.029
G1 X2.400 Y0.000 Z-13.996
G1 X2.600 Y0.000 Z-13.960
G1 X2.800 Y0.000 Z-13.921
G1 X3.000 Y0.000 Z-13.879
G1 X3.200 Y0.000 Z-13.835
G1 X3.400 Y0.000 Z-13.787
G1 X3.600 Y0.000 Z-13.736
G1 X3.800 Y0.000 Z-13.682
G1 X4.000 Y0.000 Z-13.625
G1 X4.200 Y0.000 Z-13.565
G1 X4.400 Y0.000 Z-13.501
G1 X4.600 Y0.000 Z-13.434
G1 X4.800 Y0.000 Z-13.364
G1 X5.000 Y0.000 Z-13.291
G1 X5.200 Y0.000 Z-13.214
G1 X5.400 Y0.000 Z-13.133
G1 X5.600 Y0.000 Z-13.049
G1 X5.800 Y0.000 Z-12.961
G1 X6.000 Y0.000 Z-12.870
G1 X6.200 Y0.000 Z-12.775
G1 X6.400 Y0.000 Z-12.676
G1 X6.600 Y0.000 Z-12.573
G1 X6.800 Y0.000 Z-12.466
G1 X7.000 Y0.000 Z-12.355
G1 X7.200 Y0.000 Z-12.239
G1 X7.400 Y0.000 Z-12.119
G1 X7.600 Y0.000 Z-11.995
G1 X7.800 Y0.000 Z-11.866
G1 X8.000 Y0.000 Z-11.732
G1 X8.200 Y0.000 Z-11.593
G1 X8.400 Y0.000 Z-11.449
G1 X8.600 Y0.000 Z-11.300
G1 X8.800 Y0.000 Z-11.145
G1 X9.000 Y0.000 Z-10.984
G1 X9.200 Y0.000 Z-10.817
G1 X9.400 Y0.000 Z-10.643
G1 X9.600 Y0.000 Z-10.463
G1 X9.800 Y0.000 Z-10.276
G1 X10.000 Y0.000 Z-10.082
G1 X10.200 Y0.000 Z-9.879
G1 X10.400 Y0.000 Z-9.669
G1 X10.600 Y0.000 Z-9.449
G1 X10.800 Y0.000 Z-9.220
G1 X11.000 Y0.000 Z-8.980
G1 X11.200 Y0.000 Z-8.729
G1 X11.400 Y0.000 Z-8.466
G1 X11.600 Y0.000 Z-8.190
G1 X11.800 Y0.000 Z-7.899
G1 X12.000 Y0.000 Z-7.592
G1 X12.200 Y0.000 Z-7.266
G1 X12.400 Y0.000 Z-6.920
G1 X12.600 Y0.000 Z-6.548
G1 X12.800 Y0.000 Z-6.148
G1 X13.000 Y0.000 Z-5.713
G1 X13.200 Y0.000 Z-5.235
G1 X13.400 Y0.000 Z-4.699
G1 X13.600 Y0.000 Z-4.084
G1 X13.800 Y0.000 Z-3.347
G1 X14.000 Y0.000 Z-2.375

G1 Y0.400



G1 Y0.000

G1 X-14.177 Y0.000 Z-0.800
G1 X-13.977 Y0.000 Z-2.504
G1 X-13.777 Y0.000 Z-3.438
G1 X-13.577 Y0.000 Z-4.158
G1 X-13.377 Y0.000 Z-4.763
G1 X-13.177 Y0.000 Z-5.291
G1 X-12.977 Y0.000 Z-5.764
G1 X-12.777 Y0.000 Z-6.195
G1 X-12.577 Y0.000 Z-6.591
G1 X-12.377 Y0.000 Z-6.960
G1 X-12.177 Y0.000 Z-7.304
G1 X-11.977 Y0.000 Z-7.628
G1 X-11.777 Y0.000 Z-7.933
G1 X-11.577 Y0.000 Z-8.222
G1 X-11.377 Y0.000 Z-8.497
G1 X-11.177 Y0.000 Z-8.758
G1 X-10.977 Y0.000 Z-9.008
G1 X-10.777 Y0.000 Z-9.246
G1 X-10.577 Y0.000 Z-9.474
G1 X-10.377 Y0.000 Z-9.693
G1 X-10.177 Y0.000 Z-9.903
G1 X-9.977 Y0.000 Z-10.104
G1 X-9.777 Y0.000 Z-10.298
G1 X-9.577 Y0.000 Z-10.484
G1 X-9.377 Y0.000 Z-10.663
G1 X-9.177 Y0.000 Z-10.836
G1 X-8.977 Y0.000 Z-11.002
G1 X-8.777 Y0.000 Z-11.162
G1 X-8.577 Y0.000 Z-11.317
G1 X-8.377 Y0.000 Z-11.466
G1 X-8.177 Y0.000 Z-11.609
G1 X-7.977 Y0.000 Z-11.747
G1 X-7.777 Y0.000 Z-11.881
G1 X-7.577 Y0.000 Z-12.009
G1 X-7.377 Y0.000 Z-12.133
G1 X-7.177 Y0.000 Z-12.253
G1 X-6.977 Y0.000 Z-12.368
G1 X-6.777 Y0.000 Z-12.478
G1 X-6.577 Y0.000 Z-12.585
G1 X-6.377 Y0.000 Z-12.687
G1 X-6.177 Y0.000 Z-12.786
G1 X-5.977 Y0.000 Z-12.881
G1 X-5.777 Y0.000 Z-12.972
G1 X-5.577 Y0.000 Z-13.059
G1 X-5.377 Y0.000 Z-13.142
G1 X-5.177 Y0.000 Z-13.222
G1 X-4.977 Y0.000 Z-13.299
G1 X-4.777 Y0.000 Z-13.372
G1 X-4.577 Y0.000 Z-13.442
G1 X-4.377 Y0.000 Z-13.508
G1 X-4.177 Y0.000 Z-13.572
G1 X-3.977 Y0.000 Z-13.632
G1 X-3.777 Y0.000 Z-13.688
G1 X-3.577 Y0.000 Z-13.742
G1 X-3.377 Y0.000 Z-13.792
G1 X-3.177 Y0.000 Z-13.840
G1 X-2.977 Y0.000 Z-13.884
G1 X-2.777 Y0.000 Z-13.926
G1 X-2.577 Y0.000 Z-13.964
G1 X-2.377 Y0.000 Z-14.000
G1 X-2.177 Y0.000 Z-14.032
G1 X-1.977 Y0.000 Z-14.062
G1 X-1.777 Y0.000 Z-14.088
G1 X-1.577 Y0.000 Z-14.112
G1 X-1.377 Y0.000 Z-14.133
G1 X-1.177 Y0.000 Z-14.151
G1 X-0.977 Y0.000 Z-14.166
G1 X-0.777 Y0.000 Z-14.179
G1 X-0.577 Y0.000 Z-14.188
G1 X-0.377 Y0.000 Z-14.195
G1 X-0.177 Y0.000 Z-14.199


; ====== Layer 9: Z = -0.9 ======
; R = 14.1, X = [-14.07, 14.07]


G1 Y0.400

G1 X-14.071 Y0.400 Z-0.900
G1 X-13.871 Y0.400 Z-2.530
G1 X-13.671 Y0.400 Z-3.451
G1 X-13.471 Y0.400 Z-4.164
G1 X-13.271 Y0.400 Z-4.763
G1 X-13.071 Y0.400 Z-5.287
G1 X-12.871 Y0.400 Z-5.757
G1 X-12.671 Y0.400 Z-6.185
G1 X-12.471 Y0.400 Z-6.579
G1 X-12.271 Y0.400 Z-6.945
G1 X-12.071 Y0.400 Z-7.287
G1 X-11.871 Y0.400 Z-7.608
G1 X-11.671 Y0.400 Z-7.912
G1 X-11.471 Y0.400 Z-8.199
G1 X-11.271 Y0.400 Z-8.472
G1 X-11.071 Y0.400 Z-8.731
G1 X-10.871 Y0.400 Z-8.979
G1 X-10.671 Y0.400 Z-9.216
G1 X-10.471 Y0.400 Z-9.443
G1 X-10.271 Y0.400 Z-9.660
G1 X-10.071 Y0.400 Z-9.868
G1 X-9.871 Y0.400 Z-10.068
G1 X-9.671 Y0.400 Z-10.260
G1 X-9.471 Y0.400 Z-10.445
G1 X-9.271 Y0.400 Z-10.623
G1 X-9.071 Y0.400 Z-10.795
G1 X-8.871 Y0.400 Z-10.960
G1 X-8.671 Y0.400 Z-11.118
G1 X-8.471 Y0.400 Z-11.272
G1 X-8.271 Y0.400 Z-11.419
G1 X-8.071 Y0.400 Z-11.561
G1 X-7.871 Y0.400 Z-11.698
G1 X-7.671 Y0.400 Z-11.831
G1 X-7.471 Y0.400 Z-11.958
G1 X-7.271 Y0.400 Z-12.081
G1 X-7.071 Y0.400 Z-12.199
G1 X-6.871 Y0.400 Z-12.312
G1 X-6.671 Y0.400 Z-12.422
G1 X-6.471 Y0.400 Z-12.527
G1 X-6.271 Y0.400 Z-12.629
G1 X-6.071 Y0.400 Z-12.726
G1 X-5.871 Y0.400 Z-12.819
G1 X-5.671 Y0.400 Z-12.909
G1 X-5.471 Y0.400 Z-12.995
G1 X-5.271 Y0.400 Z-13.078
G1 X-5.071 Y0.400 Z-13.156
G1 X-4.871 Y0.400 Z-13.232
G1 X-4.671 Y0.400 Z-13.304
G1 X-4.471 Y0.400 Z-13.372
G1 X-4.271 Y0.400 Z-13.438
G1 X-4.071 Y0.400 Z-13.499
G1 X-3.871 Y0.400 Z-13.558
G1 X-3.671 Y0.400 Z-13.614
G1 X-3.471 Y0.400 Z-13.666
G1 X-3.271 Y0.400 Z-13.715
G1 X-3.071 Y0.400 Z-13.761
G1 X-2.871 Y0.400 Z-13.805
G1 X-2.671 Y0.400 Z-13.845
G1 X-2.471 Y0.400 Z-13.882
G1 X-2.271 Y0.400 Z-13.916
G1 X-2.071 Y0.400 Z-13.947
G1 X-1.871 Y0.400 Z-13.975
G1 X-1.671 Y0.400 Z-14.001
G1 X-1.471 Y0.400 Z-14.023
G1 X-1.271 Y0.400 Z-14.043
G1 X-1.071 Y0.400 Z-14.059
G1 X-0.871 Y0.400 Z-14.073
G1 X-0.671 Y0.400 Z-14.084
G1 X-0.471 Y0.400 Z-14.092
G1 X-0.271 Y0.400 Z-14.097
G1 X-0.071 Y0.400 Z-14.100

G1 X0.000 Y0.400 Z-14.100
G1 X0.200 Y0.400 Z-14.099
G1 X0.400 Y0.400 Z-14.094
G1 X0.600 Y0.400 Z-14.087
G1 X0.800 Y0.400 Z-14.077
G1 X1.000 Y0.400 Z-14.064
G1 X1.200 Y0.400 Z-14.049
G1 X1.400 Y0.400 Z-14.030
G1 X1.600 Y0.400 Z-14.009
G1 X1.800 Y0.400 Z-13.985
G1 X2.000 Y0.400 Z-13.957
G1 X2.200 Y0.400 Z-13.927
G1 X2.400 Y0.400 Z-13.894
G1 X2.600 Y0.400 Z-13.858
G1 X2.800 Y0.400 Z-13.819
G1 X3.000 Y0.400 Z-13.777
G1 X3.200 Y0.400 Z-13.732
G1 X3.400 Y0.400 Z-13.684
G1 X3.600 Y0.400 Z-13.633
G1 X3.800 Y0.400 Z-13.578
G1 X4.000 Y0.400 Z-13.521
G1 X4.200 Y0.400 Z-13.460
G1 X4.400 Y0.400 Z-13.396
G1 X4.600 Y0.400 Z-13.329
G1 X4.800 Y0.400 Z-13.258
G1 X5.000 Y0.400 Z-13.184
G1 X5.200 Y0.400 Z-13.106
G1 X5.400 Y0.400 Z-13.025
G1 X5.600 Y0.400 Z-12.940
G1 X5.800 Y0.400 Z-12.852
G1 X6.000 Y0.400 Z-12.760
G1 X6.200 Y0.400 Z-12.664
G1 X6.400 Y0.400 Z-12.564
G1 X6.600 Y0.400 Z-12.460
G1 X6.800 Y0.400 Z-12.352
G1 X7.000 Y0.400 Z-12.240
G1 X7.200 Y0.400 Z-12.123
G1 X7.400 Y0.400 Z-12.002
G1 X7.600 Y0.400 Z-11.876
G1 X7.800 Y0.400 Z-11.746
G1 X8.000 Y0.400 Z-11.611
G1 X8.200 Y0.400 Z-11.470
G1 X8.400 Y0.400 Z-11.325
G1 X8.600 Y0.400 Z-11.174
G1 X8.800 Y0.400 Z-11.017
G1 X9.000 Y0.400 Z-10.854
G1 X9.200 Y0.400 Z-10.685
G1 X9.400 Y0.400 Z-10.510
G1 X9.600 Y0.400 Z-10.327
G1 X9.800 Y0.400 Z-10.138
G1 X10.000 Y0.400 Z-9.940
G1 X10.200 Y0.400 Z-9.735
G1 X10.400 Y0.400 Z-9.521
G1 X10.600 Y0.400 Z-9.298
G1 X10.800 Y0.400 Z-9.065
G1 X11.000 Y0.400 Z-8.821
G1 X11.200 Y0.400 Z-8.566
G1 X11.400 Y0.400 Z-8.298
G1 X11.600 Y0.400 Z-8.016
G1 X11.800 Y0.400 Z-7.718
G1 X12.000 Y0.400 Z-7.403
G1 X12.200 Y0.400 Z-7.069
G1 X12.400 Y0.400 Z-6.712
G1 X12.600 Y0.400 Z-6.329
G1 X12.800 Y0.400 Z-5.914
G1 X13.000 Y0.400 Z-5.460
G1 X13.200 Y0.400 Z-4.957
G1 X13.400 Y0.400 Z-4.387
G1 X13.600 Y0.400 Z-3.722
G1 X13.800 Y0.400 Z-2.893
G1 X14.000 Y0.400 Z-1.676

G1 Y0.000



; ====== Layer 10: Z = -1.0 ======
; R = 14.0, X = [-13.96, 13.96]

G1 X0.000 Y0.000 Z-14.000
G1 X0.200 Y0.000 Z-13.999
G1 X0.400 Y0.000 Z-13.994
G1 X0.600 Y0.000 Z-13.987
G1 X0.800 Y0.000 Z-13.977
G1 X1.000 Y0.000 Z-13.964
G1 X1.200 Y0.000 Z-13.948
G1 X1.400 Y0.000 Z-13.930
G1 X1.600 Y0.000 Z-13.908
G1 X1.800 Y0.000 Z-13.884
G1 X2.000 Y0.000 Z-13.856
G1 X2.200 Y0.000 Z-13.826
G1 X2.400 Y0.000 Z-13.793
G1 X2.600 Y0.000 Z-13.756
G1 X2.800 Y0.000 Z-13.717
G1 X3.000 Y0.000 Z-13.675
G1 X3.200 Y0.000 Z-13.629
G1 X3.400 Y0.000 Z-13.581
G1 X3.600 Y0.000 Z-13.529
G1 X3.800 Y0.000 Z-13.474
G1 X4.000 Y0.000 Z-13.416
G1 X4.200 Y0.000 Z-13.355
G1 X4.400 Y0.000 Z-13.291
G1 X4.600 Y0.000 Z-13.223
G1 X4.800 Y0.000 Z-13.151
G1 X5.000 Y0.000 Z-13.077
G1 X5.200 Y0.000 Z-12.998
G1 X5.400 Y0.000 Z-12.917
G1 X5.600 Y0.000 Z-12.831
G1 X5.800 Y0.000 Z-12.742
G1 X6.000 Y0.000 Z-12.649
G1 X6.200 Y0.000 Z-12.552
G1 X6.400 Y0.000 Z-12.452
G1 X6.600 Y0.000 Z-12.347
G1 X6.800 Y0.000 Z-12.238
G1 X7.000 Y0.000 Z-12.124
G1 X7.200 Y0.000 Z-12.007
G1 X7.400 Y0.000 Z-11.884
G1 X7.600 Y0.000 Z-11.758
G1 X7.800 Y0.000 Z-11.626
G1 X8.000 Y0.000 Z-11.489
G1 X8.200 Y0.000 Z-11.347
G1 X8.400 Y0.000 Z-11.200
G1 X8.600 Y0.000 Z-11.047
G1 X8.800 Y0.000 Z-10.889
G1 X9.000 Y0.000 Z-10.724
G1 X9.200 Y0.000 Z-10.553
G1 X9.400 Y0.000 Z-10.375
G1 X9.600 Y0.000 Z-10.190
G1 X9.800 Y0.000 Z-9.998
G1 X10.000 Y0.000 Z-9.798
G1 X10.200 Y0.000 Z-9.590
G1 X10.400 Y0.000 Z-9.372
G1 X10.600 Y0.000 Z-9.145
G1 X10.800 Y0.000 Z-8.908
G1 X11.000 Y0.000 Z-8.660
G1 X11.200 Y0.000 Z-8.400
G1 X11.400 Y0.000 Z-8.126
G1 X11.600 Y0.000 Z-7.838
G1 X11.800 Y0.000 Z-7.534
G1 X12.000 Y0.000 Z-7.211
G1 X12.200 Y0.000 Z-6.867
G1 X12.400 Y0.000 Z-6.499
G1 X12.600 Y0.000 Z-6.102
G1 X12.800 Y0.000 Z-5.671
G1 X13.000 Y0.000 Z-5.196
G1 X13.200 Y0.000 Z-4.665
G1 X13.400 Y0.000 Z-4.055
G1 X13.600 Y0.000 Z-3.323
G1 X13.800 Y0.000 Z-2.358

G1 Y0.400



G1 Y0.000

G1 X-13.964 Y0.000 Z-1.000
G1 X-13.764 Y0.000 Z-2.558
G1 X-13.564 Y0.000 Z-3.466
G1 X-13.364 Y0.000 Z-4.171
G1 X-13.164 Y0.000 Z-4.765
G1 X-12.964 Y0.000 Z-5.285
G1 X-12.764 Y0.000 Z-5.751
G1 X-12.564 Y0.000 Z-6.176
G1 X-12.364 Y0.000 Z-6.567
G1 X-12.164 Y0.000 Z-6.930
G1 X-11.964 Y0.000 Z-7.270
G1 X-11.764 Y0.000 Z-7.590
G1 X-11.564 Y0.000 Z-7.891
G1 X-11.364 Y0.000 Z-8.176
G1 X-11.164 Y0.000 Z-8.447
G1 X-10.964 Y0.000 Z-8.705
G1 X-10.764 Y0.000 Z-8.952
G1 X-10.564 Y0.000 Z-9.187
G1 X-10.364 Y0.000 Z-9.412
G1 X-10.164 Y0.000 Z-9.627
G1 X-9.964 Y0.000 Z-9.834
G1 X-9.764 Y0.000 Z-10.033
G1 X-9.564 Y0.000 Z-10.224
G1 X-9.364 Y0.000 Z-10.407
G1 X-9.164 Y0.000 Z-10.584
G1 X-8.964 Y0.000 Z-10.754
G1 X-8.764 Y0.000 Z-10.917
G1 X-8.564 Y0.000 Z-11.075
G1 X-8.364 Y0.000 Z-11.227
G1 X-8.164 Y0.000 Z-11.373
G1 X-7.964 Y0.000 Z-11.514
G1 X-7.764 Y0.000 Z-11.650
G1 X-7.564 Y0.000 Z-11.781
G1 X-7.364 Y0.000 Z-11.907
G1 X-7.164 Y0.000 Z-12.028
G1 X-6.964 Y0.000 Z-12.145
G1 X-6.764 Y0.000 Z-12.257
G1 X-6.564 Y0.000 Z-12.366
G1 X-6.364 Y0.000 Z-12.470
G1 X-6.164 Y0.000 Z-12.570
G1 X-5.964 Y0.000 Z-12.666
G1 X-5.764 Y0.000 Z-12.758
G1 X-5.564 Y0.000 Z-12.847
G1 X-5.364 Y0.000 Z-12.932
G1 X-5.164 Y0.000 Z-13.013
G1 X-4.964 Y0.000 Z-13.090
G1 X-4.764 Y0.000 Z-13.164
G1 X-4.564 Y0.000 Z-13.235
G1 X-4.364 Y0.000 Z-13.302
G1 X-4.164 Y0.000 Z-13.366
G1 X-3.964 Y0.000 Z-13.427
G1 X-3.764 Y0.000 Z-13.484
G1 X-3.564 Y0.000 Z-13.539
G1 X-3.364 Y0.000 Z-13.590
G1 X-3.164 Y0.000 Z-13.638
G1 X-2.964 Y0.000 Z-13.683
G1 X-2.764 Y0.000 Z-13.724
G1 X-2.564 Y0.000 Z-13.763
G1 X-2.364 Y0.000 Z-13.799
G1 X-2.164 Y0.000 Z-13.832
G1 X-1.964 Y0.000 Z-13.862
G1 X-1.764 Y0.000 Z-13.888
G1 X-1.564 Y0.000 Z-13.912
G1 X-1.364 Y0.000 Z-13.933
G1 X-1.164 Y0.000 Z-13.952
G1 X-0.964 Y0.000 Z-13.967
G1 X-0.764 Y0.000 Z-13.979
G1 X-0.564 Y0.000 Z-13.989
G1 X-0.364 Y0.000 Z-13.995
G1 X-0.164 Y0.000 Z-13.999


; ========== MACHINING COMPLETE ==========
G0 Z5.0         ; Retract tool
G0 X0.0 Y0.0        ; Return to origin
M30                 ; Program end
%
