%
; ============================================================
; 2.5D Arc Surface Constant-Thickness Scanning (INVERTED 180¢X)
; 
; Auto-generated by Python Generator v2
; Parameters: R0=22.0mm, Layers=10, DX=0.2mm
; Arc center: (X=0.0, Z=0.0)
; Machining range: X = -12.50 to 12.50 (¡Ó12.5mm from apex)
; Arc orientation: Convex upward (180¢X inverted)
; ============================================================

; ========== INITIALIZATION ==========
G90                 ; Absolute coordinates
G21                 ; Metric units
G40 G49 G80         ; Cancel offsets and cycles

F20            ; Set feed rate

G0 Z0.0         ; Retract to safe height
G0 X0.0 Y0.0    ; Move to apex X,Y position
G0 Z22.000        ; Lower to arc apex (highest point)


; ========== MAIN MACHINING LOOP ==========

; ====== Layer 1: Z = -0.1 ======
; R = 21.9, X = [-12.50, 12.50]
; Path: Center -> Right -> Center -> Left -> Center (with Y scanning)

; Pass 1: Center -> Right with Y zigzag scan
G1 X0.000 Y0.000 Z21.900
G1 Y0.400
G1 X0.202 Y0.400 Z21.899
G1 Y0.000
G1 X0.403 Y0.000 Z21.896
G1 Y0.400
G1 X0.605 Y0.400 Z21.892
G1 Y0.000
G1 X0.806 Y0.000 Z21.885
G1 Y0.400
G1 X1.008 Y0.400 Z21.877
G1 Y0.000
G1 X1.210 Y0.000 Z21.867
G1 Y0.400
G1 X1.411 Y0.400 Z21.854
G1 Y0.000
G1 X1.613 Y0.000 Z21.841
G1 Y0.400
G1 X1.815 Y0.400 Z21.825
G1 Y0.000
G1 X2.016 Y0.000 Z21.807
G1 Y0.400
G1 X2.218 Y0.400 Z21.787
G1 Y0.000
G1 X2.419 Y0.000 Z21.766
G1 Y0.400
G1 X2.621 Y0.400 Z21.743
G1 Y0.000
G1 X2.823 Y0.000 Z21.717
G1 Y0.400
G1 X3.024 Y0.400 Z21.690
G1 Y0.000
G1 X3.226 Y0.000 Z21.661
G1 Y0.400
G1 X3.427 Y0.400 Z21.630
G1 Y0.000
G1 X3.629 Y0.000 Z21.597
G1 Y0.400
G1 X3.831 Y0.400 Z21.562
G1 Y0.000
G1 X4.032 Y0.000 Z21.526
G1 Y0.400
G1 X4.234 Y0.400 Z21.487
G1 Y0.000
G1 X4.435 Y0.000 Z21.446
G1 Y0.400
G1 X4.637 Y0.400 Z21.403
G1 Y0.000
G1 X4.839 Y0.000 Z21.359
G1 Y0.400
G1 X5.040 Y0.400 Z21.312
G1 Y0.000
G1 X5.242 Y0.000 Z21.263
G1 Y0.400
G1 X5.444 Y0.400 Z21.213
G1 Y0.000
G1 X5.645 Y0.000 Z21.160
G1 Y0.400
G1 X5.847 Y0.400 Z21.105
G1 Y0.000
G1 X6.048 Y0.000 Z21.048
G1 Y0.400
G1 X6.250 Y0.400 Z20.989
G1 Y0.000
G1 X6.452 Y0.000 Z20.928
G1 Y0.400
G1 X6.653 Y0.400 Z20.865
G1 Y0.000
G1 X6.855 Y0.000 Z20.800
G1 Y0.400
G1 X7.056 Y0.400 Z20.732
G1 Y0.000
G1 X7.258 Y0.000 Z20.662
G1 Y0.400
G1 X7.460 Y0.400 Z20.590
G1 Y0.000
G1 X7.661 Y0.000 Z20.516
G1 Y0.400
G1 X7.863 Y0.400 Z20.440
G1 Y0.000
G1 X8.065 Y0.000 Z20.361
G1 Y0.400
G1 X8.266 Y0.400 Z20.280
G1 Y0.000
G1 X8.468 Y0.000 Z20.197
G1 Y0.400
G1 X8.669 Y0.400 Z20.111
G1 Y0.000
G1 X8.871 Y0.000 Z20.023
G1 Y0.400
G1 X9.073 Y0.400 Z19.932
G1 Y0.000
G1 X9.274 Y0.000 Z19.839
G1 Y0.400
G1 X9.476 Y0.400 Z19.744
G1 Y0.000
G1 X9.677 Y0.000 Z19.646
G1 Y0.400
G1 X9.879 Y0.400 Z19.545
G1 Y0.000
G1 X10.081 Y0.000 Z19.442
G1 Y0.400
G1 X10.282 Y0.400 Z19.336
G1 Y0.000
G1 X10.484 Y0.000 Z19.228
G1 Y0.400
G1 X10.685 Y0.400 Z19.116
G1 Y0.000
G1 X10.887 Y0.000 Z19.002
G1 Y0.400
G1 X11.089 Y0.400 Z18.885
G1 Y0.000
G1 X11.290 Y0.000 Z18.765
G1 Y0.400
G1 X11.492 Y0.400 Z18.643
G1 Y0.000
G1 X11.694 Y0.000 Z18.517
G1 Y0.400
G1 X11.895 Y0.400 Z18.388
G1 Y0.000
G1 X12.097 Y0.000 Z18.256
G1 Y0.400
G1 X12.298 Y0.400 Z18.121
G1 Y0.000
G1 X12.500 Y0.000 Z17.982
G1 Y0.400

; Pass 2: Right -> Center with Y zigzag scan
G1 X12.500 Y0.000 Z17.982
G1 Y0.400
G1 X12.298 Y0.400 Z18.121
G1 Y0.000
G1 X12.097 Y0.000 Z18.256
G1 Y0.400
G1 X11.895 Y0.400 Z18.388
G1 Y0.000
G1 X11.694 Y0.000 Z18.517
G1 Y0.400
G1 X11.492 Y0.400 Z18.643
G1 Y0.000
G1 X11.290 Y0.000 Z18.765
G1 Y0.400
G1 X11.089 Y0.400 Z18.885
G1 Y0.000
G1 X10.887 Y0.000 Z19.002
G1 Y0.400
G1 X10.685 Y0.400 Z19.116
G1 Y0.000
G1 X10.484 Y0.000 Z19.228
G1 Y0.400
G1 X10.282 Y0.400 Z19.336
G1 Y0.000
G1 X10.081 Y0.000 Z19.442
G1 Y0.400
G1 X9.879 Y0.400 Z19.545
G1 Y0.000
G1 X9.677 Y0.000 Z19.646
G1 Y0.400
G1 X9.476 Y0.400 Z19.744
G1 Y0.000
G1 X9.274 Y0.000 Z19.839
G1 Y0.400
G1 X9.073 Y0.400 Z19.932
G1 Y0.000
G1 X8.871 Y0.000 Z20.023
G1 Y0.400
G1 X8.669 Y0.400 Z20.111
G1 Y0.000
G1 X8.468 Y0.000 Z20.197
G1 Y0.400
G1 X8.266 Y0.400 Z20.280
G1 Y0.000
G1 X8.065 Y0.000 Z20.361
G1 Y0.400
G1 X7.863 Y0.400 Z20.440
G1 Y0.000
G1 X7.661 Y0.000 Z20.516
G1 Y0.400
G1 X7.460 Y0.400 Z20.590
G1 Y0.000
G1 X7.258 Y0.000 Z20.662
G1 Y0.400
G1 X7.056 Y0.400 Z20.732
G1 Y0.000
G1 X6.855 Y0.000 Z20.800
G1 Y0.400
G1 X6.653 Y0.400 Z20.865
G1 Y0.000
G1 X6.452 Y0.000 Z20.928
G1 Y0.400
G1 X6.250 Y0.400 Z20.989
G1 Y0.000
G1 X6.048 Y0.000 Z21.048
G1 Y0.400
G1 X5.847 Y0.400 Z21.105
G1 Y0.000
G1 X5.645 Y0.000 Z21.160
G1 Y0.400
G1 X5.444 Y0.400 Z21.213
G1 Y0.000
G1 X5.242 Y0.000 Z21.263
G1 Y0.400
G1 X5.040 Y0.400 Z21.312
G1 Y0.000
G1 X4.839 Y0.000 Z21.359
G1 Y0.400
G1 X4.637 Y0.400 Z21.403
G1 Y0.000
G1 X4.435 Y0.000 Z21.446
G1 Y0.400
G1 X4.234 Y0.400 Z21.487
G1 Y0.000
G1 X4.032 Y0.000 Z21.526
G1 Y0.400
G1 X3.831 Y0.400 Z21.562
G1 Y0.000
G1 X3.629 Y0.000 Z21.597
G1 Y0.400
G1 X3.427 Y0.400 Z21.630
G1 Y0.000
G1 X3.226 Y0.000 Z21.661
G1 Y0.400
G1 X3.024 Y0.400 Z21.690
G1 Y0.000
G1 X2.823 Y0.000 Z21.717
G1 Y0.400
G1 X2.621 Y0.400 Z21.743
G1 Y0.000
G1 X2.419 Y0.000 Z21.766
G1 Y0.400
G1 X2.218 Y0.400 Z21.787
G1 Y0.000
G1 X2.016 Y0.000 Z21.807
G1 Y0.400
G1 X1.815 Y0.400 Z21.825
G1 Y0.000
G1 X1.613 Y0.000 Z21.841
G1 Y0.400
G1 X1.411 Y0.400 Z21.854
G1 Y0.000
G1 X1.210 Y0.000 Z21.867
G1 Y0.400
G1 X1.008 Y0.400 Z21.877
G1 Y0.000
G1 X0.806 Y0.000 Z21.885
G1 Y0.400
G1 X0.605 Y0.400 Z21.892
G1 Y0.000
G1 X0.403 Y0.000 Z21.896
G1 Y0.400
G1 X0.202 Y0.400 Z21.899
G1 Y0.000
G1 X0.000 Y0.000 Z21.900
G1 Y0.400

; Pass 3: Center -> Left with Y zigzag scan
G1 X0.000 Y0.000 Z21.900
G1 Y0.400
G1 X-0.202 Y0.400 Z21.899
G1 Y0.000
G1 X-0.403 Y0.000 Z21.896
G1 Y0.400
G1 X-0.605 Y0.400 Z21.892
G1 Y0.000
G1 X-0.806 Y0.000 Z21.885
G1 Y0.400
G1 X-1.008 Y0.400 Z21.877
G1 Y0.000
G1 X-1.210 Y0.000 Z21.867
G1 Y0.400
G1 X-1.411 Y0.400 Z21.854
G1 Y0.000
G1 X-1.613 Y0.000 Z21.841
G1 Y0.400
G1 X-1.815 Y0.400 Z21.825
G1 Y0.000
G1 X-2.016 Y0.000 Z21.807
G1 Y0.400
G1 X-2.218 Y0.400 Z21.787
G1 Y0.000
G1 X-2.419 Y0.000 Z21.766
G1 Y0.400
G1 X-2.621 Y0.400 Z21.743
G1 Y0.000
G1 X-2.823 Y0.000 Z21.717
G1 Y0.400
G1 X-3.024 Y0.400 Z21.690
G1 Y0.000
G1 X-3.226 Y0.000 Z21.661
G1 Y0.400
G1 X-3.427 Y0.400 Z21.630
G1 Y0.000
G1 X-3.629 Y0.000 Z21.597
G1 Y0.400
G1 X-3.831 Y0.400 Z21.562
G1 Y0.000
G1 X-4.032 Y0.000 Z21.526
G1 Y0.400
G1 X-4.234 Y0.400 Z21.487
G1 Y0.000
G1 X-4.435 Y0.000 Z21.446
G1 Y0.400
G1 X-4.637 Y0.400 Z21.403
G1 Y0.000
G1 X-4.839 Y0.000 Z21.359
G1 Y0.400
G1 X-5.040 Y0.400 Z21.312
G1 Y0.000
G1 X-5.242 Y0.000 Z21.263
G1 Y0.400
G1 X-5.444 Y0.400 Z21.213
G1 Y0.000
G1 X-5.645 Y0.000 Z21.160
G1 Y0.400
G1 X-5.847 Y0.400 Z21.105
G1 Y0.000
G1 X-6.048 Y0.000 Z21.048
G1 Y0.400
G1 X-6.250 Y0.400 Z20.989
G1 Y0.000
G1 X-6.452 Y0.000 Z20.928
G1 Y0.400
G1 X-6.653 Y0.400 Z20.865
G1 Y0.000
G1 X-6.855 Y0.000 Z20.800
G1 Y0.400
G1 X-7.056 Y0.400 Z20.732
G1 Y0.000
G1 X-7.258 Y0.000 Z20.662
G1 Y0.400
G1 X-7.460 Y0.400 Z20.590
G1 Y0.000
G1 X-7.661 Y0.000 Z20.516
G1 Y0.400
G1 X-7.863 Y0.400 Z20.440
G1 Y0.000
G1 X-8.065 Y0.000 Z20.361
G1 Y0.400
G1 X-8.266 Y0.400 Z20.280
G1 Y0.000
G1 X-8.468 Y0.000 Z20.197
G1 Y0.400
G1 X-8.669 Y0.400 Z20.111
G1 Y0.000
G1 X-8.871 Y0.000 Z20.023
G1 Y0.400
G1 X-9.073 Y0.400 Z19.932
G1 Y0.000
G1 X-9.274 Y0.000 Z19.839
G1 Y0.400
G1 X-9.476 Y0.400 Z19.744
G1 Y0.000
G1 X-9.677 Y0.000 Z19.646
G1 Y0.400
G1 X-9.879 Y0.400 Z19.545
G1 Y0.000
G1 X-10.081 Y0.000 Z19.442
G1 Y0.400
G1 X-10.282 Y0.400 Z19.336
G1 Y0.000
G1 X-10.484 Y0.000 Z19.228
G1 Y0.400
G1 X-10.685 Y0.400 Z19.116
G1 Y0.000
G1 X-10.887 Y0.000 Z19.002
G1 Y0.400
G1 X-11.089 Y0.400 Z18.885
G1 Y0.000
G1 X-11.290 Y0.000 Z18.765
G1 Y0.400
G1 X-11.492 Y0.400 Z18.643
G1 Y0.000
G1 X-11.694 Y0.000 Z18.517
G1 Y0.400
G1 X-11.895 Y0.400 Z18.388
G1 Y0.000
G1 X-12.097 Y0.000 Z18.256
G1 Y0.400
G1 X-12.298 Y0.400 Z18.121
G1 Y0.000
G1 X-12.500 Y0.000 Z17.982
G1 Y0.400

; Pass 4: Left -> Center with Y zigzag scan
G1 X-12.500 Y0.000 Z17.982
G1 Y0.400
G1 X-12.298 Y0.400 Z18.121
G1 Y0.000
G1 X-12.097 Y0.000 Z18.256
G1 Y0.400
G1 X-11.895 Y0.400 Z18.388
G1 Y0.000
G1 X-11.694 Y0.000 Z18.517
G1 Y0.400
G1 X-11.492 Y0.400 Z18.643
G1 Y0.000
G1 X-11.290 Y0.000 Z18.765
G1 Y0.400
G1 X-11.089 Y0.400 Z18.885
G1 Y0.000
G1 X-10.887 Y0.000 Z19.002
G1 Y0.400
G1 X-10.685 Y0.400 Z19.116
G1 Y0.000
G1 X-10.484 Y0.000 Z19.228
G1 Y0.400
G1 X-10.282 Y0.400 Z19.336
G1 Y0.000
G1 X-10.081 Y0.000 Z19.442
G1 Y0.400
G1 X-9.879 Y0.400 Z19.545
G1 Y0.000
G1 X-9.677 Y0.000 Z19.646
G1 Y0.400
G1 X-9.476 Y0.400 Z19.744
G1 Y0.000
G1 X-9.274 Y0.000 Z19.839
G1 Y0.400
G1 X-9.073 Y0.400 Z19.932
G1 Y0.000
G1 X-8.871 Y0.000 Z20.023
G1 Y0.400
G1 X-8.669 Y0.400 Z20.111
G1 Y0.000
G1 X-8.468 Y0.000 Z20.197
G1 Y0.400
G1 X-8.266 Y0.400 Z20.280
G1 Y0.000
G1 X-8.065 Y0.000 Z20.361
G1 Y0.400
G1 X-7.863 Y0.400 Z20.440
G1 Y0.000
G1 X-7.661 Y0.000 Z20.516
G1 Y0.400
G1 X-7.460 Y0.400 Z20.590
G1 Y0.000
G1 X-7.258 Y0.000 Z20.662
G1 Y0.400
G1 X-7.056 Y0.400 Z20.732
G1 Y0.000
G1 X-6.855 Y0.000 Z20.800
G1 Y0.400
G1 X-6.653 Y0.400 Z20.865
G1 Y0.000
G1 X-6.452 Y0.000 Z20.928
G1 Y0.400
G1 X-6.250 Y0.400 Z20.989
G1 Y0.000
G1 X-6.048 Y0.000 Z21.048
G1 Y0.400
G1 X-5.847 Y0.400 Z21.105
G1 Y0.000
G1 X-5.645 Y0.000 Z21.160
G1 Y0.400
G1 X-5.444 Y0.400 Z21.213
G1 Y0.000
G1 X-5.242 Y0.000 Z21.263
G1 Y0.400
G1 X-5.040 Y0.400 Z21.312
G1 Y0.000
G1 X-4.839 Y0.000 Z21.359
G1 Y0.400
G1 X-4.637 Y0.400 Z21.403
G1 Y0.000
G1 X-4.435 Y0.000 Z21.446
G1 Y0.400
G1 X-4.234 Y0.400 Z21.487
G1 Y0.000
G1 X-4.032 Y0.000 Z21.526
G1 Y0.400
G1 X-3.831 Y0.400 Z21.562
G1 Y0.000
G1 X-3.629 Y0.000 Z21.597
G1 Y0.400
G1 X-3.427 Y0.400 Z21.630
G1 Y0.000
G1 X-3.226 Y0.000 Z21.661
G1 Y0.400
G1 X-3.024 Y0.400 Z21.690
G1 Y0.000
G1 X-2.823 Y0.000 Z21.717
G1 Y0.400
G1 X-2.621 Y0.400 Z21.743
G1 Y0.000
G1 X-2.419 Y0.000 Z21.766
G1 Y0.400
G1 X-2.218 Y0.400 Z21.787
G1 Y0.000
G1 X-2.016 Y0.000 Z21.807
G1 Y0.400
G1 X-1.815 Y0.400 Z21.825
G1 Y0.000
G1 X-1.613 Y0.000 Z21.841
G1 Y0.400
G1 X-1.411 Y0.400 Z21.854
G1 Y0.000
G1 X-1.210 Y0.000 Z21.867
G1 Y0.400
G1 X-1.008 Y0.400 Z21.877
G1 Y0.000
G1 X-0.806 Y0.000 Z21.885
G1 Y0.400
G1 X-0.605 Y0.400 Z21.892
G1 Y0.000
G1 X-0.403 Y0.000 Z21.896
G1 Y0.400
G1 X-0.202 Y0.400 Z21.899
G1 Y0.000
G1 X0.000 Y0.000 Z21.900
G1 Y0.400


; ====== Layer 2: Z = -0.2 ======
; R = 21.8, X = [-12.50, 12.50]
; Path: Center -> Right -> Center -> Left -> Center (with Y scanning)

; Pass 1: Center -> Right with Y zigzag scan
G1 X0.000 Y0.000 Z21.800
G1 Y0.400
G1 X0.202 Y0.400 Z21.799
G1 Y0.000
G1 X0.403 Y0.000 Z21.796
G1 Y0.400
G1 X0.605 Y0.400 Z21.792
G1 Y0.000
G1 X0.806 Y0.000 Z21.785
G1 Y0.400
G1 X1.008 Y0.400 Z21.777
G1 Y0.000
G1 X1.210 Y0.000 Z21.766
G1 Y0.400
G1 X1.411 Y0.400 Z21.754
G1 Y0.000
G1 X1.613 Y0.000 Z21.740
G1 Y0.400
G1 X1.815 Y0.400 Z21.724
G1 Y0.000
G1 X2.016 Y0.000 Z21.707
G1 Y0.400
G1 X2.218 Y0.400 Z21.687
G1 Y0.000
G1 X2.419 Y0.000 Z21.665
G1 Y0.400
G1 X2.621 Y0.400 Z21.642
G1 Y0.000
G1 X2.823 Y0.000 Z21.616
G1 Y0.400
G1 X3.024 Y0.400 Z21.589
G1 Y0.000
G1 X3.226 Y0.000 Z21.560
G1 Y0.400
G1 X3.427 Y0.400 Z21.529
G1 Y0.000
G1 X3.629 Y0.000 Z21.496
G1 Y0.400
G1 X3.831 Y0.400 Z21.461
G1 Y0.000
G1 X4.032 Y0.000 Z21.424
G1 Y0.400
G1 X4.234 Y0.400 Z21.385
G1 Y0.000
G1 X4.435 Y0.000 Z21.344
G1 Y0.400
G1 X4.637 Y0.400 Z21.301
G1 Y0.000
G1 X4.839 Y0.000 Z21.256
G1 Y0.400
G1 X5.040 Y0.400 Z21.209
G1 Y0.000
G1 X5.242 Y0.000 Z21.160
G1 Y0.400
G1 X5.444 Y0.400 Z21.109
G1 Y0.000
G1 X5.645 Y0.000 Z21.056
G1 Y0.400
G1 X5.847 Y0.400 Z21.001
G1 Y0.000
G1 X6.048 Y0.000 Z20.944
G1 Y0.400
G1 X6.250 Y0.400 Z20.885
G1 Y0.000
G1 X6.452 Y0.000 Z20.823
G1 Y0.400
G1 X6.653 Y0.400 Z20.760
G1 Y0.000
G1 X6.855 Y0.000 Z20.694
G1 Y0.400
G1 X7.056 Y0.400 Z20.626
G1 Y0.000
G1 X7.258 Y0.000 Z20.556
G1 Y0.400
G1 X7.460 Y0.400 Z20.484
G1 Y0.000
G1 X7.661 Y0.000 Z20.409
G1 Y0.400
G1 X7.863 Y0.400 Z20.333
G1 Y0.000
G1 X8.065 Y0.000 Z20.253
G1 Y0.400
G1 X8.266 Y0.400 Z20.172
G1 Y0.000
G1 X8.468 Y0.000 Z20.088
G1 Y0.400
G1 X8.669 Y0.400 Z20.002
G1 Y0.000
G1 X8.871 Y0.000 Z19.913
G1 Y0.400
G1 X9.073 Y0.400 Z19.822
G1 Y0.000
G1 X9.274 Y0.000 Z19.729
G1 Y0.400
G1 X9.476 Y0.400 Z19.633
G1 Y0.000
G1 X9.677 Y0.000 Z19.534
G1 Y0.400
G1 X9.879 Y0.400 Z19.433
G1 Y0.000
G1 X10.081 Y0.000 Z19.329
G1 Y0.400
G1 X10.282 Y0.400 Z19.223
G1 Y0.000
G1 X10.484 Y0.000 Z19.114
G1 Y0.400
G1 X10.685 Y0.400 Z19.002
G1 Y0.000
G1 X10.887 Y0.000 Z18.887
G1 Y0.400
G1 X11.089 Y0.400 Z18.769
G1 Y0.000
G1 X11.290 Y0.000 Z18.649
G1 Y0.400
G1 X11.492 Y0.400 Z18.525
G1 Y0.000
G1 X11.694 Y0.000 Z18.398
G1 Y0.400
G1 X11.895 Y0.400 Z18.269
G1 Y0.000
G1 X12.097 Y0.000 Z18.136
G1 Y0.400
G1 X12.298 Y0.400 Z18.000
G1 Y0.000
G1 X12.500 Y0.000 Z17.860
G1 Y0.400

; Pass 2: Right -> Center with Y zigzag scan
G1 X12.500 Y0.000 Z17.860
G1 Y0.400
G1 X12.298 Y0.400 Z18.000
G1 Y0.000
G1 X12.097 Y0.000 Z18.136
G1 Y0.400
G1 X11.895 Y0.400 Z18.269
G1 Y0.000
G1 X11.694 Y0.000 Z18.398
G1 Y0.400
G1 X11.492 Y0.400 Z18.525
G1 Y0.000
G1 X11.290 Y0.000 Z18.649
G1 Y0.400
G1 X11.089 Y0.400 Z18.769
G1 Y0.000
G1 X10.887 Y0.000 Z18.887
G1 Y0.400
G1 X10.685 Y0.400 Z19.002
G1 Y0.000
G1 X10.484 Y0.000 Z19.114
G1 Y0.400
G1 X10.282 Y0.400 Z19.223
G1 Y0.000
G1 X10.081 Y0.000 Z19.329
G1 Y0.400
G1 X9.879 Y0.400 Z19.433
G1 Y0.000
G1 X9.677 Y0.000 Z19.534
G1 Y0.400
G1 X9.476 Y0.400 Z19.633
G1 Y0.000
G1 X9.274 Y0.000 Z19.729
G1 Y0.400
G1 X9.073 Y0.400 Z19.822
G1 Y0.000
G1 X8.871 Y0.000 Z19.913
G1 Y0.400
G1 X8.669 Y0.400 Z20.002
G1 Y0.000
G1 X8.468 Y0.000 Z20.088
G1 Y0.400
G1 X8.266 Y0.400 Z20.172
G1 Y0.000
G1 X8.065 Y0.000 Z20.253
G1 Y0.400
G1 X7.863 Y0.400 Z20.333
G1 Y0.000
G1 X7.661 Y0.000 Z20.409
G1 Y0.400
G1 X7.460 Y0.400 Z20.484
G1 Y0.000
G1 X7.258 Y0.000 Z20.556
G1 Y0.400
G1 X7.056 Y0.400 Z20.626
G1 Y0.000
G1 X6.855 Y0.000 Z20.694
G1 Y0.400
G1 X6.653 Y0.400 Z20.760
G1 Y0.000
G1 X6.452 Y0.000 Z20.823
G1 Y0.400
G1 X6.250 Y0.400 Z20.885
G1 Y0.000
G1 X6.048 Y0.000 Z20.944
G1 Y0.400
G1 X5.847 Y0.400 Z21.001
G1 Y0.000
G1 X5.645 Y0.000 Z21.056
G1 Y0.400
G1 X5.444 Y0.400 Z21.109
G1 Y0.000
G1 X5.242 Y0.000 Z21.160
G1 Y0.400
G1 X5.040 Y0.400 Z21.209
G1 Y0.000
G1 X4.839 Y0.000 Z21.256
G1 Y0.400
G1 X4.637 Y0.400 Z21.301
G1 Y0.000
G1 X4.435 Y0.000 Z21.344
G1 Y0.400
G1 X4.234 Y0.400 Z21.385
G1 Y0.000
G1 X4.032 Y0.000 Z21.424
G1 Y0.400
G1 X3.831 Y0.400 Z21.461
G1 Y0.000
G1 X3.629 Y0.000 Z21.496
G1 Y0.400
G1 X3.427 Y0.400 Z21.529
G1 Y0.000
G1 X3.226 Y0.000 Z21.560
G1 Y0.400
G1 X3.024 Y0.400 Z21.589
G1 Y0.000
G1 X2.823 Y0.000 Z21.616
G1 Y0.400
G1 X2.621 Y0.400 Z21.642
G1 Y0.000
G1 X2.419 Y0.000 Z21.665
G1 Y0.400
G1 X2.218 Y0.400 Z21.687
G1 Y0.000
G1 X2.016 Y0.000 Z21.707
G1 Y0.400
G1 X1.815 Y0.400 Z21.724
G1 Y0.000
G1 X1.613 Y0.000 Z21.740
G1 Y0.400
G1 X1.411 Y0.400 Z21.754
G1 Y0.000
G1 X1.210 Y0.000 Z21.766
G1 Y0.400
G1 X1.008 Y0.400 Z21.777
G1 Y0.000
G1 X0.806 Y0.000 Z21.785
G1 Y0.400
G1 X0.605 Y0.400 Z21.792
G1 Y0.000
G1 X0.403 Y0.000 Z21.796
G1 Y0.400
G1 X0.202 Y0.400 Z21.799
G1 Y0.000
G1 X0.000 Y0.000 Z21.800
G1 Y0.400

; Pass 3: Center -> Left with Y zigzag scan
G1 X0.000 Y0.000 Z21.800
G1 Y0.400
G1 X-0.202 Y0.400 Z21.799
G1 Y0.000
G1 X-0.403 Y0.000 Z21.796
G1 Y0.400
G1 X-0.605 Y0.400 Z21.792
G1 Y0.000
G1 X-0.806 Y0.000 Z21.785
G1 Y0.400
G1 X-1.008 Y0.400 Z21.777
G1 Y0.000
G1 X-1.210 Y0.000 Z21.766
G1 Y0.400
G1 X-1.411 Y0.400 Z21.754
G1 Y0.000
G1 X-1.613 Y0.000 Z21.740
G1 Y0.400
G1 X-1.815 Y0.400 Z21.724
G1 Y0.000
G1 X-2.016 Y0.000 Z21.707
G1 Y0.400
G1 X-2.218 Y0.400 Z21.687
G1 Y0.000
G1 X-2.419 Y0.000 Z21.665
G1 Y0.400
G1 X-2.621 Y0.400 Z21.642
G1 Y0.000
G1 X-2.823 Y0.000 Z21.616
G1 Y0.400
G1 X-3.024 Y0.400 Z21.589
G1 Y0.000
G1 X-3.226 Y0.000 Z21.560
G1 Y0.400
G1 X-3.427 Y0.400 Z21.529
G1 Y0.000
G1 X-3.629 Y0.000 Z21.496
G1 Y0.400
G1 X-3.831 Y0.400 Z21.461
G1 Y0.000
G1 X-4.032 Y0.000 Z21.424
G1 Y0.400
G1 X-4.234 Y0.400 Z21.385
G1 Y0.000
G1 X-4.435 Y0.000 Z21.344
G1 Y0.400
G1 X-4.637 Y0.400 Z21.301
G1 Y0.000
G1 X-4.839 Y0.000 Z21.256
G1 Y0.400
G1 X-5.040 Y0.400 Z21.209
G1 Y0.000
G1 X-5.242 Y0.000 Z21.160
G1 Y0.400
G1 X-5.444 Y0.400 Z21.109
G1 Y0.000
G1 X-5.645 Y0.000 Z21.056
G1 Y0.400
G1 X-5.847 Y0.400 Z21.001
G1 Y0.000
G1 X-6.048 Y0.000 Z20.944
G1 Y0.400
G1 X-6.250 Y0.400 Z20.885
G1 Y0.000
G1 X-6.452 Y0.000 Z20.823
G1 Y0.400
G1 X-6.653 Y0.400 Z20.760
G1 Y0.000
G1 X-6.855 Y0.000 Z20.694
G1 Y0.400
G1 X-7.056 Y0.400 Z20.626
G1 Y0.000
G1 X-7.258 Y0.000 Z20.556
G1 Y0.400
G1 X-7.460 Y0.400 Z20.484
G1 Y0.000
G1 X-7.661 Y0.000 Z20.409
G1 Y0.400
G1 X-7.863 Y0.400 Z20.333
G1 Y0.000
G1 X-8.065 Y0.000 Z20.253
G1 Y0.400
G1 X-8.266 Y0.400 Z20.172
G1 Y0.000
G1 X-8.468 Y0.000 Z20.088
G1 Y0.400
G1 X-8.669 Y0.400 Z20.002
G1 Y0.000
G1 X-8.871 Y0.000 Z19.913
G1 Y0.400
G1 X-9.073 Y0.400 Z19.822
G1 Y0.000
G1 X-9.274 Y0.000 Z19.729
G1 Y0.400
G1 X-9.476 Y0.400 Z19.633
G1 Y0.000
G1 X-9.677 Y0.000 Z19.534
G1 Y0.400
G1 X-9.879 Y0.400 Z19.433
G1 Y0.000
G1 X-10.081 Y0.000 Z19.329
G1 Y0.400
G1 X-10.282 Y0.400 Z19.223
G1 Y0.000
G1 X-10.484 Y0.000 Z19.114
G1 Y0.400
G1 X-10.685 Y0.400 Z19.002
G1 Y0.000
G1 X-10.887 Y0.000 Z18.887
G1 Y0.400
G1 X-11.089 Y0.400 Z18.769
G1 Y0.000
G1 X-11.290 Y0.000 Z18.649
G1 Y0.400
G1 X-11.492 Y0.400 Z18.525
G1 Y0.000
G1 X-11.694 Y0.000 Z18.398
G1 Y0.400
G1 X-11.895 Y0.400 Z18.269
G1 Y0.000
G1 X-12.097 Y0.000 Z18.136
G1 Y0.400
G1 X-12.298 Y0.400 Z18.000
G1 Y0.000
G1 X-12.500 Y0.000 Z17.860
G1 Y0.400

; Pass 4: Left -> Center with Y zigzag scan
G1 X-12.500 Y0.000 Z17.860
G1 Y0.400
G1 X-12.298 Y0.400 Z18.000
G1 Y0.000
G1 X-12.097 Y0.000 Z18.136
G1 Y0.400
G1 X-11.895 Y0.400 Z18.269
G1 Y0.000
G1 X-11.694 Y0.000 Z18.398
G1 Y0.400
G1 X-11.492 Y0.400 Z18.525
G1 Y0.000
G1 X-11.290 Y0.000 Z18.649
G1 Y0.400
G1 X-11.089 Y0.400 Z18.769
G1 Y0.000
G1 X-10.887 Y0.000 Z18.887
G1 Y0.400
G1 X-10.685 Y0.400 Z19.002
G1 Y0.000
G1 X-10.484 Y0.000 Z19.114
G1 Y0.400
G1 X-10.282 Y0.400 Z19.223
G1 Y0.000
G1 X-10.081 Y0.000 Z19.329
G1 Y0.400
G1 X-9.879 Y0.400 Z19.433
G1 Y0.000
G1 X-9.677 Y0.000 Z19.534
G1 Y0.400
G1 X-9.476 Y0.400 Z19.633
G1 Y0.000
G1 X-9.274 Y0.000 Z19.729
G1 Y0.400
G1 X-9.073 Y0.400 Z19.822
G1 Y0.000
G1 X-8.871 Y0.000 Z19.913
G1 Y0.400
G1 X-8.669 Y0.400 Z20.002
G1 Y0.000
G1 X-8.468 Y0.000 Z20.088
G1 Y0.400
G1 X-8.266 Y0.400 Z20.172
G1 Y0.000
G1 X-8.065 Y0.000 Z20.253
G1 Y0.400
G1 X-7.863 Y0.400 Z20.333
G1 Y0.000
G1 X-7.661 Y0.000 Z20.409
G1 Y0.400
G1 X-7.460 Y0.400 Z20.484
G1 Y0.000
G1 X-7.258 Y0.000 Z20.556
G1 Y0.400
G1 X-7.056 Y0.400 Z20.626
G1 Y0.000
G1 X-6.855 Y0.000 Z20.694
G1 Y0.400
G1 X-6.653 Y0.400 Z20.760
G1 Y0.000
G1 X-6.452 Y0.000 Z20.823
G1 Y0.400
G1 X-6.250 Y0.400 Z20.885
G1 Y0.000
G1 X-6.048 Y0.000 Z20.944
G1 Y0.400
G1 X-5.847 Y0.400 Z21.001
G1 Y0.000
G1 X-5.645 Y0.000 Z21.056
G1 Y0.400
G1 X-5.444 Y0.400 Z21.109
G1 Y0.000
G1 X-5.242 Y0.000 Z21.160
G1 Y0.400
G1 X-5.040 Y0.400 Z21.209
G1 Y0.000
G1 X-4.839 Y0.000 Z21.256
G1 Y0.400
G1 X-4.637 Y0.400 Z21.301
G1 Y0.000
G1 X-4.435 Y0.000 Z21.344
G1 Y0.400
G1 X-4.234 Y0.400 Z21.385
G1 Y0.000
G1 X-4.032 Y0.000 Z21.424
G1 Y0.400
G1 X-3.831 Y0.400 Z21.461
G1 Y0.000
G1 X-3.629 Y0.000 Z21.496
G1 Y0.400
G1 X-3.427 Y0.400 Z21.529
G1 Y0.000
G1 X-3.226 Y0.000 Z21.560
G1 Y0.400
G1 X-3.024 Y0.400 Z21.589
G1 Y0.000
G1 X-2.823 Y0.000 Z21.616
G1 Y0.400
G1 X-2.621 Y0.400 Z21.642
G1 Y0.000
G1 X-2.419 Y0.000 Z21.665
G1 Y0.400
G1 X-2.218 Y0.400 Z21.687
G1 Y0.000
G1 X-2.016 Y0.000 Z21.707
G1 Y0.400
G1 X-1.815 Y0.400 Z21.724
G1 Y0.000
G1 X-1.613 Y0.000 Z21.740
G1 Y0.400
G1 X-1.411 Y0.400 Z21.754
G1 Y0.000
G1 X-1.210 Y0.000 Z21.766
G1 Y0.400
G1 X-1.008 Y0.400 Z21.777
G1 Y0.000
G1 X-0.806 Y0.000 Z21.785
G1 Y0.400
G1 X-0.605 Y0.400 Z21.792
G1 Y0.000
G1 X-0.403 Y0.000 Z21.796
G1 Y0.400
G1 X-0.202 Y0.400 Z21.799
G1 Y0.000
G1 X0.000 Y0.000 Z21.800
G1 Y0.400


; ====== Layer 3: Z = -0.3 ======
; R = 21.7, X = [-12.50, 12.50]
; Path: Center -> Right -> Center -> Left -> Center (with Y scanning)

; Pass 1: Center -> Right with Y zigzag scan
G1 X0.000 Y0.000 Z21.700
G1 Y0.400
G1 X0.202 Y0.400 Z21.699
G1 Y0.000
G1 X0.403 Y0.000 Z21.696
G1 Y0.400
G1 X0.605 Y0.400 Z21.692
G1 Y0.000
G1 X0.806 Y0.000 Z21.685
G1 Y0.400
G1 X1.008 Y0.400 Z21.677
G1 Y0.000
G1 X1.210 Y0.000 Z21.666
G1 Y0.400
G1 X1.411 Y0.400 Z21.654
G1 Y0.000
G1 X1.613 Y0.000 Z21.640
G1 Y0.400
G1 X1.815 Y0.400 Z21.624
G1 Y0.000
G1 X2.016 Y0.000 Z21.606
G1 Y0.400
G1 X2.218 Y0.400 Z21.586
G1 Y0.000
G1 X2.419 Y0.000 Z21.565
G1 Y0.400
G1 X2.621 Y0.400 Z21.541
G1 Y0.000
G1 X2.823 Y0.000 Z21.516
G1 Y0.400
G1 X3.024 Y0.400 Z21.488
G1 Y0.000
G1 X3.226 Y0.000 Z21.459
G1 Y0.400
G1 X3.427 Y0.400 Z21.428
G1 Y0.000
G1 X3.629 Y0.000 Z21.394
G1 Y0.400
G1 X3.831 Y0.400 Z21.359
G1 Y0.000
G1 X4.032 Y0.000 Z21.322
G1 Y0.400
G1 X4.234 Y0.400 Z21.283
G1 Y0.000
G1 X4.435 Y0.000 Z21.242
G1 Y0.400
G1 X4.637 Y0.400 Z21.199
G1 Y0.000
G1 X4.839 Y0.000 Z21.154
G1 Y0.400
G1 X5.040 Y0.400 Z21.107
G1 Y0.000
G1 X5.242 Y0.000 Z21.057
G1 Y0.400
G1 X5.444 Y0.400 Z21.006
G1 Y0.000
G1 X5.645 Y0.000 Z20.953
G1 Y0.400
G1 X5.847 Y0.400 Z20.897
G1 Y0.000
G1 X6.048 Y0.000 Z20.840
G1 Y0.400
G1 X6.250 Y0.400 Z20.780
G1 Y0.000
G1 X6.452 Y0.000 Z20.719
G1 Y0.400
G1 X6.653 Y0.400 Z20.655
G1 Y0.000
G1 X6.855 Y0.000 Z20.589
G1 Y0.400
G1 X7.056 Y0.400 Z20.521
G1 Y0.000
G1 X7.258 Y0.000 Z20.450
G1 Y0.400
G1 X7.460 Y0.400 Z20.378
G1 Y0.000
G1 X7.661 Y0.000 Z20.303
G1 Y0.400
G1 X7.863 Y0.400 Z20.225
G1 Y0.000
G1 X8.065 Y0.000 Z20.146
G1 Y0.400
G1 X8.266 Y0.400 Z20.064
G1 Y0.000
G1 X8.468 Y0.000 Z19.980
G1 Y0.400
G1 X8.669 Y0.400 Z19.893
G1 Y0.000
G1 X8.871 Y0.000 Z19.804
G1 Y0.400
G1 X9.073 Y0.400 Z19.712
G1 Y0.000
G1 X9.274 Y0.000 Z19.618
G1 Y0.400
G1 X9.476 Y0.400 Z19.522
G1 Y0.000
G1 X9.677 Y0.000 Z19.423
G1 Y0.400
G1 X9.879 Y0.400 Z19.321
G1 Y0.000
G1 X10.081 Y0.000 Z19.216
G1 Y0.400
G1 X10.282 Y0.400 Z19.109
G1 Y0.000
G1 X10.484 Y0.000 Z18.999
G1 Y0.400
G1 X10.685 Y0.400 Z18.887
G1 Y0.000
G1 X10.887 Y0.000 Z18.771
G1 Y0.400
G1 X11.089 Y0.400 Z18.653
G1 Y0.000
G1 X11.290 Y0.000 Z18.532
G1 Y0.400
G1 X11.492 Y0.400 Z18.407
G1 Y0.000
G1 X11.694 Y0.000 Z18.280
G1 Y0.400
G1 X11.895 Y0.400 Z18.149
G1 Y0.000
G1 X12.097 Y0.000 Z18.015
G1 Y0.400
G1 X12.298 Y0.400 Z17.878
G1 Y0.000
G1 X12.500 Y0.000 Z17.738
G1 Y0.400

; Pass 2: Right -> Center with Y zigzag scan
G1 X12.500 Y0.000 Z17.738
G1 Y0.400
G1 X12.298 Y0.400 Z17.878
G1 Y0.000
G1 X12.097 Y0.000 Z18.015
G1 Y0.400
G1 X11.895 Y0.400 Z18.149
G1 Y0.000
G1 X11.694 Y0.000 Z18.280
G1 Y0.400
G1 X11.492 Y0.400 Z18.407
G1 Y0.000
G1 X11.290 Y0.000 Z18.532
G1 Y0.400
G1 X11.089 Y0.400 Z18.653
G1 Y0.000
G1 X10.887 Y0.000 Z18.771
G1 Y0.400
G1 X10.685 Y0.400 Z18.887
G1 Y0.000
G1 X10.484 Y0.000 Z18.999
G1 Y0.400
G1 X10.282 Y0.400 Z19.109
G1 Y0.000
G1 X10.081 Y0.000 Z19.216
G1 Y0.400
G1 X9.879 Y0.400 Z19.321
G1 Y0.000
G1 X9.677 Y0.000 Z19.423
G1 Y0.400
G1 X9.476 Y0.400 Z19.522
G1 Y0.000
G1 X9.274 Y0.000 Z19.618
G1 Y0.400
G1 X9.073 Y0.400 Z19.712
G1 Y0.000
G1 X8.871 Y0.000 Z19.804
G1 Y0.400
G1 X8.669 Y0.400 Z19.893
G1 Y0.000
G1 X8.468 Y0.000 Z19.980
G1 Y0.400
G1 X8.266 Y0.400 Z20.064
G1 Y0.000
G1 X8.065 Y0.000 Z20.146
G1 Y0.400
G1 X7.863 Y0.400 Z20.225
G1 Y0.000
G1 X7.661 Y0.000 Z20.303
G1 Y0.400
G1 X7.460 Y0.400 Z20.378
G1 Y0.000
G1 X7.258 Y0.000 Z20.450
G1 Y0.400
G1 X7.056 Y0.400 Z20.521
G1 Y0.000
G1 X6.855 Y0.000 Z20.589
G1 Y0.400
G1 X6.653 Y0.400 Z20.655
G1 Y0.000
G1 X6.452 Y0.000 Z20.719
G1 Y0.400
G1 X6.250 Y0.400 Z20.780
G1 Y0.000
G1 X6.048 Y0.000 Z20.840
G1 Y0.400
G1 X5.847 Y0.400 Z20.897
G1 Y0.000
G1 X5.645 Y0.000 Z20.953
G1 Y0.400
G1 X5.444 Y0.400 Z21.006
G1 Y0.000
G1 X5.242 Y0.000 Z21.057
G1 Y0.400
G1 X5.040 Y0.400 Z21.107
G1 Y0.000
G1 X4.839 Y0.000 Z21.154
G1 Y0.400
G1 X4.637 Y0.400 Z21.199
G1 Y0.000
G1 X4.435 Y0.000 Z21.242
G1 Y0.400
G1 X4.234 Y0.400 Z21.283
G1 Y0.000
G1 X4.032 Y0.000 Z21.322
G1 Y0.400
G1 X3.831 Y0.400 Z21.359
G1 Y0.000
G1 X3.629 Y0.000 Z21.394
G1 Y0.400
G1 X3.427 Y0.400 Z21.428
G1 Y0.000
G1 X3.226 Y0.000 Z21.459
G1 Y0.400
G1 X3.024 Y0.400 Z21.488
G1 Y0.000
G1 X2.823 Y0.000 Z21.516
G1 Y0.400
G1 X2.621 Y0.400 Z21.541
G1 Y0.000
G1 X2.419 Y0.000 Z21.565
G1 Y0.400
G1 X2.218 Y0.400 Z21.586
G1 Y0.000
G1 X2.016 Y0.000 Z21.606
G1 Y0.400
G1 X1.815 Y0.400 Z21.624
G1 Y0.000
G1 X1.613 Y0.000 Z21.640
G1 Y0.400
G1 X1.411 Y0.400 Z21.654
G1 Y0.000
G1 X1.210 Y0.000 Z21.666
G1 Y0.400
G1 X1.008 Y0.400 Z21.677
G1 Y0.000
G1 X0.806 Y0.000 Z21.685
G1 Y0.400
G1 X0.605 Y0.400 Z21.692
G1 Y0.000
G1 X0.403 Y0.000 Z21.696
G1 Y0.400
G1 X0.202 Y0.400 Z21.699
G1 Y0.000
G1 X0.000 Y0.000 Z21.700
G1 Y0.400

; Pass 3: Center -> Left with Y zigzag scan
G1 X0.000 Y0.000 Z21.700
G1 Y0.400
G1 X-0.202 Y0.400 Z21.699
G1 Y0.000
G1 X-0.403 Y0.000 Z21.696
G1 Y0.400
G1 X-0.605 Y0.400 Z21.692
G1 Y0.000
G1 X-0.806 Y0.000 Z21.685
G1 Y0.400
G1 X-1.008 Y0.400 Z21.677
G1 Y0.000
G1 X-1.210 Y0.000 Z21.666
G1 Y0.400
G1 X-1.411 Y0.400 Z21.654
G1 Y0.000
G1 X-1.613 Y0.000 Z21.640
G1 Y0.400
G1 X-1.815 Y0.400 Z21.624
G1 Y0.000
G1 X-2.016 Y0.000 Z21.606
G1 Y0.400
G1 X-2.218 Y0.400 Z21.586
G1 Y0.000
G1 X-2.419 Y0.000 Z21.565
G1 Y0.400
G1 X-2.621 Y0.400 Z21.541
G1 Y0.000
G1 X-2.823 Y0.000 Z21.516
G1 Y0.400
G1 X-3.024 Y0.400 Z21.488
G1 Y0.000
G1 X-3.226 Y0.000 Z21.459
G1 Y0.400
G1 X-3.427 Y0.400 Z21.428
G1 Y0.000
G1 X-3.629 Y0.000 Z21.394
G1 Y0.400
G1 X-3.831 Y0.400 Z21.359
G1 Y0.000
G1 X-4.032 Y0.000 Z21.322
G1 Y0.400
G1 X-4.234 Y0.400 Z21.283
G1 Y0.000
G1 X-4.435 Y0.000 Z21.242
G1 Y0.400
G1 X-4.637 Y0.400 Z21.199
G1 Y0.000
G1 X-4.839 Y0.000 Z21.154
G1 Y0.400
G1 X-5.040 Y0.400 Z21.107
G1 Y0.000
G1 X-5.242 Y0.000 Z21.057
G1 Y0.400
G1 X-5.444 Y0.400 Z21.006
G1 Y0.000
G1 X-5.645 Y0.000 Z20.953
G1 Y0.400
G1 X-5.847 Y0.400 Z20.897
G1 Y0.000
G1 X-6.048 Y0.000 Z20.840
G1 Y0.400
G1 X-6.250 Y0.400 Z20.780
G1 Y0.000
G1 X-6.452 Y0.000 Z20.719
G1 Y0.400
G1 X-6.653 Y0.400 Z20.655
G1 Y0.000
G1 X-6.855 Y0.000 Z20.589
G1 Y0.400
G1 X-7.056 Y0.400 Z20.521
G1 Y0.000
G1 X-7.258 Y0.000 Z20.450
G1 Y0.400
G1 X-7.460 Y0.400 Z20.378
G1 Y0.000
G1 X-7.661 Y0.000 Z20.303
G1 Y0.400
G1 X-7.863 Y0.400 Z20.225
G1 Y0.000
G1 X-8.065 Y0.000 Z20.146
G1 Y0.400
G1 X-8.266 Y0.400 Z20.064
G1 Y0.000
G1 X-8.468 Y0.000 Z19.980
G1 Y0.400
G1 X-8.669 Y0.400 Z19.893
G1 Y0.000
G1 X-8.871 Y0.000 Z19.804
G1 Y0.400
G1 X-9.073 Y0.400 Z19.712
G1 Y0.000
G1 X-9.274 Y0.000 Z19.618
G1 Y0.400
G1 X-9.476 Y0.400 Z19.522
G1 Y0.000
G1 X-9.677 Y0.000 Z19.423
G1 Y0.400
G1 X-9.879 Y0.400 Z19.321
G1 Y0.000
G1 X-10.081 Y0.000 Z19.216
G1 Y0.400
G1 X-10.282 Y0.400 Z19.109
G1 Y0.000
G1 X-10.484 Y0.000 Z18.999
G1 Y0.400
G1 X-10.685 Y0.400 Z18.887
G1 Y0.000
G1 X-10.887 Y0.000 Z18.771
G1 Y0.400
G1 X-11.089 Y0.400 Z18.653
G1 Y0.000
G1 X-11.290 Y0.000 Z18.532
G1 Y0.400
G1 X-11.492 Y0.400 Z18.407
G1 Y0.000
G1 X-11.694 Y0.000 Z18.280
G1 Y0.400
G1 X-11.895 Y0.400 Z18.149
G1 Y0.000
G1 X-12.097 Y0.000 Z18.015
G1 Y0.400
G1 X-12.298 Y0.400 Z17.878
G1 Y0.000
G1 X-12.500 Y0.000 Z17.738
G1 Y0.400

; Pass 4: Left -> Center with Y zigzag scan
G1 X-12.500 Y0.000 Z17.738
G1 Y0.400
G1 X-12.298 Y0.400 Z17.878
G1 Y0.000
G1 X-12.097 Y0.000 Z18.015
G1 Y0.400
G1 X-11.895 Y0.400 Z18.149
G1 Y0.000
G1 X-11.694 Y0.000 Z18.280
G1 Y0.400
G1 X-11.492 Y0.400 Z18.407
G1 Y0.000
G1 X-11.290 Y0.000 Z18.532
G1 Y0.400
G1 X-11.089 Y0.400 Z18.653
G1 Y0.000
G1 X-10.887 Y0.000 Z18.771
G1 Y0.400
G1 X-10.685 Y0.400 Z18.887
G1 Y0.000
G1 X-10.484 Y0.000 Z18.999
G1 Y0.400
G1 X-10.282 Y0.400 Z19.109
G1 Y0.000
G1 X-10.081 Y0.000 Z19.216
G1 Y0.400
G1 X-9.879 Y0.400 Z19.321
G1 Y0.000
G1 X-9.677 Y0.000 Z19.423
G1 Y0.400
G1 X-9.476 Y0.400 Z19.522
G1 Y0.000
G1 X-9.274 Y0.000 Z19.618
G1 Y0.400
G1 X-9.073 Y0.400 Z19.712
G1 Y0.000
G1 X-8.871 Y0.000 Z19.804
G1 Y0.400
G1 X-8.669 Y0.400 Z19.893
G1 Y0.000
G1 X-8.468 Y0.000 Z19.980
G1 Y0.400
G1 X-8.266 Y0.400 Z20.064
G1 Y0.000
G1 X-8.065 Y0.000 Z20.146
G1 Y0.400
G1 X-7.863 Y0.400 Z20.225
G1 Y0.000
G1 X-7.661 Y0.000 Z20.303
G1 Y0.400
G1 X-7.460 Y0.400 Z20.378
G1 Y0.000
G1 X-7.258 Y0.000 Z20.450
G1 Y0.400
G1 X-7.056 Y0.400 Z20.521
G1 Y0.000
G1 X-6.855 Y0.000 Z20.589
G1 Y0.400
G1 X-6.653 Y0.400 Z20.655
G1 Y0.000
G1 X-6.452 Y0.000 Z20.719
G1 Y0.400
G1 X-6.250 Y0.400 Z20.780
G1 Y0.000
G1 X-6.048 Y0.000 Z20.840
G1 Y0.400
G1 X-5.847 Y0.400 Z20.897
G1 Y0.000
G1 X-5.645 Y0.000 Z20.953
G1 Y0.400
G1 X-5.444 Y0.400 Z21.006
G1 Y0.000
G1 X-5.242 Y0.000 Z21.057
G1 Y0.400
G1 X-5.040 Y0.400 Z21.107
G1 Y0.000
G1 X-4.839 Y0.000 Z21.154
G1 Y0.400
G1 X-4.637 Y0.400 Z21.199
G1 Y0.000
G1 X-4.435 Y0.000 Z21.242
G1 Y0.400
G1 X-4.234 Y0.400 Z21.283
G1 Y0.000
G1 X-4.032 Y0.000 Z21.322
G1 Y0.400
G1 X-3.831 Y0.400 Z21.359
G1 Y0.000
G1 X-3.629 Y0.000 Z21.394
G1 Y0.400
G1 X-3.427 Y0.400 Z21.428
G1 Y0.000
G1 X-3.226 Y0.000 Z21.459
G1 Y0.400
G1 X-3.024 Y0.400 Z21.488
G1 Y0.000
G1 X-2.823 Y0.000 Z21.516
G1 Y0.400
G1 X-2.621 Y0.400 Z21.541
G1 Y0.000
G1 X-2.419 Y0.000 Z21.565
G1 Y0.400
G1 X-2.218 Y0.400 Z21.586
G1 Y0.000
G1 X-2.016 Y0.000 Z21.606
G1 Y0.400
G1 X-1.815 Y0.400 Z21.624
G1 Y0.000
G1 X-1.613 Y0.000 Z21.640
G1 Y0.400
G1 X-1.411 Y0.400 Z21.654
G1 Y0.000
G1 X-1.210 Y0.000 Z21.666
G1 Y0.400
G1 X-1.008 Y0.400 Z21.677
G1 Y0.000
G1 X-0.806 Y0.000 Z21.685
G1 Y0.400
G1 X-0.605 Y0.400 Z21.692
G1 Y0.000
G1 X-0.403 Y0.000 Z21.696
G1 Y0.400
G1 X-0.202 Y0.400 Z21.699
G1 Y0.000
G1 X0.000 Y0.000 Z21.700
G1 Y0.400


; ====== Layer 4: Z = -0.4 ======
; R = 21.6, X = [-12.50, 12.50]
; Path: Center -> Right -> Center -> Left -> Center (with Y scanning)

; Pass 1: Center -> Right with Y zigzag scan
G1 X0.000 Y0.000 Z21.600
G1 Y0.400
G1 X0.202 Y0.400 Z21.599
G1 Y0.000
G1 X0.403 Y0.000 Z21.596
G1 Y0.400
G1 X0.605 Y0.400 Z21.592
G1 Y0.000
G1 X0.806 Y0.000 Z21.585
G1 Y0.400
G1 X1.008 Y0.400 Z21.576
G1 Y0.000
G1 X1.210 Y0.000 Z21.566
G1 Y0.400
G1 X1.411 Y0.400 Z21.554
G1 Y0.000
G1 X1.613 Y0.000 Z21.540
G1 Y0.400
G1 X1.815 Y0.400 Z21.524
G1 Y0.000
G1 X2.016 Y0.000 Z21.506
G1 Y0.400
G1 X2.218 Y0.400 Z21.486
G1 Y0.000
G1 X2.419 Y0.000 Z21.464
G1 Y0.400
G1 X2.621 Y0.400 Z21.440
G1 Y0.000
G1 X2.823 Y0.000 Z21.415
G1 Y0.400
G1 X3.024 Y0.400 Z21.387
G1 Y0.000
G1 X3.226 Y0.000 Z21.358
G1 Y0.400
G1 X3.427 Y0.400 Z21.326
G1 Y0.000
G1 X3.629 Y0.000 Z21.293
G1 Y0.400
G1 X3.831 Y0.400 Z21.258
G1 Y0.000
G1 X4.032 Y0.000 Z21.220
G1 Y0.400
G1 X4.234 Y0.400 Z21.181
G1 Y0.000
G1 X4.435 Y0.000 Z21.140
G1 Y0.400
G1 X4.637 Y0.400 Z21.096
G1 Y0.000
G1 X4.839 Y0.000 Z21.051
G1 Y0.400
G1 X5.040 Y0.400 Z21.004
G1 Y0.000
G1 X5.242 Y0.000 Z20.954
G1 Y0.400
G1 X5.444 Y0.400 Z20.903
G1 Y0.000
G1 X5.645 Y0.000 Z20.849
G1 Y0.400
G1 X5.847 Y0.400 Z20.794
G1 Y0.000
G1 X6.048 Y0.000 Z20.736
G1 Y0.400
G1 X6.250 Y0.400 Z20.676
G1 Y0.000
G1 X6.452 Y0.000 Z20.614
G1 Y0.400
G1 X6.653 Y0.400 Z20.550
G1 Y0.000
G1 X6.855 Y0.000 Z20.483
G1 Y0.400
G1 X7.056 Y0.400 Z20.415
G1 Y0.000
G1 X7.258 Y0.000 Z20.344
G1 Y0.400
G1 X7.460 Y0.400 Z20.271
G1 Y0.000
G1 X7.661 Y0.000 Z20.196
G1 Y0.400
G1 X7.863 Y0.400 Z20.118
G1 Y0.000
G1 X8.065 Y0.000 Z20.038
G1 Y0.400
G1 X8.266 Y0.400 Z19.956
G1 Y0.000
G1 X8.468 Y0.000 Z19.871
G1 Y0.400
G1 X8.669 Y0.400 Z19.784
G1 Y0.000
G1 X8.871 Y0.000 Z19.694
G1 Y0.400
G1 X9.073 Y0.400 Z19.602
G1 Y0.000
G1 X9.274 Y0.000 Z19.508
G1 Y0.400
G1 X9.476 Y0.400 Z19.411
G1 Y0.000
G1 X9.677 Y0.000 Z19.311
G1 Y0.400
G1 X9.879 Y0.400 Z19.208
G1 Y0.000
G1 X10.081 Y0.000 Z19.103
G1 Y0.400
G1 X10.282 Y0.400 Z18.996
G1 Y0.000
G1 X10.484 Y0.000 Z18.885
G1 Y0.400
G1 X10.685 Y0.400 Z18.772
G1 Y0.000
G1 X10.887 Y0.000 Z18.656
G1 Y0.400
G1 X11.089 Y0.400 Z18.536
G1 Y0.000
G1 X11.290 Y0.000 Z18.414
G1 Y0.400
G1 X11.492 Y0.400 Z18.289
G1 Y0.000
G1 X11.694 Y0.000 Z18.161
G1 Y0.400
G1 X11.895 Y0.400 Z18.030
G1 Y0.000
G1 X12.097 Y0.000 Z17.895
G1 Y0.400
G1 X12.298 Y0.400 Z17.757
G1 Y0.000
G1 X12.500 Y0.000 Z17.616
G1 Y0.400

; Pass 2: Right -> Center with Y zigzag scan
G1 X12.500 Y0.000 Z17.616
G1 Y0.400
G1 X12.298 Y0.400 Z17.757
G1 Y0.000
G1 X12.097 Y0.000 Z17.895
G1 Y0.400
G1 X11.895 Y0.400 Z18.030
G1 Y0.000
G1 X11.694 Y0.000 Z18.161
G1 Y0.400
G1 X11.492 Y0.400 Z18.289
G1 Y0.000
G1 X11.290 Y0.000 Z18.414
G1 Y0.400
G1 X11.089 Y0.400 Z18.536
G1 Y0.000
G1 X10.887 Y0.000 Z18.656
G1 Y0.400
G1 X10.685 Y0.400 Z18.772
G1 Y0.000
G1 X10.484 Y0.000 Z18.885
G1 Y0.400
G1 X10.282 Y0.400 Z18.996
G1 Y0.000
G1 X10.081 Y0.000 Z19.103
G1 Y0.400
G1 X9.879 Y0.400 Z19.208
G1 Y0.000
G1 X9.677 Y0.000 Z19.311
G1 Y0.400
G1 X9.476 Y0.400 Z19.411
G1 Y0.000
G1 X9.274 Y0.000 Z19.508
G1 Y0.400
G1 X9.073 Y0.400 Z19.602
G1 Y0.000
G1 X8.871 Y0.000 Z19.694
G1 Y0.400
G1 X8.669 Y0.400 Z19.784
G1 Y0.000
G1 X8.468 Y0.000 Z19.871
G1 Y0.400
G1 X8.266 Y0.400 Z19.956
G1 Y0.000
G1 X8.065 Y0.000 Z20.038
G1 Y0.400
G1 X7.863 Y0.400 Z20.118
G1 Y0.000
G1 X7.661 Y0.000 Z20.196
G1 Y0.400
G1 X7.460 Y0.400 Z20.271
G1 Y0.000
G1 X7.258 Y0.000 Z20.344
G1 Y0.400
G1 X7.056 Y0.400 Z20.415
G1 Y0.000
G1 X6.855 Y0.000 Z20.483
G1 Y0.400
G1 X6.653 Y0.400 Z20.550
G1 Y0.000
G1 X6.452 Y0.000 Z20.614
G1 Y0.400
G1 X6.250 Y0.400 Z20.676
G1 Y0.000
G1 X6.048 Y0.000 Z20.736
G1 Y0.400
G1 X5.847 Y0.400 Z20.794
G1 Y0.000
G1 X5.645 Y0.000 Z20.849
G1 Y0.400
G1 X5.444 Y0.400 Z20.903
G1 Y0.000
G1 X5.242 Y0.000 Z20.954
G1 Y0.400
G1 X5.040 Y0.400 Z21.004
G1 Y0.000
G1 X4.839 Y0.000 Z21.051
G1 Y0.400
G1 X4.637 Y0.400 Z21.096
G1 Y0.000
G1 X4.435 Y0.000 Z21.140
G1 Y0.400
G1 X4.234 Y0.400 Z21.181
G1 Y0.000
G1 X4.032 Y0.000 Z21.220
G1 Y0.400
G1 X3.831 Y0.400 Z21.258
G1 Y0.000
G1 X3.629 Y0.000 Z21.293
G1 Y0.400
G1 X3.427 Y0.400 Z21.326
G1 Y0.000
G1 X3.226 Y0.000 Z21.358
G1 Y0.400
G1 X3.024 Y0.400 Z21.387
G1 Y0.000
G1 X2.823 Y0.000 Z21.415
G1 Y0.400
G1 X2.621 Y0.400 Z21.440
G1 Y0.000
G1 X2.419 Y0.000 Z21.464
G1 Y0.400
G1 X2.218 Y0.400 Z21.486
G1 Y0.000
G1 X2.016 Y0.000 Z21.506
G1 Y0.400
G1 X1.815 Y0.400 Z21.524
G1 Y0.000
G1 X1.613 Y0.000 Z21.540
G1 Y0.400
G1 X1.411 Y0.400 Z21.554
G1 Y0.000
G1 X1.210 Y0.000 Z21.566
G1 Y0.400
G1 X1.008 Y0.400 Z21.576
G1 Y0.000
G1 X0.806 Y0.000 Z21.585
G1 Y0.400
G1 X0.605 Y0.400 Z21.592
G1 Y0.000
G1 X0.403 Y0.000 Z21.596
G1 Y0.400
G1 X0.202 Y0.400 Z21.599
G1 Y0.000
G1 X0.000 Y0.000 Z21.600
G1 Y0.400

; Pass 3: Center -> Left with Y zigzag scan
G1 X0.000 Y0.000 Z21.600
G1 Y0.400
G1 X-0.202 Y0.400 Z21.599
G1 Y0.000
G1 X-0.403 Y0.000 Z21.596
G1 Y0.400
G1 X-0.605 Y0.400 Z21.592
G1 Y0.000
G1 X-0.806 Y0.000 Z21.585
G1 Y0.400
G1 X-1.008 Y0.400 Z21.576
G1 Y0.000
G1 X-1.210 Y0.000 Z21.566
G1 Y0.400
G1 X-1.411 Y0.400 Z21.554
G1 Y0.000
G1 X-1.613 Y0.000 Z21.540
G1 Y0.400
G1 X-1.815 Y0.400 Z21.524
G1 Y0.000
G1 X-2.016 Y0.000 Z21.506
G1 Y0.400
G1 X-2.218 Y0.400 Z21.486
G1 Y0.000
G1 X-2.419 Y0.000 Z21.464
G1 Y0.400
G1 X-2.621 Y0.400 Z21.440
G1 Y0.000
G1 X-2.823 Y0.000 Z21.415
G1 Y0.400
G1 X-3.024 Y0.400 Z21.387
G1 Y0.000
G1 X-3.226 Y0.000 Z21.358
G1 Y0.400
G1 X-3.427 Y0.400 Z21.326
G1 Y0.000
G1 X-3.629 Y0.000 Z21.293
G1 Y0.400
G1 X-3.831 Y0.400 Z21.258
G1 Y0.000
G1 X-4.032 Y0.000 Z21.220
G1 Y0.400
G1 X-4.234 Y0.400 Z21.181
G1 Y0.000
G1 X-4.435 Y0.000 Z21.140
G1 Y0.400
G1 X-4.637 Y0.400 Z21.096
G1 Y0.000
G1 X-4.839 Y0.000 Z21.051
G1 Y0.400
G1 X-5.040 Y0.400 Z21.004
G1 Y0.000
G1 X-5.242 Y0.000 Z20.954
G1 Y0.400
G1 X-5.444 Y0.400 Z20.903
G1 Y0.000
G1 X-5.645 Y0.000 Z20.849
G1 Y0.400
G1 X-5.847 Y0.400 Z20.794
G1 Y0.000
G1 X-6.048 Y0.000 Z20.736
G1 Y0.400
G1 X-6.250 Y0.400 Z20.676
G1 Y0.000
G1 X-6.452 Y0.000 Z20.614
G1 Y0.400
G1 X-6.653 Y0.400 Z20.550
G1 Y0.000
G1 X-6.855 Y0.000 Z20.483
G1 Y0.400
G1 X-7.056 Y0.400 Z20.415
G1 Y0.000
G1 X-7.258 Y0.000 Z20.344
G1 Y0.400
G1 X-7.460 Y0.400 Z20.271
G1 Y0.000
G1 X-7.661 Y0.000 Z20.196
G1 Y0.400
G1 X-7.863 Y0.400 Z20.118
G1 Y0.000
G1 X-8.065 Y0.000 Z20.038
G1 Y0.400
G1 X-8.266 Y0.400 Z19.956
G1 Y0.000
G1 X-8.468 Y0.000 Z19.871
G1 Y0.400
G1 X-8.669 Y0.400 Z19.784
G1 Y0.000
G1 X-8.871 Y0.000 Z19.694
G1 Y0.400
G1 X-9.073 Y0.400 Z19.602
G1 Y0.000
G1 X-9.274 Y0.000 Z19.508
G1 Y0.400
G1 X-9.476 Y0.400 Z19.411
G1 Y0.000
G1 X-9.677 Y0.000 Z19.311
G1 Y0.400
G1 X-9.879 Y0.400 Z19.208
G1 Y0.000
G1 X-10.081 Y0.000 Z19.103
G1 Y0.400
G1 X-10.282 Y0.400 Z18.996
G1 Y0.000
G1 X-10.484 Y0.000 Z18.885
G1 Y0.400
G1 X-10.685 Y0.400 Z18.772
G1 Y0.000
G1 X-10.887 Y0.000 Z18.656
G1 Y0.400
G1 X-11.089 Y0.400 Z18.536
G1 Y0.000
G1 X-11.290 Y0.000 Z18.414
G1 Y0.400
G1 X-11.492 Y0.400 Z18.289
G1 Y0.000
G1 X-11.694 Y0.000 Z18.161
G1 Y0.400
G1 X-11.895 Y0.400 Z18.030
G1 Y0.000
G1 X-12.097 Y0.000 Z17.895
G1 Y0.400
G1 X-12.298 Y0.400 Z17.757
G1 Y0.000
G1 X-12.500 Y0.000 Z17.616
G1 Y0.400

; Pass 4: Left -> Center with Y zigzag scan
G1 X-12.500 Y0.000 Z17.616
G1 Y0.400
G1 X-12.298 Y0.400 Z17.757
G1 Y0.000
G1 X-12.097 Y0.000 Z17.895
G1 Y0.400
G1 X-11.895 Y0.400 Z18.030
G1 Y0.000
G1 X-11.694 Y0.000 Z18.161
G1 Y0.400
G1 X-11.492 Y0.400 Z18.289
G1 Y0.000
G1 X-11.290 Y0.000 Z18.414
G1 Y0.400
G1 X-11.089 Y0.400 Z18.536
G1 Y0.000
G1 X-10.887 Y0.000 Z18.656
G1 Y0.400
G1 X-10.685 Y0.400 Z18.772
G1 Y0.000
G1 X-10.484 Y0.000 Z18.885
G1 Y0.400
G1 X-10.282 Y0.400 Z18.996
G1 Y0.000
G1 X-10.081 Y0.000 Z19.103
G1 Y0.400
G1 X-9.879 Y0.400 Z19.208
G1 Y0.000
G1 X-9.677 Y0.000 Z19.311
G1 Y0.400
G1 X-9.476 Y0.400 Z19.411
G1 Y0.000
G1 X-9.274 Y0.000 Z19.508
G1 Y0.400
G1 X-9.073 Y0.400 Z19.602
G1 Y0.000
G1 X-8.871 Y0.000 Z19.694
G1 Y0.400
G1 X-8.669 Y0.400 Z19.784
G1 Y0.000
G1 X-8.468 Y0.000 Z19.871
G1 Y0.400
G1 X-8.266 Y0.400 Z19.956
G1 Y0.000
G1 X-8.065 Y0.000 Z20.038
G1 Y0.400
G1 X-7.863 Y0.400 Z20.118
G1 Y0.000
G1 X-7.661 Y0.000 Z20.196
G1 Y0.400
G1 X-7.460 Y0.400 Z20.271
G1 Y0.000
G1 X-7.258 Y0.000 Z20.344
G1 Y0.400
G1 X-7.056 Y0.400 Z20.415
G1 Y0.000
G1 X-6.855 Y0.000 Z20.483
G1 Y0.400
G1 X-6.653 Y0.400 Z20.550
G1 Y0.000
G1 X-6.452 Y0.000 Z20.614
G1 Y0.400
G1 X-6.250 Y0.400 Z20.676
G1 Y0.000
G1 X-6.048 Y0.000 Z20.736
G1 Y0.400
G1 X-5.847 Y0.400 Z20.794
G1 Y0.000
G1 X-5.645 Y0.000 Z20.849
G1 Y0.400
G1 X-5.444 Y0.400 Z20.903
G1 Y0.000
G1 X-5.242 Y0.000 Z20.954
G1 Y0.400
G1 X-5.040 Y0.400 Z21.004
G1 Y0.000
G1 X-4.839 Y0.000 Z21.051
G1 Y0.400
G1 X-4.637 Y0.400 Z21.096
G1 Y0.000
G1 X-4.435 Y0.000 Z21.140
G1 Y0.400
G1 X-4.234 Y0.400 Z21.181
G1 Y0.000
G1 X-4.032 Y0.000 Z21.220
G1 Y0.400
G1 X-3.831 Y0.400 Z21.258
G1 Y0.000
G1 X-3.629 Y0.000 Z21.293
G1 Y0.400
G1 X-3.427 Y0.400 Z21.326
G1 Y0.000
G1 X-3.226 Y0.000 Z21.358
G1 Y0.400
G1 X-3.024 Y0.400 Z21.387
G1 Y0.000
G1 X-2.823 Y0.000 Z21.415
G1 Y0.400
G1 X-2.621 Y0.400 Z21.440
G1 Y0.000
G1 X-2.419 Y0.000 Z21.464
G1 Y0.400
G1 X-2.218 Y0.400 Z21.486
G1 Y0.000
G1 X-2.016 Y0.000 Z21.506
G1 Y0.400
G1 X-1.815 Y0.400 Z21.524
G1 Y0.000
G1 X-1.613 Y0.000 Z21.540
G1 Y0.400
G1 X-1.411 Y0.400 Z21.554
G1 Y0.000
G1 X-1.210 Y0.000 Z21.566
G1 Y0.400
G1 X-1.008 Y0.400 Z21.576
G1 Y0.000
G1 X-0.806 Y0.000 Z21.585
G1 Y0.400
G1 X-0.605 Y0.400 Z21.592
G1 Y0.000
G1 X-0.403 Y0.000 Z21.596
G1 Y0.400
G1 X-0.202 Y0.400 Z21.599
G1 Y0.000
G1 X0.000 Y0.000 Z21.600
G1 Y0.400


; ====== Layer 5: Z = -0.5 ======
; R = 21.5, X = [-12.50, 12.50]
; Path: Center -> Right -> Center -> Left -> Center (with Y scanning)

; Pass 1: Center -> Right with Y zigzag scan
G1 X0.000 Y0.000 Z21.500
G1 Y0.400
G1 X0.202 Y0.400 Z21.499
G1 Y0.000
G1 X0.403 Y0.000 Z21.496
G1 Y0.400
G1 X0.605 Y0.400 Z21.491
G1 Y0.000
G1 X0.806 Y0.000 Z21.485
G1 Y0.400
G1 X1.008 Y0.400 Z21.476
G1 Y0.000
G1 X1.210 Y0.000 Z21.466
G1 Y0.400
G1 X1.411 Y0.400 Z21.454
G1 Y0.000
G1 X1.613 Y0.000 Z21.439
G1 Y0.400
G1 X1.815 Y0.400 Z21.423
G1 Y0.000
G1 X2.016 Y0.000 Z21.405
G1 Y0.400
G1 X2.218 Y0.400 Z21.385
G1 Y0.000
G1 X2.419 Y0.000 Z21.363
G1 Y0.400
G1 X2.621 Y0.400 Z21.340
G1 Y0.000
G1 X2.823 Y0.000 Z21.314
G1 Y0.400
G1 X3.024 Y0.400 Z21.286
G1 Y0.000
G1 X3.226 Y0.000 Z21.257
G1 Y0.400
G1 X3.427 Y0.400 Z21.225
G1 Y0.000
G1 X3.629 Y0.000 Z21.192
G1 Y0.400
G1 X3.831 Y0.400 Z21.156
G1 Y0.000
G1 X4.032 Y0.000 Z21.118
G1 Y0.400
G1 X4.234 Y0.400 Z21.079
G1 Y0.000
G1 X4.435 Y0.000 Z21.038
G1 Y0.400
G1 X4.637 Y0.400 Z20.994
G1 Y0.000
G1 X4.839 Y0.000 Z20.948
G1 Y0.400
G1 X5.040 Y0.400 Z20.901
G1 Y0.000
G1 X5.242 Y0.000 Z20.851
G1 Y0.400
G1 X5.444 Y0.400 Z20.799
G1 Y0.000
G1 X5.645 Y0.000 Z20.746
G1 Y0.400
G1 X5.847 Y0.400 Z20.690
G1 Y0.000
G1 X6.048 Y0.000 Z20.632
G1 Y0.400
G1 X6.250 Y0.400 Z20.572
G1 Y0.000
G1 X6.452 Y0.000 Z20.509
G1 Y0.400
G1 X6.653 Y0.400 Z20.445
G1 Y0.000
G1 X6.855 Y0.000 Z20.378
G1 Y0.400
G1 X7.056 Y0.400 Z20.309
G1 Y0.000
G1 X7.258 Y0.000 Z20.238
G1 Y0.400
G1 X7.460 Y0.400 Z20.164
G1 Y0.000
G1 X7.661 Y0.000 Z20.089
G1 Y0.400
G1 X7.863 Y0.400 Z20.011
G1 Y0.000
G1 X8.065 Y0.000 Z19.930
G1 Y0.400
G1 X8.266 Y0.400 Z19.847
G1 Y0.000
G1 X8.468 Y0.000 Z19.762
G1 Y0.400
G1 X8.669 Y0.400 Z19.675
G1 Y0.000
G1 X8.871 Y0.000 Z19.585
G1 Y0.400
G1 X9.073 Y0.400 Z19.492
G1 Y0.000
G1 X9.274 Y0.000 Z19.397
G1 Y0.400
G1 X9.476 Y0.400 Z19.299
G1 Y0.000
G1 X9.677 Y0.000 Z19.199
G1 Y0.400
G1 X9.879 Y0.400 Z19.096
G1 Y0.000
G1 X10.081 Y0.000 Z18.990
G1 Y0.400
G1 X10.282 Y0.400 Z18.882
G1 Y0.000
G1 X10.484 Y0.000 Z18.771
G1 Y0.400
G1 X10.685 Y0.400 Z18.657
G1 Y0.000
G1 X10.887 Y0.000 Z18.540
G1 Y0.400
G1 X11.089 Y0.400 Z18.420
G1 Y0.000
G1 X11.290 Y0.000 Z18.297
G1 Y0.400
G1 X11.492 Y0.400 Z18.171
G1 Y0.000
G1 X11.694 Y0.000 Z18.042
G1 Y0.400
G1 X11.895 Y0.400 Z17.910
G1 Y0.000
G1 X12.097 Y0.000 Z17.774
G1 Y0.400
G1 X12.298 Y0.400 Z17.635
G1 Y0.000
G1 X12.500 Y0.000 Z17.493
G1 Y0.400

; Pass 2: Right -> Center with Y zigzag scan
G1 X12.500 Y0.000 Z17.493
G1 Y0.400
G1 X12.298 Y0.400 Z17.635
G1 Y0.000
G1 X12.097 Y0.000 Z17.774
G1 Y0.400
G1 X11.895 Y0.400 Z17.910
G1 Y0.000
G1 X11.694 Y0.000 Z18.042
G1 Y0.400
G1 X11.492 Y0.400 Z18.171
G1 Y0.000
G1 X11.290 Y0.000 Z18.297
G1 Y0.400
G1 X11.089 Y0.400 Z18.420
G1 Y0.000
G1 X10.887 Y0.000 Z18.540
G1 Y0.400
G1 X10.685 Y0.400 Z18.657
G1 Y0.000
G1 X10.484 Y0.000 Z18.771
G1 Y0.400
G1 X10.282 Y0.400 Z18.882
G1 Y0.000
G1 X10.081 Y0.000 Z18.990
G1 Y0.400
G1 X9.879 Y0.400 Z19.096
G1 Y0.000
G1 X9.677 Y0.000 Z19.199
G1 Y0.400
G1 X9.476 Y0.400 Z19.299
G1 Y0.000
G1 X9.274 Y0.000 Z19.397
G1 Y0.400
G1 X9.073 Y0.400 Z19.492
G1 Y0.000
G1 X8.871 Y0.000 Z19.585
G1 Y0.400
G1 X8.669 Y0.400 Z19.675
G1 Y0.000
G1 X8.468 Y0.000 Z19.762
G1 Y0.400
G1 X8.266 Y0.400 Z19.847
G1 Y0.000
G1 X8.065 Y0.000 Z19.930
G1 Y0.400
G1 X7.863 Y0.400 Z20.011
G1 Y0.000
G1 X7.661 Y0.000 Z20.089
G1 Y0.400
G1 X7.460 Y0.400 Z20.164
G1 Y0.000
G1 X7.258 Y0.000 Z20.238
G1 Y0.400
G1 X7.056 Y0.400 Z20.309
G1 Y0.000
G1 X6.855 Y0.000 Z20.378
G1 Y0.400
G1 X6.653 Y0.400 Z20.445
G1 Y0.000
G1 X6.452 Y0.000 Z20.509
G1 Y0.400
G1 X6.250 Y0.400 Z20.572
G1 Y0.000
G1 X6.048 Y0.000 Z20.632
G1 Y0.400
G1 X5.847 Y0.400 Z20.690
G1 Y0.000
G1 X5.645 Y0.000 Z20.746
G1 Y0.400
G1 X5.444 Y0.400 Z20.799
G1 Y0.000
G1 X5.242 Y0.000 Z20.851
G1 Y0.400
G1 X5.040 Y0.400 Z20.901
G1 Y0.000
G1 X4.839 Y0.000 Z20.948
G1 Y0.400
G1 X4.637 Y0.400 Z20.994
G1 Y0.000
G1 X4.435 Y0.000 Z21.038
G1 Y0.400
G1 X4.234 Y0.400 Z21.079
G1 Y0.000
G1 X4.032 Y0.000 Z21.118
G1 Y0.400
G1 X3.831 Y0.400 Z21.156
G1 Y0.000
G1 X3.629 Y0.000 Z21.192
G1 Y0.400
G1 X3.427 Y0.400 Z21.225
G1 Y0.000
G1 X3.226 Y0.000 Z21.257
G1 Y0.400
G1 X3.024 Y0.400 Z21.286
G1 Y0.000
G1 X2.823 Y0.000 Z21.314
G1 Y0.400
G1 X2.621 Y0.400 Z21.340
G1 Y0.000
G1 X2.419 Y0.000 Z21.363
G1 Y0.400
G1 X2.218 Y0.400 Z21.385
G1 Y0.000
G1 X2.016 Y0.000 Z21.405
G1 Y0.400
G1 X1.815 Y0.400 Z21.423
G1 Y0.000
G1 X1.613 Y0.000 Z21.439
G1 Y0.400
G1 X1.411 Y0.400 Z21.454
G1 Y0.000
G1 X1.210 Y0.000 Z21.466
G1 Y0.400
G1 X1.008 Y0.400 Z21.476
G1 Y0.000
G1 X0.806 Y0.000 Z21.485
G1 Y0.400
G1 X0.605 Y0.400 Z21.491
G1 Y0.000
G1 X0.403 Y0.000 Z21.496
G1 Y0.400
G1 X0.202 Y0.400 Z21.499
G1 Y0.000
G1 X0.000 Y0.000 Z21.500
G1 Y0.400

; Pass 3: Center -> Left with Y zigzag scan
G1 X0.000 Y0.000 Z21.500
G1 Y0.400
G1 X-0.202 Y0.400 Z21.499
G1 Y0.000
G1 X-0.403 Y0.000 Z21.496
G1 Y0.400
G1 X-0.605 Y0.400 Z21.491
G1 Y0.000
G1 X-0.806 Y0.000 Z21.485
G1 Y0.400
G1 X-1.008 Y0.400 Z21.476
G1 Y0.000
G1 X-1.210 Y0.000 Z21.466
G1 Y0.400
G1 X-1.411 Y0.400 Z21.454
G1 Y0.000
G1 X-1.613 Y0.000 Z21.439
G1 Y0.400
G1 X-1.815 Y0.400 Z21.423
G1 Y0.000
G1 X-2.016 Y0.000 Z21.405
G1 Y0.400
G1 X-2.218 Y0.400 Z21.385
G1 Y0.000
G1 X-2.419 Y0.000 Z21.363
G1 Y0.400
G1 X-2.621 Y0.400 Z21.340
G1 Y0.000
G1 X-2.823 Y0.000 Z21.314
G1 Y0.400
G1 X-3.024 Y0.400 Z21.286
G1 Y0.000
G1 X-3.226 Y0.000 Z21.257
G1 Y0.400
G1 X-3.427 Y0.400 Z21.225
G1 Y0.000
G1 X-3.629 Y0.000 Z21.192
G1 Y0.400
G1 X-3.831 Y0.400 Z21.156
G1 Y0.000
G1 X-4.032 Y0.000 Z21.118
G1 Y0.400
G1 X-4.234 Y0.400 Z21.079
G1 Y0.000
G1 X-4.435 Y0.000 Z21.038
G1 Y0.400
G1 X-4.637 Y0.400 Z20.994
G1 Y0.000
G1 X-4.839 Y0.000 Z20.948
G1 Y0.400
G1 X-5.040 Y0.400 Z20.901
G1 Y0.000
G1 X-5.242 Y0.000 Z20.851
G1 Y0.400
G1 X-5.444 Y0.400 Z20.799
G1 Y0.000
G1 X-5.645 Y0.000 Z20.746
G1 Y0.400
G1 X-5.847 Y0.400 Z20.690
G1 Y0.000
G1 X-6.048 Y0.000 Z20.632
G1 Y0.400
G1 X-6.250 Y0.400 Z20.572
G1 Y0.000
G1 X-6.452 Y0.000 Z20.509
G1 Y0.400
G1 X-6.653 Y0.400 Z20.445
G1 Y0.000
G1 X-6.855 Y0.000 Z20.378
G1 Y0.400
G1 X-7.056 Y0.400 Z20.309
G1 Y0.000
G1 X-7.258 Y0.000 Z20.238
G1 Y0.400
G1 X-7.460 Y0.400 Z20.164
G1 Y0.000
G1 X-7.661 Y0.000 Z20.089
G1 Y0.400
G1 X-7.863 Y0.400 Z20.011
G1 Y0.000
G1 X-8.065 Y0.000 Z19.930
G1 Y0.400
G1 X-8.266 Y0.400 Z19.847
G1 Y0.000
G1 X-8.468 Y0.000 Z19.762
G1 Y0.400
G1 X-8.669 Y0.400 Z19.675
G1 Y0.000
G1 X-8.871 Y0.000 Z19.585
G1 Y0.400
G1 X-9.073 Y0.400 Z19.492
G1 Y0.000
G1 X-9.274 Y0.000 Z19.397
G1 Y0.400
G1 X-9.476 Y0.400 Z19.299
G1 Y0.000
G1 X-9.677 Y0.000 Z19.199
G1 Y0.400
G1 X-9.879 Y0.400 Z19.096
G1 Y0.000
G1 X-10.081 Y0.000 Z18.990
G1 Y0.400
G1 X-10.282 Y0.400 Z18.882
G1 Y0.000
G1 X-10.484 Y0.000 Z18.771
G1 Y0.400
G1 X-10.685 Y0.400 Z18.657
G1 Y0.000
G1 X-10.887 Y0.000 Z18.540
G1 Y0.400
G1 X-11.089 Y0.400 Z18.420
G1 Y0.000
G1 X-11.290 Y0.000 Z18.297
G1 Y0.400
G1 X-11.492 Y0.400 Z18.171
G1 Y0.000
G1 X-11.694 Y0.000 Z18.042
G1 Y0.400
G1 X-11.895 Y0.400 Z17.910
G1 Y0.000
G1 X-12.097 Y0.000 Z17.774
G1 Y0.400
G1 X-12.298 Y0.400 Z17.635
G1 Y0.000
G1 X-12.500 Y0.000 Z17.493
G1 Y0.400

; Pass 4: Left -> Center with Y zigzag scan
G1 X-12.500 Y0.000 Z17.493
G1 Y0.400
G1 X-12.298 Y0.400 Z17.635
G1 Y0.000
G1 X-12.097 Y0.000 Z17.774
G1 Y0.400
G1 X-11.895 Y0.400 Z17.910
G1 Y0.000
G1 X-11.694 Y0.000 Z18.042
G1 Y0.400
G1 X-11.492 Y0.400 Z18.171
G1 Y0.000
G1 X-11.290 Y0.000 Z18.297
G1 Y0.400
G1 X-11.089 Y0.400 Z18.420
G1 Y0.000
G1 X-10.887 Y0.000 Z18.540
G1 Y0.400
G1 X-10.685 Y0.400 Z18.657
G1 Y0.000
G1 X-10.484 Y0.000 Z18.771
G1 Y0.400
G1 X-10.282 Y0.400 Z18.882
G1 Y0.000
G1 X-10.081 Y0.000 Z18.990
G1 Y0.400
G1 X-9.879 Y0.400 Z19.096
G1 Y0.000
G1 X-9.677 Y0.000 Z19.199
G1 Y0.400
G1 X-9.476 Y0.400 Z19.299
G1 Y0.000
G1 X-9.274 Y0.000 Z19.397
G1 Y0.400
G1 X-9.073 Y0.400 Z19.492
G1 Y0.000
G1 X-8.871 Y0.000 Z19.585
G1 Y0.400
G1 X-8.669 Y0.400 Z19.675
G1 Y0.000
G1 X-8.468 Y0.000 Z19.762
G1 Y0.400
G1 X-8.266 Y0.400 Z19.847
G1 Y0.000
G1 X-8.065 Y0.000 Z19.930
G1 Y0.400
G1 X-7.863 Y0.400 Z20.011
G1 Y0.000
G1 X-7.661 Y0.000 Z20.089
G1 Y0.400
G1 X-7.460 Y0.400 Z20.164
G1 Y0.000
G1 X-7.258 Y0.000 Z20.238
G1 Y0.400
G1 X-7.056 Y0.400 Z20.309
G1 Y0.000
G1 X-6.855 Y0.000 Z20.378
G1 Y0.400
G1 X-6.653 Y0.400 Z20.445
G1 Y0.000
G1 X-6.452 Y0.000 Z20.509
G1 Y0.400
G1 X-6.250 Y0.400 Z20.572
G1 Y0.000
G1 X-6.048 Y0.000 Z20.632
G1 Y0.400
G1 X-5.847 Y0.400 Z20.690
G1 Y0.000
G1 X-5.645 Y0.000 Z20.746
G1 Y0.400
G1 X-5.444 Y0.400 Z20.799
G1 Y0.000
G1 X-5.242 Y0.000 Z20.851
G1 Y0.400
G1 X-5.040 Y0.400 Z20.901
G1 Y0.000
G1 X-4.839 Y0.000 Z20.948
G1 Y0.400
G1 X-4.637 Y0.400 Z20.994
G1 Y0.000
G1 X-4.435 Y0.000 Z21.038
G1 Y0.400
G1 X-4.234 Y0.400 Z21.079
G1 Y0.000
G1 X-4.032 Y0.000 Z21.118
G1 Y0.400
G1 X-3.831 Y0.400 Z21.156
G1 Y0.000
G1 X-3.629 Y0.000 Z21.192
G1 Y0.400
G1 X-3.427 Y0.400 Z21.225
G1 Y0.000
G1 X-3.226 Y0.000 Z21.257
G1 Y0.400
G1 X-3.024 Y0.400 Z21.286
G1 Y0.000
G1 X-2.823 Y0.000 Z21.314
G1 Y0.400
G1 X-2.621 Y0.400 Z21.340
G1 Y0.000
G1 X-2.419 Y0.000 Z21.363
G1 Y0.400
G1 X-2.218 Y0.400 Z21.385
G1 Y0.000
G1 X-2.016 Y0.000 Z21.405
G1 Y0.400
G1 X-1.815 Y0.400 Z21.423
G1 Y0.000
G1 X-1.613 Y0.000 Z21.439
G1 Y0.400
G1 X-1.411 Y0.400 Z21.454
G1 Y0.000
G1 X-1.210 Y0.000 Z21.466
G1 Y0.400
G1 X-1.008 Y0.400 Z21.476
G1 Y0.000
G1 X-0.806 Y0.000 Z21.485
G1 Y0.400
G1 X-0.605 Y0.400 Z21.491
G1 Y0.000
G1 X-0.403 Y0.000 Z21.496
G1 Y0.400
G1 X-0.202 Y0.400 Z21.499
G1 Y0.000
G1 X0.000 Y0.000 Z21.500
G1 Y0.400


; ====== Layer 6: Z = -0.6 ======
; R = 21.4, X = [-12.50, 12.50]
; Path: Center -> Right -> Center -> Left -> Center (with Y scanning)

; Pass 1: Center -> Right with Y zigzag scan
G1 X0.000 Y0.000 Z21.400
G1 Y0.400
G1 X0.202 Y0.400 Z21.399
G1 Y0.000
G1 X0.403 Y0.000 Z21.396
G1 Y0.400
G1 X0.605 Y0.400 Z21.391
G1 Y0.000
G1 X0.806 Y0.000 Z21.385
G1 Y0.400
G1 X1.008 Y0.400 Z21.376
G1 Y0.000
G1 X1.210 Y0.000 Z21.366
G1 Y0.400
G1 X1.411 Y0.400 Z21.353
G1 Y0.000
G1 X1.613 Y0.000 Z21.339
G1 Y0.400
G1 X1.815 Y0.400 Z21.323
G1 Y0.000
G1 X2.016 Y0.000 Z21.305
G1 Y0.400
G1 X2.218 Y0.400 Z21.285
G1 Y0.000
G1 X2.419 Y0.000 Z21.263
G1 Y0.400
G1 X2.621 Y0.400 Z21.239
G1 Y0.000
G1 X2.823 Y0.000 Z21.213
G1 Y0.400
G1 X3.024 Y0.400 Z21.185
G1 Y0.000
G1 X3.226 Y0.000 Z21.155
G1 Y0.400
G1 X3.427 Y0.400 Z21.124
G1 Y0.000
G1 X3.629 Y0.000 Z21.090
G1 Y0.400
G1 X3.831 Y0.400 Z21.054
G1 Y0.000
G1 X4.032 Y0.000 Z21.017
G1 Y0.400
G1 X4.234 Y0.400 Z20.977
G1 Y0.000
G1 X4.435 Y0.000 Z20.935
G1 Y0.400
G1 X4.637 Y0.400 Z20.892
G1 Y0.000
G1 X4.839 Y0.000 Z20.846
G1 Y0.400
G1 X5.040 Y0.400 Z20.798
G1 Y0.000
G1 X5.242 Y0.000 Z20.748
G1 Y0.400
G1 X5.444 Y0.400 Z20.696
G1 Y0.000
G1 X5.645 Y0.000 Z20.642
G1 Y0.400
G1 X5.847 Y0.400 Z20.586
G1 Y0.000
G1 X6.048 Y0.000 Z20.527
G1 Y0.400
G1 X6.250 Y0.400 Z20.467
G1 Y0.000
G1 X6.452 Y0.000 Z20.404
G1 Y0.400
G1 X6.653 Y0.400 Z20.339
G1 Y0.000
G1 X6.855 Y0.000 Z20.272
G1 Y0.400
G1 X7.056 Y0.400 Z20.203
G1 Y0.000
G1 X7.258 Y0.000 Z20.132
G1 Y0.400
G1 X7.460 Y0.400 Z20.058
G1 Y0.000
G1 X7.661 Y0.000 Z19.982
G1 Y0.400
G1 X7.863 Y0.400 Z19.903
G1 Y0.000
G1 X8.065 Y0.000 Z19.822
G1 Y0.400
G1 X8.266 Y0.400 Z19.739
G1 Y0.000
G1 X8.468 Y0.000 Z19.653
G1 Y0.400
G1 X8.669 Y0.400 Z19.565
G1 Y0.000
G1 X8.871 Y0.000 Z19.475
G1 Y0.400
G1 X9.073 Y0.400 Z19.382
G1 Y0.000
G1 X9.274 Y0.000 Z19.286
G1 Y0.400
G1 X9.476 Y0.400 Z19.188
G1 Y0.000
G1 X9.677 Y0.000 Z19.087
G1 Y0.400
G1 X9.879 Y0.400 Z18.983
G1 Y0.000
G1 X10.081 Y0.000 Z18.877
G1 Y0.400
G1 X10.282 Y0.400 Z18.768
G1 Y0.000
G1 X10.484 Y0.000 Z18.656
G1 Y0.400
G1 X10.685 Y0.400 Z18.541
G1 Y0.000
G1 X10.887 Y0.000 Z18.424
G1 Y0.400
G1 X11.089 Y0.400 Z18.303
G1 Y0.000
G1 X11.290 Y0.000 Z18.179
G1 Y0.400
G1 X11.492 Y0.400 Z18.053
G1 Y0.000
G1 X11.694 Y0.000 Z17.923
G1 Y0.400
G1 X11.895 Y0.400 Z17.789
G1 Y0.000
G1 X12.097 Y0.000 Z17.653
G1 Y0.400
G1 X12.298 Y0.400 Z17.513
G1 Y0.000
G1 X12.500 Y0.000 Z17.370
G1 Y0.400

; Pass 2: Right -> Center with Y zigzag scan
G1 X12.500 Y0.000 Z17.370
G1 Y0.400
G1 X12.298 Y0.400 Z17.513
G1 Y0.000
G1 X12.097 Y0.000 Z17.653
G1 Y0.400
G1 X11.895 Y0.400 Z17.789
G1 Y0.000
G1 X11.694 Y0.000 Z17.923
G1 Y0.400
G1 X11.492 Y0.400 Z18.053
G1 Y0.000
G1 X11.290 Y0.000 Z18.179
G1 Y0.400
G1 X11.089 Y0.400 Z18.303
G1 Y0.000
G1 X10.887 Y0.000 Z18.424
G1 Y0.400
G1 X10.685 Y0.400 Z18.541
G1 Y0.000
G1 X10.484 Y0.000 Z18.656
G1 Y0.400
G1 X10.282 Y0.400 Z18.768
G1 Y0.000
G1 X10.081 Y0.000 Z18.877
G1 Y0.400
G1 X9.879 Y0.400 Z18.983
G1 Y0.000
G1 X9.677 Y0.000 Z19.087
G1 Y0.400
G1 X9.476 Y0.400 Z19.188
G1 Y0.000
G1 X9.274 Y0.000 Z19.286
G1 Y0.400
G1 X9.073 Y0.400 Z19.382
G1 Y0.000
G1 X8.871 Y0.000 Z19.475
G1 Y0.400
G1 X8.669 Y0.400 Z19.565
G1 Y0.000
G1 X8.468 Y0.000 Z19.653
G1 Y0.400
G1 X8.266 Y0.400 Z19.739
G1 Y0.000
G1 X8.065 Y0.000 Z19.822
G1 Y0.400
G1 X7.863 Y0.400 Z19.903
G1 Y0.000
G1 X7.661 Y0.000 Z19.982
G1 Y0.400
G1 X7.460 Y0.400 Z20.058
G1 Y0.000
G1 X7.258 Y0.000 Z20.132
G1 Y0.400
G1 X7.056 Y0.400 Z20.203
G1 Y0.000
G1 X6.855 Y0.000 Z20.272
G1 Y0.400
G1 X6.653 Y0.400 Z20.339
G1 Y0.000
G1 X6.452 Y0.000 Z20.404
G1 Y0.400
G1 X6.250 Y0.400 Z20.467
G1 Y0.000
G1 X6.048 Y0.000 Z20.527
G1 Y0.400
G1 X5.847 Y0.400 Z20.586
G1 Y0.000
G1 X5.645 Y0.000 Z20.642
G1 Y0.400
G1 X5.444 Y0.400 Z20.696
G1 Y0.000
G1 X5.242 Y0.000 Z20.748
G1 Y0.400
G1 X5.040 Y0.400 Z20.798
G1 Y0.000
G1 X4.839 Y0.000 Z20.846
G1 Y0.400
G1 X4.637 Y0.400 Z20.892
G1 Y0.000
G1 X4.435 Y0.000 Z20.935
G1 Y0.400
G1 X4.234 Y0.400 Z20.977
G1 Y0.000
G1 X4.032 Y0.000 Z21.017
G1 Y0.400
G1 X3.831 Y0.400 Z21.054
G1 Y0.000
G1 X3.629 Y0.000 Z21.090
G1 Y0.400
G1 X3.427 Y0.400 Z21.124
G1 Y0.000
G1 X3.226 Y0.000 Z21.155
G1 Y0.400
G1 X3.024 Y0.400 Z21.185
G1 Y0.000
G1 X2.823 Y0.000 Z21.213
G1 Y0.400
G1 X2.621 Y0.400 Z21.239
G1 Y0.000
G1 X2.419 Y0.000 Z21.263
G1 Y0.400
G1 X2.218 Y0.400 Z21.285
G1 Y0.000
G1 X2.016 Y0.000 Z21.305
G1 Y0.400
G1 X1.815 Y0.400 Z21.323
G1 Y0.000
G1 X1.613 Y0.000 Z21.339
G1 Y0.400
G1 X1.411 Y0.400 Z21.353
G1 Y0.000
G1 X1.210 Y0.000 Z21.366
G1 Y0.400
G1 X1.008 Y0.400 Z21.376
G1 Y0.000
G1 X0.806 Y0.000 Z21.385
G1 Y0.400
G1 X0.605 Y0.400 Z21.391
G1 Y0.000
G1 X0.403 Y0.000 Z21.396
G1 Y0.400
G1 X0.202 Y0.400 Z21.399
G1 Y0.000
G1 X0.000 Y0.000 Z21.400
G1 Y0.400

; Pass 3: Center -> Left with Y zigzag scan
G1 X0.000 Y0.000 Z21.400
G1 Y0.400
G1 X-0.202 Y0.400 Z21.399
G1 Y0.000
G1 X-0.403 Y0.000 Z21.396
G1 Y0.400
G1 X-0.605 Y0.400 Z21.391
G1 Y0.000
G1 X-0.806 Y0.000 Z21.385
G1 Y0.400
G1 X-1.008 Y0.400 Z21.376
G1 Y0.000
G1 X-1.210 Y0.000 Z21.366
G1 Y0.400
G1 X-1.411 Y0.400 Z21.353
G1 Y0.000
G1 X-1.613 Y0.000 Z21.339
G1 Y0.400
G1 X-1.815 Y0.400 Z21.323
G1 Y0.000
G1 X-2.016 Y0.000 Z21.305
G1 Y0.400
G1 X-2.218 Y0.400 Z21.285
G1 Y0.000
G1 X-2.419 Y0.000 Z21.263
G1 Y0.400
G1 X-2.621 Y0.400 Z21.239
G1 Y0.000
G1 X-2.823 Y0.000 Z21.213
G1 Y0.400
G1 X-3.024 Y0.400 Z21.185
G1 Y0.000
G1 X-3.226 Y0.000 Z21.155
G1 Y0.400
G1 X-3.427 Y0.400 Z21.124
G1 Y0.000
G1 X-3.629 Y0.000 Z21.090
G1 Y0.400
G1 X-3.831 Y0.400 Z21.054
G1 Y0.000
G1 X-4.032 Y0.000 Z21.017
G1 Y0.400
G1 X-4.234 Y0.400 Z20.977
G1 Y0.000
G1 X-4.435 Y0.000 Z20.935
G1 Y0.400
G1 X-4.637 Y0.400 Z20.892
G1 Y0.000
G1 X-4.839 Y0.000 Z20.846
G1 Y0.400
G1 X-5.040 Y0.400 Z20.798
G1 Y0.000
G1 X-5.242 Y0.000 Z20.748
G1 Y0.400
G1 X-5.444 Y0.400 Z20.696
G1 Y0.000
G1 X-5.645 Y0.000 Z20.642
G1 Y0.400
G1 X-5.847 Y0.400 Z20.586
G1 Y0.000
G1 X-6.048 Y0.000 Z20.527
G1 Y0.400
G1 X-6.250 Y0.400 Z20.467
G1 Y0.000
G1 X-6.452 Y0.000 Z20.404
G1 Y0.400
G1 X-6.653 Y0.400 Z20.339
G1 Y0.000
G1 X-6.855 Y0.000 Z20.272
G1 Y0.400
G1 X-7.056 Y0.400 Z20.203
G1 Y0.000
G1 X-7.258 Y0.000 Z20.132
G1 Y0.400
G1 X-7.460 Y0.400 Z20.058
G1 Y0.000
G1 X-7.661 Y0.000 Z19.982
G1 Y0.400
G1 X-7.863 Y0.400 Z19.903
G1 Y0.000
G1 X-8.065 Y0.000 Z19.822
G1 Y0.400
G1 X-8.266 Y0.400 Z19.739
G1 Y0.000
G1 X-8.468 Y0.000 Z19.653
G1 Y0.400
G1 X-8.669 Y0.400 Z19.565
G1 Y0.000
G1 X-8.871 Y0.000 Z19.475
G1 Y0.400
G1 X-9.073 Y0.400 Z19.382
G1 Y0.000
G1 X-9.274 Y0.000 Z19.286
G1 Y0.400
G1 X-9.476 Y0.400 Z19.188
G1 Y0.000
G1 X-9.677 Y0.000 Z19.087
G1 Y0.400
G1 X-9.879 Y0.400 Z18.983
G1 Y0.000
G1 X-10.081 Y0.000 Z18.877
G1 Y0.400
G1 X-10.282 Y0.400 Z18.768
G1 Y0.000
G1 X-10.484 Y0.000 Z18.656
G1 Y0.400
G1 X-10.685 Y0.400 Z18.541
G1 Y0.000
G1 X-10.887 Y0.000 Z18.424
G1 Y0.400
G1 X-11.089 Y0.400 Z18.303
G1 Y0.000
G1 X-11.290 Y0.000 Z18.179
G1 Y0.400
G1 X-11.492 Y0.400 Z18.053
G1 Y0.000
G1 X-11.694 Y0.000 Z17.923
G1 Y0.400
G1 X-11.895 Y0.400 Z17.789
G1 Y0.000
G1 X-12.097 Y0.000 Z17.653
G1 Y0.400
G1 X-12.298 Y0.400 Z17.513
G1 Y0.000
G1 X-12.500 Y0.000 Z17.370
G1 Y0.400

; Pass 4: Left -> Center with Y zigzag scan
G1 X-12.500 Y0.000 Z17.370
G1 Y0.400
G1 X-12.298 Y0.400 Z17.513
G1 Y0.000
G1 X-12.097 Y0.000 Z17.653
G1 Y0.400
G1 X-11.895 Y0.400 Z17.789
G1 Y0.000
G1 X-11.694 Y0.000 Z17.923
G1 Y0.400
G1 X-11.492 Y0.400 Z18.053
G1 Y0.000
G1 X-11.290 Y0.000 Z18.179
G1 Y0.400
G1 X-11.089 Y0.400 Z18.303
G1 Y0.000
G1 X-10.887 Y0.000 Z18.424
G1 Y0.400
G1 X-10.685 Y0.400 Z18.541
G1 Y0.000
G1 X-10.484 Y0.000 Z18.656
G1 Y0.400
G1 X-10.282 Y0.400 Z18.768
G1 Y0.000
G1 X-10.081 Y0.000 Z18.877
G1 Y0.400
G1 X-9.879 Y0.400 Z18.983
G1 Y0.000
G1 X-9.677 Y0.000 Z19.087
G1 Y0.400
G1 X-9.476 Y0.400 Z19.188
G1 Y0.000
G1 X-9.274 Y0.000 Z19.286
G1 Y0.400
G1 X-9.073 Y0.400 Z19.382
G1 Y0.000
G1 X-8.871 Y0.000 Z19.475
G1 Y0.400
G1 X-8.669 Y0.400 Z19.565
G1 Y0.000
G1 X-8.468 Y0.000 Z19.653
G1 Y0.400
G1 X-8.266 Y0.400 Z19.739
G1 Y0.000
G1 X-8.065 Y0.000 Z19.822
G1 Y0.400
G1 X-7.863 Y0.400 Z19.903
G1 Y0.000
G1 X-7.661 Y0.000 Z19.982
G1 Y0.400
G1 X-7.460 Y0.400 Z20.058
G1 Y0.000
G1 X-7.258 Y0.000 Z20.132
G1 Y0.400
G1 X-7.056 Y0.400 Z20.203
G1 Y0.000
G1 X-6.855 Y0.000 Z20.272
G1 Y0.400
G1 X-6.653 Y0.400 Z20.339
G1 Y0.000
G1 X-6.452 Y0.000 Z20.404
G1 Y0.400
G1 X-6.250 Y0.400 Z20.467
G1 Y0.000
G1 X-6.048 Y0.000 Z20.527
G1 Y0.400
G1 X-5.847 Y0.400 Z20.586
G1 Y0.000
G1 X-5.645 Y0.000 Z20.642
G1 Y0.400
G1 X-5.444 Y0.400 Z20.696
G1 Y0.000
G1 X-5.242 Y0.000 Z20.748
G1 Y0.400
G1 X-5.040 Y0.400 Z20.798
G1 Y0.000
G1 X-4.839 Y0.000 Z20.846
G1 Y0.400
G1 X-4.637 Y0.400 Z20.892
G1 Y0.000
G1 X-4.435 Y0.000 Z20.935
G1 Y0.400
G1 X-4.234 Y0.400 Z20.977
G1 Y0.000
G1 X-4.032 Y0.000 Z21.017
G1 Y0.400
G1 X-3.831 Y0.400 Z21.054
G1 Y0.000
G1 X-3.629 Y0.000 Z21.090
G1 Y0.400
G1 X-3.427 Y0.400 Z21.124
G1 Y0.000
G1 X-3.226 Y0.000 Z21.155
G1 Y0.400
G1 X-3.024 Y0.400 Z21.185
G1 Y0.000
G1 X-2.823 Y0.000 Z21.213
G1 Y0.400
G1 X-2.621 Y0.400 Z21.239
G1 Y0.000
G1 X-2.419 Y0.000 Z21.263
G1 Y0.400
G1 X-2.218 Y0.400 Z21.285
G1 Y0.000
G1 X-2.016 Y0.000 Z21.305
G1 Y0.400
G1 X-1.815 Y0.400 Z21.323
G1 Y0.000
G1 X-1.613 Y0.000 Z21.339
G1 Y0.400
G1 X-1.411 Y0.400 Z21.353
G1 Y0.000
G1 X-1.210 Y0.000 Z21.366
G1 Y0.400
G1 X-1.008 Y0.400 Z21.376
G1 Y0.000
G1 X-0.806 Y0.000 Z21.385
G1 Y0.400
G1 X-0.605 Y0.400 Z21.391
G1 Y0.000
G1 X-0.403 Y0.000 Z21.396
G1 Y0.400
G1 X-0.202 Y0.400 Z21.399
G1 Y0.000
G1 X0.000 Y0.000 Z21.400
G1 Y0.400


; ====== Layer 7: Z = -0.7 ======
; R = 21.3, X = [-12.50, 12.50]
; Path: Center -> Right -> Center -> Left -> Center (with Y scanning)

; Pass 1: Center -> Right with Y zigzag scan
G1 X0.000 Y0.000 Z21.300
G1 Y0.400
G1 X0.202 Y0.400 Z21.299
G1 Y0.000
G1 X0.403 Y0.000 Z21.296
G1 Y0.400
G1 X0.605 Y0.400 Z21.291
G1 Y0.000
G1 X0.806 Y0.000 Z21.285
G1 Y0.400
G1 X1.008 Y0.400 Z21.276
G1 Y0.000
G1 X1.210 Y0.000 Z21.266
G1 Y0.400
G1 X1.411 Y0.400 Z21.253
G1 Y0.000
G1 X1.613 Y0.000 Z21.239
G1 Y0.400
G1 X1.815 Y0.400 Z21.223
G1 Y0.000
G1 X2.016 Y0.000 Z21.204
G1 Y0.400
G1 X2.218 Y0.400 Z21.184
G1 Y0.000
G1 X2.419 Y0.000 Z21.162
G1 Y0.400
G1 X2.621 Y0.400 Z21.138
G1 Y0.000
G1 X2.823 Y0.000 Z21.112
G1 Y0.400
G1 X3.024 Y0.400 Z21.084
G1 Y0.000
G1 X3.226 Y0.000 Z21.054
G1 Y0.400
G1 X3.427 Y0.400 Z21.022
G1 Y0.000
G1 X3.629 Y0.000 Z20.989
G1 Y0.400
G1 X3.831 Y0.400 Z20.953
G1 Y0.000
G1 X4.032 Y0.000 Z20.915
G1 Y0.400
G1 X4.234 Y0.400 Z20.875
G1 Y0.000
G1 X4.435 Y0.000 Z20.833
G1 Y0.400
G1 X4.637 Y0.400 Z20.789
G1 Y0.000
G1 X4.839 Y0.000 Z20.743
G1 Y0.400
G1 X5.040 Y0.400 Z20.695
G1 Y0.000
G1 X5.242 Y0.000 Z20.645
G1 Y0.400
G1 X5.444 Y0.400 Z20.593
G1 Y0.000
G1 X5.645 Y0.000 Z20.538
G1 Y0.400
G1 X5.847 Y0.400 Z20.482
G1 Y0.000
G1 X6.048 Y0.000 Z20.423
G1 Y0.400
G1 X6.250 Y0.400 Z20.362
G1 Y0.000
G1 X6.452 Y0.000 Z20.299
G1 Y0.400
G1 X6.653 Y0.400 Z20.234
G1 Y0.000
G1 X6.855 Y0.000 Z20.167
G1 Y0.400
G1 X7.056 Y0.400 Z20.097
G1 Y0.000
G1 X7.258 Y0.000 Z20.025
G1 Y0.400
G1 X7.460 Y0.400 Z19.951
G1 Y0.000
G1 X7.661 Y0.000 Z19.874
G1 Y0.400
G1 X7.863 Y0.400 Z19.796
G1 Y0.000
G1 X8.065 Y0.000 Z19.714
G1 Y0.400
G1 X8.266 Y0.400 Z19.631
G1 Y0.000
G1 X8.468 Y0.000 Z19.544
G1 Y0.400
G1 X8.669 Y0.400 Z19.456
G1 Y0.000
G1 X8.871 Y0.000 Z19.365
G1 Y0.400
G1 X9.073 Y0.400 Z19.271
G1 Y0.000
G1 X9.274 Y0.000 Z19.175
G1 Y0.400
G1 X9.476 Y0.400 Z19.076
G1 Y0.000
G1 X9.677 Y0.000 Z18.975
G1 Y0.400
G1 X9.879 Y0.400 Z18.870
G1 Y0.000
G1 X10.081 Y0.000 Z18.764
G1 Y0.400
G1 X10.282 Y0.400 Z18.654
G1 Y0.000
G1 X10.484 Y0.000 Z18.541
G1 Y0.400
G1 X10.685 Y0.400 Z18.426
G1 Y0.000
G1 X10.887 Y0.000 Z18.307
G1 Y0.400
G1 X11.089 Y0.400 Z18.186
G1 Y0.000
G1 X11.290 Y0.000 Z18.062
G1 Y0.400
G1 X11.492 Y0.400 Z17.934
G1 Y0.000
G1 X11.694 Y0.000 Z17.803
G1 Y0.400
G1 X11.895 Y0.400 Z17.669
G1 Y0.000
G1 X12.097 Y0.000 Z17.532
G1 Y0.400
G1 X12.298 Y0.400 Z17.391
G1 Y0.000
G1 X12.500 Y0.000 Z17.246
G1 Y0.400

; Pass 2: Right -> Center with Y zigzag scan
G1 X12.500 Y0.000 Z17.246
G1 Y0.400
G1 X12.298 Y0.400 Z17.391
G1 Y0.000
G1 X12.097 Y0.000 Z17.532
G1 Y0.400
G1 X11.895 Y0.400 Z17.669
G1 Y0.000
G1 X11.694 Y0.000 Z17.803
G1 Y0.400
G1 X11.492 Y0.400 Z17.934
G1 Y0.000
G1 X11.290 Y0.000 Z18.062
G1 Y0.400
G1 X11.089 Y0.400 Z18.186
G1 Y0.000
G1 X10.887 Y0.000 Z18.307
G1 Y0.400
G1 X10.685 Y0.400 Z18.426
G1 Y0.000
G1 X10.484 Y0.000 Z18.541
G1 Y0.400
G1 X10.282 Y0.400 Z18.654
G1 Y0.000
G1 X10.081 Y0.000 Z18.764
G1 Y0.400
G1 X9.879 Y0.400 Z18.870
G1 Y0.000
G1 X9.677 Y0.000 Z18.975
G1 Y0.400
G1 X9.476 Y0.400 Z19.076
G1 Y0.000
G1 X9.274 Y0.000 Z19.175
G1 Y0.400
G1 X9.073 Y0.400 Z19.271
G1 Y0.000
G1 X8.871 Y0.000 Z19.365
G1 Y0.400
G1 X8.669 Y0.400 Z19.456
G1 Y0.000
G1 X8.468 Y0.000 Z19.544
G1 Y0.400
G1 X8.266 Y0.400 Z19.631
G1 Y0.000
G1 X8.065 Y0.000 Z19.714
G1 Y0.400
G1 X7.863 Y0.400 Z19.796
G1 Y0.000
G1 X7.661 Y0.000 Z19.874
G1 Y0.400
G1 X7.460 Y0.400 Z19.951
G1 Y0.000
G1 X7.258 Y0.000 Z20.025
G1 Y0.400
G1 X7.056 Y0.400 Z20.097
G1 Y0.000
G1 X6.855 Y0.000 Z20.167
G1 Y0.400
G1 X6.653 Y0.400 Z20.234
G1 Y0.000
G1 X6.452 Y0.000 Z20.299
G1 Y0.400
G1 X6.250 Y0.400 Z20.362
G1 Y0.000
G1 X6.048 Y0.000 Z20.423
G1 Y0.400
G1 X5.847 Y0.400 Z20.482
G1 Y0.000
G1 X5.645 Y0.000 Z20.538
G1 Y0.400
G1 X5.444 Y0.400 Z20.593
G1 Y0.000
G1 X5.242 Y0.000 Z20.645
G1 Y0.400
G1 X5.040 Y0.400 Z20.695
G1 Y0.000
G1 X4.839 Y0.000 Z20.743
G1 Y0.400
G1 X4.637 Y0.400 Z20.789
G1 Y0.000
G1 X4.435 Y0.000 Z20.833
G1 Y0.400
G1 X4.234 Y0.400 Z20.875
G1 Y0.000
G1 X4.032 Y0.000 Z20.915
G1 Y0.400
G1 X3.831 Y0.400 Z20.953
G1 Y0.000
G1 X3.629 Y0.000 Z20.989
G1 Y0.400
G1 X3.427 Y0.400 Z21.022
G1 Y0.000
G1 X3.226 Y0.000 Z21.054
G1 Y0.400
G1 X3.024 Y0.400 Z21.084
G1 Y0.000
G1 X2.823 Y0.000 Z21.112
G1 Y0.400
G1 X2.621 Y0.400 Z21.138
G1 Y0.000
G1 X2.419 Y0.000 Z21.162
G1 Y0.400
G1 X2.218 Y0.400 Z21.184
G1 Y0.000
G1 X2.016 Y0.000 Z21.204
G1 Y0.400
G1 X1.815 Y0.400 Z21.223
G1 Y0.000
G1 X1.613 Y0.000 Z21.239
G1 Y0.400
G1 X1.411 Y0.400 Z21.253
G1 Y0.000
G1 X1.210 Y0.000 Z21.266
G1 Y0.400
G1 X1.008 Y0.400 Z21.276
G1 Y0.000
G1 X0.806 Y0.000 Z21.285
G1 Y0.400
G1 X0.605 Y0.400 Z21.291
G1 Y0.000
G1 X0.403 Y0.000 Z21.296
G1 Y0.400
G1 X0.202 Y0.400 Z21.299
G1 Y0.000
G1 X0.000 Y0.000 Z21.300
G1 Y0.400

; Pass 3: Center -> Left with Y zigzag scan
G1 X0.000 Y0.000 Z21.300
G1 Y0.400
G1 X-0.202 Y0.400 Z21.299
G1 Y0.000
G1 X-0.403 Y0.000 Z21.296
G1 Y0.400
G1 X-0.605 Y0.400 Z21.291
G1 Y0.000
G1 X-0.806 Y0.000 Z21.285
G1 Y0.400
G1 X-1.008 Y0.400 Z21.276
G1 Y0.000
G1 X-1.210 Y0.000 Z21.266
G1 Y0.400
G1 X-1.411 Y0.400 Z21.253
G1 Y0.000
G1 X-1.613 Y0.000 Z21.239
G1 Y0.400
G1 X-1.815 Y0.400 Z21.223
G1 Y0.000
G1 X-2.016 Y0.000 Z21.204
G1 Y0.400
G1 X-2.218 Y0.400 Z21.184
G1 Y0.000
G1 X-2.419 Y0.000 Z21.162
G1 Y0.400
G1 X-2.621 Y0.400 Z21.138
G1 Y0.000
G1 X-2.823 Y0.000 Z21.112
G1 Y0.400
G1 X-3.024 Y0.400 Z21.084
G1 Y0.000
G1 X-3.226 Y0.000 Z21.054
G1 Y0.400
G1 X-3.427 Y0.400 Z21.022
G1 Y0.000
G1 X-3.629 Y0.000 Z20.989
G1 Y0.400
G1 X-3.831 Y0.400 Z20.953
G1 Y0.000
G1 X-4.032 Y0.000 Z20.915
G1 Y0.400
G1 X-4.234 Y0.400 Z20.875
G1 Y0.000
G1 X-4.435 Y0.000 Z20.833
G1 Y0.400
G1 X-4.637 Y0.400 Z20.789
G1 Y0.000
G1 X-4.839 Y0.000 Z20.743
G1 Y0.400
G1 X-5.040 Y0.400 Z20.695
G1 Y0.000
G1 X-5.242 Y0.000 Z20.645
G1 Y0.400
G1 X-5.444 Y0.400 Z20.593
G1 Y0.000
G1 X-5.645 Y0.000 Z20.538
G1 Y0.400
G1 X-5.847 Y0.400 Z20.482
G1 Y0.000
G1 X-6.048 Y0.000 Z20.423
G1 Y0.400
G1 X-6.250 Y0.400 Z20.362
G1 Y0.000
G1 X-6.452 Y0.000 Z20.299
G1 Y0.400
G1 X-6.653 Y0.400 Z20.234
G1 Y0.000
G1 X-6.855 Y0.000 Z20.167
G1 Y0.400
G1 X-7.056 Y0.400 Z20.097
G1 Y0.000
G1 X-7.258 Y0.000 Z20.025
G1 Y0.400
G1 X-7.460 Y0.400 Z19.951
G1 Y0.000
G1 X-7.661 Y0.000 Z19.874
G1 Y0.400
G1 X-7.863 Y0.400 Z19.796
G1 Y0.000
G1 X-8.065 Y0.000 Z19.714
G1 Y0.400
G1 X-8.266 Y0.400 Z19.631
G1 Y0.000
G1 X-8.468 Y0.000 Z19.544
G1 Y0.400
G1 X-8.669 Y0.400 Z19.456
G1 Y0.000
G1 X-8.871 Y0.000 Z19.365
G1 Y0.400
G1 X-9.073 Y0.400 Z19.271
G1 Y0.000
G1 X-9.274 Y0.000 Z19.175
G1 Y0.400
G1 X-9.476 Y0.400 Z19.076
G1 Y0.000
G1 X-9.677 Y0.000 Z18.975
G1 Y0.400
G1 X-9.879 Y0.400 Z18.870
G1 Y0.000
G1 X-10.081 Y0.000 Z18.764
G1 Y0.400
G1 X-10.282 Y0.400 Z18.654
G1 Y0.000
G1 X-10.484 Y0.000 Z18.541
G1 Y0.400
G1 X-10.685 Y0.400 Z18.426
G1 Y0.000
G1 X-10.887 Y0.000 Z18.307
G1 Y0.400
G1 X-11.089 Y0.400 Z18.186
G1 Y0.000
G1 X-11.290 Y0.000 Z18.062
G1 Y0.400
G1 X-11.492 Y0.400 Z17.934
G1 Y0.000
G1 X-11.694 Y0.000 Z17.803
G1 Y0.400
G1 X-11.895 Y0.400 Z17.669
G1 Y0.000
G1 X-12.097 Y0.000 Z17.532
G1 Y0.400
G1 X-12.298 Y0.400 Z17.391
G1 Y0.000
G1 X-12.500 Y0.000 Z17.246
G1 Y0.400

; Pass 4: Left -> Center with Y zigzag scan
G1 X-12.500 Y0.000 Z17.246
G1 Y0.400
G1 X-12.298 Y0.400 Z17.391
G1 Y0.000
G1 X-12.097 Y0.000 Z17.532
G1 Y0.400
G1 X-11.895 Y0.400 Z17.669
G1 Y0.000
G1 X-11.694 Y0.000 Z17.803
G1 Y0.400
G1 X-11.492 Y0.400 Z17.934
G1 Y0.000
G1 X-11.290 Y0.000 Z18.062
G1 Y0.400
G1 X-11.089 Y0.400 Z18.186
G1 Y0.000
G1 X-10.887 Y0.000 Z18.307
G1 Y0.400
G1 X-10.685 Y0.400 Z18.426
G1 Y0.000
G1 X-10.484 Y0.000 Z18.541
G1 Y0.400
G1 X-10.282 Y0.400 Z18.654
G1 Y0.000
G1 X-10.081 Y0.000 Z18.764
G1 Y0.400
G1 X-9.879 Y0.400 Z18.870
G1 Y0.000
G1 X-9.677 Y0.000 Z18.975
G1 Y0.400
G1 X-9.476 Y0.400 Z19.076
G1 Y0.000
G1 X-9.274 Y0.000 Z19.175
G1 Y0.400
G1 X-9.073 Y0.400 Z19.271
G1 Y0.000
G1 X-8.871 Y0.000 Z19.365
G1 Y0.400
G1 X-8.669 Y0.400 Z19.456
G1 Y0.000
G1 X-8.468 Y0.000 Z19.544
G1 Y0.400
G1 X-8.266 Y0.400 Z19.631
G1 Y0.000
G1 X-8.065 Y0.000 Z19.714
G1 Y0.400
G1 X-7.863 Y0.400 Z19.796
G1 Y0.000
G1 X-7.661 Y0.000 Z19.874
G1 Y0.400
G1 X-7.460 Y0.400 Z19.951
G1 Y0.000
G1 X-7.258 Y0.000 Z20.025
G1 Y0.400
G1 X-7.056 Y0.400 Z20.097
G1 Y0.000
G1 X-6.855 Y0.000 Z20.167
G1 Y0.400
G1 X-6.653 Y0.400 Z20.234
G1 Y0.000
G1 X-6.452 Y0.000 Z20.299
G1 Y0.400
G1 X-6.250 Y0.400 Z20.362
G1 Y0.000
G1 X-6.048 Y0.000 Z20.423
G1 Y0.400
G1 X-5.847 Y0.400 Z20.482
G1 Y0.000
G1 X-5.645 Y0.000 Z20.538
G1 Y0.400
G1 X-5.444 Y0.400 Z20.593
G1 Y0.000
G1 X-5.242 Y0.000 Z20.645
G1 Y0.400
G1 X-5.040 Y0.400 Z20.695
G1 Y0.000
G1 X-4.839 Y0.000 Z20.743
G1 Y0.400
G1 X-4.637 Y0.400 Z20.789
G1 Y0.000
G1 X-4.435 Y0.000 Z20.833
G1 Y0.400
G1 X-4.234 Y0.400 Z20.875
G1 Y0.000
G1 X-4.032 Y0.000 Z20.915
G1 Y0.400
G1 X-3.831 Y0.400 Z20.953
G1 Y0.000
G1 X-3.629 Y0.000 Z20.989
G1 Y0.400
G1 X-3.427 Y0.400 Z21.022
G1 Y0.000
G1 X-3.226 Y0.000 Z21.054
G1 Y0.400
G1 X-3.024 Y0.400 Z21.084
G1 Y0.000
G1 X-2.823 Y0.000 Z21.112
G1 Y0.400
G1 X-2.621 Y0.400 Z21.138
G1 Y0.000
G1 X-2.419 Y0.000 Z21.162
G1 Y0.400
G1 X-2.218 Y0.400 Z21.184
G1 Y0.000
G1 X-2.016 Y0.000 Z21.204
G1 Y0.400
G1 X-1.815 Y0.400 Z21.223
G1 Y0.000
G1 X-1.613 Y0.000 Z21.239
G1 Y0.400
G1 X-1.411 Y0.400 Z21.253
G1 Y0.000
G1 X-1.210 Y0.000 Z21.266
G1 Y0.400
G1 X-1.008 Y0.400 Z21.276
G1 Y0.000
G1 X-0.806 Y0.000 Z21.285
G1 Y0.400
G1 X-0.605 Y0.400 Z21.291
G1 Y0.000
G1 X-0.403 Y0.000 Z21.296
G1 Y0.400
G1 X-0.202 Y0.400 Z21.299
G1 Y0.000
G1 X0.000 Y0.000 Z21.300
G1 Y0.400


; ====== Layer 8: Z = -0.8 ======
; R = 21.2, X = [-12.50, 12.50]
; Path: Center -> Right -> Center -> Left -> Center (with Y scanning)

; Pass 1: Center -> Right with Y zigzag scan
G1 X0.000 Y0.000 Z21.200
G1 Y0.400
G1 X0.202 Y0.400 Z21.199
G1 Y0.000
G1 X0.403 Y0.000 Z21.196
G1 Y0.400
G1 X0.605 Y0.400 Z21.191
G1 Y0.000
G1 X0.806 Y0.000 Z21.185
G1 Y0.400
G1 X1.008 Y0.400 Z21.176
G1 Y0.000
G1 X1.210 Y0.000 Z21.165
G1 Y0.400
G1 X1.411 Y0.400 Z21.153
G1 Y0.000
G1 X1.613 Y0.000 Z21.139
G1 Y0.400
G1 X1.815 Y0.400 Z21.122
G1 Y0.000
G1 X2.016 Y0.000 Z21.104
G1 Y0.400
G1 X2.218 Y0.400 Z21.084
G1 Y0.000
G1 X2.419 Y0.000 Z21.061
G1 Y0.400
G1 X2.621 Y0.400 Z21.037
G1 Y0.000
G1 X2.823 Y0.000 Z21.011
G1 Y0.400
G1 X3.024 Y0.400 Z20.983
G1 Y0.000
G1 X3.226 Y0.000 Z20.953
G1 Y0.400
G1 X3.427 Y0.400 Z20.921
G1 Y0.000
G1 X3.629 Y0.000 Z20.887
G1 Y0.400
G1 X3.831 Y0.400 Z20.851
G1 Y0.000
G1 X4.032 Y0.000 Z20.813
G1 Y0.400
G1 X4.234 Y0.400 Z20.773
G1 Y0.000
G1 X4.435 Y0.000 Z20.731
G1 Y0.400
G1 X4.637 Y0.400 Z20.687
G1 Y0.000
G1 X4.839 Y0.000 Z20.640
G1 Y0.400
G1 X5.040 Y0.400 Z20.592
G1 Y0.000
G1 X5.242 Y0.000 Z20.542
G1 Y0.400
G1 X5.444 Y0.400 Z20.489
G1 Y0.000
G1 X5.645 Y0.000 Z20.435
G1 Y0.400
G1 X5.847 Y0.400 Z20.378
G1 Y0.000
G1 X6.048 Y0.000 Z20.319
G1 Y0.400
G1 X6.250 Y0.400 Z20.258
G1 Y0.000
G1 X6.452 Y0.000 Z20.194
G1 Y0.400
G1 X6.653 Y0.400 Z20.129
G1 Y0.000
G1 X6.855 Y0.000 Z20.061
G1 Y0.400
G1 X7.056 Y0.400 Z19.991
G1 Y0.000
G1 X7.258 Y0.000 Z19.919
G1 Y0.400
G1 X7.460 Y0.400 Z19.844
G1 Y0.000
G1 X7.661 Y0.000 Z19.767
G1 Y0.400
G1 X7.863 Y0.400 Z19.688
G1 Y0.000
G1 X8.065 Y0.000 Z19.606
G1 Y0.400
G1 X8.266 Y0.400 Z19.522
G1 Y0.000
G1 X8.468 Y0.000 Z19.435
G1 Y0.400
G1 X8.669 Y0.400 Z19.346
G1 Y0.000
G1 X8.871 Y0.000 Z19.255
G1 Y0.400
G1 X9.073 Y0.400 Z19.161
G1 Y0.000
G1 X9.274 Y0.000 Z19.064
G1 Y0.400
G1 X9.476 Y0.400 Z18.964
G1 Y0.000
G1 X9.677 Y0.000 Z18.862
G1 Y0.400
G1 X9.879 Y0.400 Z18.758
G1 Y0.000
G1 X10.081 Y0.000 Z18.650
G1 Y0.400
G1 X10.282 Y0.400 Z18.540
G1 Y0.000
G1 X10.484 Y0.000 Z18.426
G1 Y0.400
G1 X10.685 Y0.400 Z18.310
G1 Y0.000
G1 X10.887 Y0.000 Z18.191
G1 Y0.400
G1 X11.089 Y0.400 Z18.069
G1 Y0.000
G1 X11.290 Y0.000 Z17.943
G1 Y0.400
G1 X11.492 Y0.400 Z17.815
G1 Y0.000
G1 X11.694 Y0.000 Z17.683
G1 Y0.400
G1 X11.895 Y0.400 Z17.548
G1 Y0.000
G1 X12.097 Y0.000 Z17.410
G1 Y0.400
G1 X12.298 Y0.400 Z17.268
G1 Y0.000
G1 X12.500 Y0.000 Z17.123
G1 Y0.400

; Pass 2: Right -> Center with Y zigzag scan
G1 X12.500 Y0.000 Z17.123
G1 Y0.400
G1 X12.298 Y0.400 Z17.268
G1 Y0.000
G1 X12.097 Y0.000 Z17.410
G1 Y0.400
G1 X11.895 Y0.400 Z17.548
G1 Y0.000
G1 X11.694 Y0.000 Z17.683
G1 Y0.400
G1 X11.492 Y0.400 Z17.815
G1 Y0.000
G1 X11.290 Y0.000 Z17.943
G1 Y0.400
G1 X11.089 Y0.400 Z18.069
G1 Y0.000
G1 X10.887 Y0.000 Z18.191
G1 Y0.400
G1 X10.685 Y0.400 Z18.310
G1 Y0.000
G1 X10.484 Y0.000 Z18.426
G1 Y0.400
G1 X10.282 Y0.400 Z18.540
G1 Y0.000
G1 X10.081 Y0.000 Z18.650
G1 Y0.400
G1 X9.879 Y0.400 Z18.758
G1 Y0.000
G1 X9.677 Y0.000 Z18.862
G1 Y0.400
G1 X9.476 Y0.400 Z18.964
G1 Y0.000
G1 X9.274 Y0.000 Z19.064
G1 Y0.400
G1 X9.073 Y0.400 Z19.161
G1 Y0.000
G1 X8.871 Y0.000 Z19.255
G1 Y0.400
G1 X8.669 Y0.400 Z19.346
G1 Y0.000
G1 X8.468 Y0.000 Z19.435
G1 Y0.400
G1 X8.266 Y0.400 Z19.522
G1 Y0.000
G1 X8.065 Y0.000 Z19.606
G1 Y0.400
G1 X7.863 Y0.400 Z19.688
G1 Y0.000
G1 X7.661 Y0.000 Z19.767
G1 Y0.400
G1 X7.460 Y0.400 Z19.844
G1 Y0.000
G1 X7.258 Y0.000 Z19.919
G1 Y0.400
G1 X7.056 Y0.400 Z19.991
G1 Y0.000
G1 X6.855 Y0.000 Z20.061
G1 Y0.400
G1 X6.653 Y0.400 Z20.129
G1 Y0.000
G1 X6.452 Y0.000 Z20.194
G1 Y0.400
G1 X6.250 Y0.400 Z20.258
G1 Y0.000
G1 X6.048 Y0.000 Z20.319
G1 Y0.400
G1 X5.847 Y0.400 Z20.378
G1 Y0.000
G1 X5.645 Y0.000 Z20.435
G1 Y0.400
G1 X5.444 Y0.400 Z20.489
G1 Y0.000
G1 X5.242 Y0.000 Z20.542
G1 Y0.400
G1 X5.040 Y0.400 Z20.592
G1 Y0.000
G1 X4.839 Y0.000 Z20.640
G1 Y0.400
G1 X4.637 Y0.400 Z20.687
G1 Y0.000
G1 X4.435 Y0.000 Z20.731
G1 Y0.400
G1 X4.234 Y0.400 Z20.773
G1 Y0.000
G1 X4.032 Y0.000 Z20.813
G1 Y0.400
G1 X3.831 Y0.400 Z20.851
G1 Y0.000
G1 X3.629 Y0.000 Z20.887
G1 Y0.400
G1 X3.427 Y0.400 Z20.921
G1 Y0.000
G1 X3.226 Y0.000 Z20.953
G1 Y0.400
G1 X3.024 Y0.400 Z20.983
G1 Y0.000
G1 X2.823 Y0.000 Z21.011
G1 Y0.400
G1 X2.621 Y0.400 Z21.037
G1 Y0.000
G1 X2.419 Y0.000 Z21.061
G1 Y0.400
G1 X2.218 Y0.400 Z21.084
G1 Y0.000
G1 X2.016 Y0.000 Z21.104
G1 Y0.400
G1 X1.815 Y0.400 Z21.122
G1 Y0.000
G1 X1.613 Y0.000 Z21.139
G1 Y0.400
G1 X1.411 Y0.400 Z21.153
G1 Y0.000
G1 X1.210 Y0.000 Z21.165
G1 Y0.400
G1 X1.008 Y0.400 Z21.176
G1 Y0.000
G1 X0.806 Y0.000 Z21.185
G1 Y0.400
G1 X0.605 Y0.400 Z21.191
G1 Y0.000
G1 X0.403 Y0.000 Z21.196
G1 Y0.400
G1 X0.202 Y0.400 Z21.199
G1 Y0.000
G1 X0.000 Y0.000 Z21.200
G1 Y0.400

; Pass 3: Center -> Left with Y zigzag scan
G1 X0.000 Y0.000 Z21.200
G1 Y0.400
G1 X-0.202 Y0.400 Z21.199
G1 Y0.000
G1 X-0.403 Y0.000 Z21.196
G1 Y0.400
G1 X-0.605 Y0.400 Z21.191
G1 Y0.000
G1 X-0.806 Y0.000 Z21.185
G1 Y0.400
G1 X-1.008 Y0.400 Z21.176
G1 Y0.000
G1 X-1.210 Y0.000 Z21.165
G1 Y0.400
G1 X-1.411 Y0.400 Z21.153
G1 Y0.000
G1 X-1.613 Y0.000 Z21.139
G1 Y0.400
G1 X-1.815 Y0.400 Z21.122
G1 Y0.000
G1 X-2.016 Y0.000 Z21.104
G1 Y0.400
G1 X-2.218 Y0.400 Z21.084
G1 Y0.000
G1 X-2.419 Y0.000 Z21.061
G1 Y0.400
G1 X-2.621 Y0.400 Z21.037
G1 Y0.000
G1 X-2.823 Y0.000 Z21.011
G1 Y0.400
G1 X-3.024 Y0.400 Z20.983
G1 Y0.000
G1 X-3.226 Y0.000 Z20.953
G1 Y0.400
G1 X-3.427 Y0.400 Z20.921
G1 Y0.000
G1 X-3.629 Y0.000 Z20.887
G1 Y0.400
G1 X-3.831 Y0.400 Z20.851
G1 Y0.000
G1 X-4.032 Y0.000 Z20.813
G1 Y0.400
G1 X-4.234 Y0.400 Z20.773
G1 Y0.000
G1 X-4.435 Y0.000 Z20.731
G1 Y0.400
G1 X-4.637 Y0.400 Z20.687
G1 Y0.000
G1 X-4.839 Y0.000 Z20.640
G1 Y0.400
G1 X-5.040 Y0.400 Z20.592
G1 Y0.000
G1 X-5.242 Y0.000 Z20.542
G1 Y0.400
G1 X-5.444 Y0.400 Z20.489
G1 Y0.000
G1 X-5.645 Y0.000 Z20.435
G1 Y0.400
G1 X-5.847 Y0.400 Z20.378
G1 Y0.000
G1 X-6.048 Y0.000 Z20.319
G1 Y0.400
G1 X-6.250 Y0.400 Z20.258
G1 Y0.000
G1 X-6.452 Y0.000 Z20.194
G1 Y0.400
G1 X-6.653 Y0.400 Z20.129
G1 Y0.000
G1 X-6.855 Y0.000 Z20.061
G1 Y0.400
G1 X-7.056 Y0.400 Z19.991
G1 Y0.000
G1 X-7.258 Y0.000 Z19.919
G1 Y0.400
G1 X-7.460 Y0.400 Z19.844
G1 Y0.000
G1 X-7.661 Y0.000 Z19.767
G1 Y0.400
G1 X-7.863 Y0.400 Z19.688
G1 Y0.000
G1 X-8.065 Y0.000 Z19.606
G1 Y0.400
G1 X-8.266 Y0.400 Z19.522
G1 Y0.000
G1 X-8.468 Y0.000 Z19.435
G1 Y0.400
G1 X-8.669 Y0.400 Z19.346
G1 Y0.000
G1 X-8.871 Y0.000 Z19.255
G1 Y0.400
G1 X-9.073 Y0.400 Z19.161
G1 Y0.000
G1 X-9.274 Y0.000 Z19.064
G1 Y0.400
G1 X-9.476 Y0.400 Z18.964
G1 Y0.000
G1 X-9.677 Y0.000 Z18.862
G1 Y0.400
G1 X-9.879 Y0.400 Z18.758
G1 Y0.000
G1 X-10.081 Y0.000 Z18.650
G1 Y0.400
G1 X-10.282 Y0.400 Z18.540
G1 Y0.000
G1 X-10.484 Y0.000 Z18.426
G1 Y0.400
G1 X-10.685 Y0.400 Z18.310
G1 Y0.000
G1 X-10.887 Y0.000 Z18.191
G1 Y0.400
G1 X-11.089 Y0.400 Z18.069
G1 Y0.000
G1 X-11.290 Y0.000 Z17.943
G1 Y0.400
G1 X-11.492 Y0.400 Z17.815
G1 Y0.000
G1 X-11.694 Y0.000 Z17.683
G1 Y0.400
G1 X-11.895 Y0.400 Z17.548
G1 Y0.000
G1 X-12.097 Y0.000 Z17.410
G1 Y0.400
G1 X-12.298 Y0.400 Z17.268
G1 Y0.000
G1 X-12.500 Y0.000 Z17.123
G1 Y0.400

; Pass 4: Left -> Center with Y zigzag scan
G1 X-12.500 Y0.000 Z17.123
G1 Y0.400
G1 X-12.298 Y0.400 Z17.268
G1 Y0.000
G1 X-12.097 Y0.000 Z17.410
G1 Y0.400
G1 X-11.895 Y0.400 Z17.548
G1 Y0.000
G1 X-11.694 Y0.000 Z17.683
G1 Y0.400
G1 X-11.492 Y0.400 Z17.815
G1 Y0.000
G1 X-11.290 Y0.000 Z17.943
G1 Y0.400
G1 X-11.089 Y0.400 Z18.069
G1 Y0.000
G1 X-10.887 Y0.000 Z18.191
G1 Y0.400
G1 X-10.685 Y0.400 Z18.310
G1 Y0.000
G1 X-10.484 Y0.000 Z18.426
G1 Y0.400
G1 X-10.282 Y0.400 Z18.540
G1 Y0.000
G1 X-10.081 Y0.000 Z18.650
G1 Y0.400
G1 X-9.879 Y0.400 Z18.758
G1 Y0.000
G1 X-9.677 Y0.000 Z18.862
G1 Y0.400
G1 X-9.476 Y0.400 Z18.964
G1 Y0.000
G1 X-9.274 Y0.000 Z19.064
G1 Y0.400
G1 X-9.073 Y0.400 Z19.161
G1 Y0.000
G1 X-8.871 Y0.000 Z19.255
G1 Y0.400
G1 X-8.669 Y0.400 Z19.346
G1 Y0.000
G1 X-8.468 Y0.000 Z19.435
G1 Y0.400
G1 X-8.266 Y0.400 Z19.522
G1 Y0.000
G1 X-8.065 Y0.000 Z19.606
G1 Y0.400
G1 X-7.863 Y0.400 Z19.688
G1 Y0.000
G1 X-7.661 Y0.000 Z19.767
G1 Y0.400
G1 X-7.460 Y0.400 Z19.844
G1 Y0.000
G1 X-7.258 Y0.000 Z19.919
G1 Y0.400
G1 X-7.056 Y0.400 Z19.991
G1 Y0.000
G1 X-6.855 Y0.000 Z20.061
G1 Y0.400
G1 X-6.653 Y0.400 Z20.129
G1 Y0.000
G1 X-6.452 Y0.000 Z20.194
G1 Y0.400
G1 X-6.250 Y0.400 Z20.258
G1 Y0.000
G1 X-6.048 Y0.000 Z20.319
G1 Y0.400
G1 X-5.847 Y0.400 Z20.378
G1 Y0.000
G1 X-5.645 Y0.000 Z20.435
G1 Y0.400
G1 X-5.444 Y0.400 Z20.489
G1 Y0.000
G1 X-5.242 Y0.000 Z20.542
G1 Y0.400
G1 X-5.040 Y0.400 Z20.592
G1 Y0.000
G1 X-4.839 Y0.000 Z20.640
G1 Y0.400
G1 X-4.637 Y0.400 Z20.687
G1 Y0.000
G1 X-4.435 Y0.000 Z20.731
G1 Y0.400
G1 X-4.234 Y0.400 Z20.773
G1 Y0.000
G1 X-4.032 Y0.000 Z20.813
G1 Y0.400
G1 X-3.831 Y0.400 Z20.851
G1 Y0.000
G1 X-3.629 Y0.000 Z20.887
G1 Y0.400
G1 X-3.427 Y0.400 Z20.921
G1 Y0.000
G1 X-3.226 Y0.000 Z20.953
G1 Y0.400
G1 X-3.024 Y0.400 Z20.983
G1 Y0.000
G1 X-2.823 Y0.000 Z21.011
G1 Y0.400
G1 X-2.621 Y0.400 Z21.037
G1 Y0.000
G1 X-2.419 Y0.000 Z21.061
G1 Y0.400
G1 X-2.218 Y0.400 Z21.084
G1 Y0.000
G1 X-2.016 Y0.000 Z21.104
G1 Y0.400
G1 X-1.815 Y0.400 Z21.122
G1 Y0.000
G1 X-1.613 Y0.000 Z21.139
G1 Y0.400
G1 X-1.411 Y0.400 Z21.153
G1 Y0.000
G1 X-1.210 Y0.000 Z21.165
G1 Y0.400
G1 X-1.008 Y0.400 Z21.176
G1 Y0.000
G1 X-0.806 Y0.000 Z21.185
G1 Y0.400
G1 X-0.605 Y0.400 Z21.191
G1 Y0.000
G1 X-0.403 Y0.000 Z21.196
G1 Y0.400
G1 X-0.202 Y0.400 Z21.199
G1 Y0.000
G1 X0.000 Y0.000 Z21.200
G1 Y0.400


; ====== Layer 9: Z = -0.9 ======
; R = 21.1, X = [-12.50, 12.50]
; Path: Center -> Right -> Center -> Left -> Center (with Y scanning)

; Pass 1: Center -> Right with Y zigzag scan
G1 X0.000 Y0.000 Z21.100
G1 Y0.400
G1 X0.202 Y0.400 Z21.099
G1 Y0.000
G1 X0.403 Y0.000 Z21.096
G1 Y0.400
G1 X0.605 Y0.400 Z21.091
G1 Y0.000
G1 X0.806 Y0.000 Z21.085
G1 Y0.400
G1 X1.008 Y0.400 Z21.076
G1 Y0.000
G1 X1.210 Y0.000 Z21.065
G1 Y0.400
G1 X1.411 Y0.400 Z21.053
G1 Y0.000
G1 X1.613 Y0.000 Z21.038
G1 Y0.400
G1 X1.815 Y0.400 Z21.022
G1 Y0.000
G1 X2.016 Y0.000 Z21.003
G1 Y0.400
G1 X2.218 Y0.400 Z20.983
G1 Y0.000
G1 X2.419 Y0.000 Z20.961
G1 Y0.400
G1 X2.621 Y0.400 Z20.937
G1 Y0.000
G1 X2.823 Y0.000 Z20.910
G1 Y0.400
G1 X3.024 Y0.400 Z20.882
G1 Y0.000
G1 X3.226 Y0.000 Z20.852
G1 Y0.400
G1 X3.427 Y0.400 Z20.820
G1 Y0.000
G1 X3.629 Y0.000 Z20.786
G1 Y0.400
G1 X3.831 Y0.400 Z20.749
G1 Y0.000
G1 X4.032 Y0.000 Z20.711
G1 Y0.400
G1 X4.234 Y0.400 Z20.671
G1 Y0.000
G1 X4.435 Y0.000 Z20.629
G1 Y0.400
G1 X4.637 Y0.400 Z20.584
G1 Y0.000
G1 X4.839 Y0.000 Z20.538
G1 Y0.400
G1 X5.040 Y0.400 Z20.489
G1 Y0.000
G1 X5.242 Y0.000 Z20.438
G1 Y0.400
G1 X5.444 Y0.400 Z20.386
G1 Y0.000
G1 X5.645 Y0.000 Z20.331
G1 Y0.400
G1 X5.847 Y0.400 Z20.274
G1 Y0.000
G1 X6.048 Y0.000 Z20.215
G1 Y0.400
G1 X6.250 Y0.400 Z20.153
G1 Y0.000
G1 X6.452 Y0.000 Z20.089
G1 Y0.400
G1 X6.653 Y0.400 Z20.024
G1 Y0.000
G1 X6.855 Y0.000 Z19.955
G1 Y0.400
G1 X7.056 Y0.400 Z19.885
G1 Y0.000
G1 X7.258 Y0.000 Z19.812
G1 Y0.400
G1 X7.460 Y0.400 Z19.737
G1 Y0.000
G1 X7.661 Y0.000 Z19.660
G1 Y0.400
G1 X7.863 Y0.400 Z19.580
G1 Y0.000
G1 X8.065 Y0.000 Z19.498
G1 Y0.400
G1 X8.266 Y0.400 Z19.413
G1 Y0.000
G1 X8.468 Y0.000 Z19.326
G1 Y0.400
G1 X8.669 Y0.400 Z19.237
G1 Y0.000
G1 X8.871 Y0.000 Z19.145
G1 Y0.400
G1 X9.073 Y0.400 Z19.050
G1 Y0.000
G1 X9.274 Y0.000 Z18.953
G1 Y0.400
G1 X9.476 Y0.400 Z18.853
G1 Y0.000
G1 X9.677 Y0.000 Z18.750
G1 Y0.400
G1 X9.879 Y0.400 Z18.644
G1 Y0.000
G1 X10.081 Y0.000 Z18.536
G1 Y0.400
G1 X10.282 Y0.400 Z18.425
G1 Y0.000
G1 X10.484 Y0.000 Z18.311
G1 Y0.400
G1 X10.685 Y0.400 Z18.194
G1 Y0.000
G1 X10.887 Y0.000 Z18.074
G1 Y0.400
G1 X11.089 Y0.400 Z17.951
G1 Y0.000
G1 X11.290 Y0.000 Z17.825
G1 Y0.400
G1 X11.492 Y0.400 Z17.696
G1 Y0.000
G1 X11.694 Y0.000 Z17.563
G1 Y0.400
G1 X11.895 Y0.400 Z17.427
G1 Y0.000
G1 X12.097 Y0.000 Z17.288
G1 Y0.400
G1 X12.298 Y0.400 Z17.145
G1 Y0.000
G1 X12.500 Y0.000 Z16.999
G1 Y0.400

; Pass 2: Right -> Center with Y zigzag scan
G1 X12.500 Y0.000 Z16.999
G1 Y0.400
G1 X12.298 Y0.400 Z17.145
G1 Y0.000
G1 X12.097 Y0.000 Z17.288
G1 Y0.400
G1 X11.895 Y0.400 Z17.427
G1 Y0.000
G1 X11.694 Y0.000 Z17.563
G1 Y0.400
G1 X11.492 Y0.400 Z17.696
G1 Y0.000
G1 X11.290 Y0.000 Z17.825
G1 Y0.400
G1 X11.089 Y0.400 Z17.951
G1 Y0.000
G1 X10.887 Y0.000 Z18.074
G1 Y0.400
G1 X10.685 Y0.400 Z18.194
G1 Y0.000
G1 X10.484 Y0.000 Z18.311
G1 Y0.400
G1 X10.282 Y0.400 Z18.425
G1 Y0.000
G1 X10.081 Y0.000 Z18.536
G1 Y0.400
G1 X9.879 Y0.400 Z18.644
G1 Y0.000
G1 X9.677 Y0.000 Z18.750
G1 Y0.400
G1 X9.476 Y0.400 Z18.853
G1 Y0.000
G1 X9.274 Y0.000 Z18.953
G1 Y0.400
G1 X9.073 Y0.400 Z19.050
G1 Y0.000
G1 X8.871 Y0.000 Z19.145
G1 Y0.400
G1 X8.669 Y0.400 Z19.237
G1 Y0.000
G1 X8.468 Y0.000 Z19.326
G1 Y0.400
G1 X8.266 Y0.400 Z19.413
G1 Y0.000
G1 X8.065 Y0.000 Z19.498
G1 Y0.400
G1 X7.863 Y0.400 Z19.580
G1 Y0.000
G1 X7.661 Y0.000 Z19.660
G1 Y0.400
G1 X7.460 Y0.400 Z19.737
G1 Y0.000
G1 X7.258 Y0.000 Z19.812
G1 Y0.400
G1 X7.056 Y0.400 Z19.885
G1 Y0.000
G1 X6.855 Y0.000 Z19.955
G1 Y0.400
G1 X6.653 Y0.400 Z20.024
G1 Y0.000
G1 X6.452 Y0.000 Z20.089
G1 Y0.400
G1 X6.250 Y0.400 Z20.153
G1 Y0.000
G1 X6.048 Y0.000 Z20.215
G1 Y0.400
G1 X5.847 Y0.400 Z20.274
G1 Y0.000
G1 X5.645 Y0.000 Z20.331
G1 Y0.400
G1 X5.444 Y0.400 Z20.386
G1 Y0.000
G1 X5.242 Y0.000 Z20.438
G1 Y0.400
G1 X5.040 Y0.400 Z20.489
G1 Y0.000
G1 X4.839 Y0.000 Z20.538
G1 Y0.400
G1 X4.637 Y0.400 Z20.584
G1 Y0.000
G1 X4.435 Y0.000 Z20.629
G1 Y0.400
G1 X4.234 Y0.400 Z20.671
G1 Y0.000
G1 X4.032 Y0.000 Z20.711
G1 Y0.400
G1 X3.831 Y0.400 Z20.749
G1 Y0.000
G1 X3.629 Y0.000 Z20.786
G1 Y0.400
G1 X3.427 Y0.400 Z20.820
G1 Y0.000
G1 X3.226 Y0.000 Z20.852
G1 Y0.400
G1 X3.024 Y0.400 Z20.882
G1 Y0.000
G1 X2.823 Y0.000 Z20.910
G1 Y0.400
G1 X2.621 Y0.400 Z20.937
G1 Y0.000
G1 X2.419 Y0.000 Z20.961
G1 Y0.400
G1 X2.218 Y0.400 Z20.983
G1 Y0.000
G1 X2.016 Y0.000 Z21.003
G1 Y0.400
G1 X1.815 Y0.400 Z21.022
G1 Y0.000
G1 X1.613 Y0.000 Z21.038
G1 Y0.400
G1 X1.411 Y0.400 Z21.053
G1 Y0.000
G1 X1.210 Y0.000 Z21.065
G1 Y0.400
G1 X1.008 Y0.400 Z21.076
G1 Y0.000
G1 X0.806 Y0.000 Z21.085
G1 Y0.400
G1 X0.605 Y0.400 Z21.091
G1 Y0.000
G1 X0.403 Y0.000 Z21.096
G1 Y0.400
G1 X0.202 Y0.400 Z21.099
G1 Y0.000
G1 X0.000 Y0.000 Z21.100
G1 Y0.400

; Pass 3: Center -> Left with Y zigzag scan
G1 X0.000 Y0.000 Z21.100
G1 Y0.400
G1 X-0.202 Y0.400 Z21.099
G1 Y0.000
G1 X-0.403 Y0.000 Z21.096
G1 Y0.400
G1 X-0.605 Y0.400 Z21.091
G1 Y0.000
G1 X-0.806 Y0.000 Z21.085
G1 Y0.400
G1 X-1.008 Y0.400 Z21.076
G1 Y0.000
G1 X-1.210 Y0.000 Z21.065
G1 Y0.400
G1 X-1.411 Y0.400 Z21.053
G1 Y0.000
G1 X-1.613 Y0.000 Z21.038
G1 Y0.400
G1 X-1.815 Y0.400 Z21.022
G1 Y0.000
G1 X-2.016 Y0.000 Z21.003
G1 Y0.400
G1 X-2.218 Y0.400 Z20.983
G1 Y0.000
G1 X-2.419 Y0.000 Z20.961
G1 Y0.400
G1 X-2.621 Y0.400 Z20.937
G1 Y0.000
G1 X-2.823 Y0.000 Z20.910
G1 Y0.400
G1 X-3.024 Y0.400 Z20.882
G1 Y0.000
G1 X-3.226 Y0.000 Z20.852
G1 Y0.400
G1 X-3.427 Y0.400 Z20.820
G1 Y0.000
G1 X-3.629 Y0.000 Z20.786
G1 Y0.400
G1 X-3.831 Y0.400 Z20.749
G1 Y0.000
G1 X-4.032 Y0.000 Z20.711
G1 Y0.400
G1 X-4.234 Y0.400 Z20.671
G1 Y0.000
G1 X-4.435 Y0.000 Z20.629
G1 Y0.400
G1 X-4.637 Y0.400 Z20.584
G1 Y0.000
G1 X-4.839 Y0.000 Z20.538
G1 Y0.400
G1 X-5.040 Y0.400 Z20.489
G1 Y0.000
G1 X-5.242 Y0.000 Z20.438
G1 Y0.400
G1 X-5.444 Y0.400 Z20.386
G1 Y0.000
G1 X-5.645 Y0.000 Z20.331
G1 Y0.400
G1 X-5.847 Y0.400 Z20.274
G1 Y0.000
G1 X-6.048 Y0.000 Z20.215
G1 Y0.400
G1 X-6.250 Y0.400 Z20.153
G1 Y0.000
G1 X-6.452 Y0.000 Z20.089
G1 Y0.400
G1 X-6.653 Y0.400 Z20.024
G1 Y0.000
G1 X-6.855 Y0.000 Z19.955
G1 Y0.400
G1 X-7.056 Y0.400 Z19.885
G1 Y0.000
G1 X-7.258 Y0.000 Z19.812
G1 Y0.400
G1 X-7.460 Y0.400 Z19.737
G1 Y0.000
G1 X-7.661 Y0.000 Z19.660
G1 Y0.400
G1 X-7.863 Y0.400 Z19.580
G1 Y0.000
G1 X-8.065 Y0.000 Z19.498
G1 Y0.400
G1 X-8.266 Y0.400 Z19.413
G1 Y0.000
G1 X-8.468 Y0.000 Z19.326
G1 Y0.400
G1 X-8.669 Y0.400 Z19.237
G1 Y0.000
G1 X-8.871 Y0.000 Z19.145
G1 Y0.400
G1 X-9.073 Y0.400 Z19.050
G1 Y0.000
G1 X-9.274 Y0.000 Z18.953
G1 Y0.400
G1 X-9.476 Y0.400 Z18.853
G1 Y0.000
G1 X-9.677 Y0.000 Z18.750
G1 Y0.400
G1 X-9.879 Y0.400 Z18.644
G1 Y0.000
G1 X-10.081 Y0.000 Z18.536
G1 Y0.400
G1 X-10.282 Y0.400 Z18.425
G1 Y0.000
G1 X-10.484 Y0.000 Z18.311
G1 Y0.400
G1 X-10.685 Y0.400 Z18.194
G1 Y0.000
G1 X-10.887 Y0.000 Z18.074
G1 Y0.400
G1 X-11.089 Y0.400 Z17.951
G1 Y0.000
G1 X-11.290 Y0.000 Z17.825
G1 Y0.400
G1 X-11.492 Y0.400 Z17.696
G1 Y0.000
G1 X-11.694 Y0.000 Z17.563
G1 Y0.400
G1 X-11.895 Y0.400 Z17.427
G1 Y0.000
G1 X-12.097 Y0.000 Z17.288
G1 Y0.400
G1 X-12.298 Y0.400 Z17.145
G1 Y0.000
G1 X-12.500 Y0.000 Z16.999
G1 Y0.400

; Pass 4: Left -> Center with Y zigzag scan
G1 X-12.500 Y0.000 Z16.999
G1 Y0.400
G1 X-12.298 Y0.400 Z17.145
G1 Y0.000
G1 X-12.097 Y0.000 Z17.288
G1 Y0.400
G1 X-11.895 Y0.400 Z17.427
G1 Y0.000
G1 X-11.694 Y0.000 Z17.563
G1 Y0.400
G1 X-11.492 Y0.400 Z17.696
G1 Y0.000
G1 X-11.290 Y0.000 Z17.825
G1 Y0.400
G1 X-11.089 Y0.400 Z17.951
G1 Y0.000
G1 X-10.887 Y0.000 Z18.074
G1 Y0.400
G1 X-10.685 Y0.400 Z18.194
G1 Y0.000
G1 X-10.484 Y0.000 Z18.311
G1 Y0.400
G1 X-10.282 Y0.400 Z18.425
G1 Y0.000
G1 X-10.081 Y0.000 Z18.536
G1 Y0.400
G1 X-9.879 Y0.400 Z18.644
G1 Y0.000
G1 X-9.677 Y0.000 Z18.750
G1 Y0.400
G1 X-9.476 Y0.400 Z18.853
G1 Y0.000
G1 X-9.274 Y0.000 Z18.953
G1 Y0.400
G1 X-9.073 Y0.400 Z19.050
G1 Y0.000
G1 X-8.871 Y0.000 Z19.145
G1 Y0.400
G1 X-8.669 Y0.400 Z19.237
G1 Y0.000
G1 X-8.468 Y0.000 Z19.326
G1 Y0.400
G1 X-8.266 Y0.400 Z19.413
G1 Y0.000
G1 X-8.065 Y0.000 Z19.498
G1 Y0.400
G1 X-7.863 Y0.400 Z19.580
G1 Y0.000
G1 X-7.661 Y0.000 Z19.660
G1 Y0.400
G1 X-7.460 Y0.400 Z19.737
G1 Y0.000
G1 X-7.258 Y0.000 Z19.812
G1 Y0.400
G1 X-7.056 Y0.400 Z19.885
G1 Y0.000
G1 X-6.855 Y0.000 Z19.955
G1 Y0.400
G1 X-6.653 Y0.400 Z20.024
G1 Y0.000
G1 X-6.452 Y0.000 Z20.089
G1 Y0.400
G1 X-6.250 Y0.400 Z20.153
G1 Y0.000
G1 X-6.048 Y0.000 Z20.215
G1 Y0.400
G1 X-5.847 Y0.400 Z20.274
G1 Y0.000
G1 X-5.645 Y0.000 Z20.331
G1 Y0.400
G1 X-5.444 Y0.400 Z20.386
G1 Y0.000
G1 X-5.242 Y0.000 Z20.438
G1 Y0.400
G1 X-5.040 Y0.400 Z20.489
G1 Y0.000
G1 X-4.839 Y0.000 Z20.538
G1 Y0.400
G1 X-4.637 Y0.400 Z20.584
G1 Y0.000
G1 X-4.435 Y0.000 Z20.629
G1 Y0.400
G1 X-4.234 Y0.400 Z20.671
G1 Y0.000
G1 X-4.032 Y0.000 Z20.711
G1 Y0.400
G1 X-3.831 Y0.400 Z20.749
G1 Y0.000
G1 X-3.629 Y0.000 Z20.786
G1 Y0.400
G1 X-3.427 Y0.400 Z20.820
G1 Y0.000
G1 X-3.226 Y0.000 Z20.852
G1 Y0.400
G1 X-3.024 Y0.400 Z20.882
G1 Y0.000
G1 X-2.823 Y0.000 Z20.910
G1 Y0.400
G1 X-2.621 Y0.400 Z20.937
G1 Y0.000
G1 X-2.419 Y0.000 Z20.961
G1 Y0.400
G1 X-2.218 Y0.400 Z20.983
G1 Y0.000
G1 X-2.016 Y0.000 Z21.003
G1 Y0.400
G1 X-1.815 Y0.400 Z21.022
G1 Y0.000
G1 X-1.613 Y0.000 Z21.038
G1 Y0.400
G1 X-1.411 Y0.400 Z21.053
G1 Y0.000
G1 X-1.210 Y0.000 Z21.065
G1 Y0.400
G1 X-1.008 Y0.400 Z21.076
G1 Y0.000
G1 X-0.806 Y0.000 Z21.085
G1 Y0.400
G1 X-0.605 Y0.400 Z21.091
G1 Y0.000
G1 X-0.403 Y0.000 Z21.096
G1 Y0.400
G1 X-0.202 Y0.400 Z21.099
G1 Y0.000
G1 X0.000 Y0.000 Z21.100
G1 Y0.400


; ====== Layer 10: Z = -1.0 ======
; R = 21.0, X = [-12.50, 12.50]
; Path: Center -> Right -> Center -> Left -> Center (with Y scanning)

; Pass 1: Center -> Right with Y zigzag scan
G1 X0.000 Y0.000 Z21.000
G1 Y0.400
G1 X0.202 Y0.400 Z20.999
G1 Y0.000
G1 X0.403 Y0.000 Z20.996
G1 Y0.400
G1 X0.605 Y0.400 Z20.991
G1 Y0.000
G1 X0.806 Y0.000 Z20.985
G1 Y0.400
G1 X1.008 Y0.400 Z20.976
G1 Y0.000
G1 X1.210 Y0.000 Z20.965
G1 Y0.400
G1 X1.411 Y0.400 Z20.953
G1 Y0.000
G1 X1.613 Y0.000 Z20.938
G1 Y0.400
G1 X1.815 Y0.400 Z20.921
G1 Y0.000
G1 X2.016 Y0.000 Z20.903
G1 Y0.400
G1 X2.218 Y0.400 Z20.883
G1 Y0.000
G1 X2.419 Y0.000 Z20.860
G1 Y0.400
G1 X2.621 Y0.400 Z20.836
G1 Y0.000
G1 X2.823 Y0.000 Z20.809
G1 Y0.400
G1 X3.024 Y0.400 Z20.781
G1 Y0.000
G1 X3.226 Y0.000 Z20.751
G1 Y0.400
G1 X3.427 Y0.400 Z20.718
G1 Y0.000
G1 X3.629 Y0.000 Z20.684
G1 Y0.400
G1 X3.831 Y0.400 Z20.648
G1 Y0.000
G1 X4.032 Y0.000 Z20.609
G1 Y0.400
G1 X4.234 Y0.400 Z20.569
G1 Y0.000
G1 X4.435 Y0.000 Z20.526
G1 Y0.400
G1 X4.637 Y0.400 Z20.482
G1 Y0.000
G1 X4.839 Y0.000 Z20.435
G1 Y0.400
G1 X5.040 Y0.400 Z20.386
G1 Y0.000
G1 X5.242 Y0.000 Z20.335
G1 Y0.400
G1 X5.444 Y0.400 Z20.282
G1 Y0.000
G1 X5.645 Y0.000 Z20.227
G1 Y0.400
G1 X5.847 Y0.400 Z20.170
G1 Y0.000
G1 X6.048 Y0.000 Z20.110
G1 Y0.400
G1 X6.250 Y0.400 Z20.048
G1 Y0.000
G1 X6.452 Y0.000 Z19.984
G1 Y0.400
G1 X6.653 Y0.400 Z19.918
G1 Y0.000
G1 X6.855 Y0.000 Z19.850
G1 Y0.400
G1 X7.056 Y0.400 Z19.779
G1 Y0.000
G1 X7.258 Y0.000 Z19.706
G1 Y0.400
G1 X7.460 Y0.400 Z19.630
G1 Y0.000
G1 X7.661 Y0.000 Z19.553
G1 Y0.400
G1 X7.863 Y0.400 Z19.472
G1 Y0.000
G1 X8.065 Y0.000 Z19.390
G1 Y0.400
G1 X8.266 Y0.400 Z19.305
G1 Y0.000
G1 X8.468 Y0.000 Z19.217
G1 Y0.400
G1 X8.669 Y0.400 Z19.127
G1 Y0.000
G1 X8.871 Y0.000 Z19.034
G1 Y0.400
G1 X9.073 Y0.400 Z18.939
G1 Y0.000
G1 X9.274 Y0.000 Z18.841
G1 Y0.400
G1 X9.476 Y0.400 Z18.741
G1 Y0.000
G1 X9.677 Y0.000 Z18.637
G1 Y0.400
G1 X9.879 Y0.400 Z18.531
G1 Y0.000
G1 X10.081 Y0.000 Z18.422
G1 Y0.400
G1 X10.282 Y0.400 Z18.311
G1 Y0.000
G1 X10.484 Y0.000 Z18.196
G1 Y0.400
G1 X10.685 Y0.400 Z18.078
G1 Y0.000
G1 X10.887 Y0.000 Z17.957
G1 Y0.400
G1 X11.089 Y0.400 Z17.834
G1 Y0.000
G1 X11.290 Y0.000 Z17.707
G1 Y0.400
G1 X11.492 Y0.400 Z17.577
G1 Y0.000
G1 X11.694 Y0.000 Z17.443
G1 Y0.400
G1 X11.895 Y0.400 Z17.306
G1 Y0.000
G1 X12.097 Y0.000 Z17.166
G1 Y0.400
G1 X12.298 Y0.400 Z17.022
G1 Y0.000
G1 X12.500 Y0.000 Z16.875
G1 Y0.400

; Pass 2: Right -> Center with Y zigzag scan
G1 X12.500 Y0.000 Z16.875
G1 Y0.400
G1 X12.298 Y0.400 Z17.022
G1 Y0.000
G1 X12.097 Y0.000 Z17.166
G1 Y0.400
G1 X11.895 Y0.400 Z17.306
G1 Y0.000
G1 X11.694 Y0.000 Z17.443
G1 Y0.400
G1 X11.492 Y0.400 Z17.577
G1 Y0.000
G1 X11.290 Y0.000 Z17.707
G1 Y0.400
G1 X11.089 Y0.400 Z17.834
G1 Y0.000
G1 X10.887 Y0.000 Z17.957
G1 Y0.400
G1 X10.685 Y0.400 Z18.078
G1 Y0.000
G1 X10.484 Y0.000 Z18.196
G1 Y0.400
G1 X10.282 Y0.400 Z18.311
G1 Y0.000
G1 X10.081 Y0.000 Z18.422
G1 Y0.400
G1 X9.879 Y0.400 Z18.531
G1 Y0.000
G1 X9.677 Y0.000 Z18.637
G1 Y0.400
G1 X9.476 Y0.400 Z18.741
G1 Y0.000
G1 X9.274 Y0.000 Z18.841
G1 Y0.400
G1 X9.073 Y0.400 Z18.939
G1 Y0.000
G1 X8.871 Y0.000 Z19.034
G1 Y0.400
G1 X8.669 Y0.400 Z19.127
G1 Y0.000
G1 X8.468 Y0.000 Z19.217
G1 Y0.400
G1 X8.266 Y0.400 Z19.305
G1 Y0.000
G1 X8.065 Y0.000 Z19.390
G1 Y0.400
G1 X7.863 Y0.400 Z19.472
G1 Y0.000
G1 X7.661 Y0.000 Z19.553
G1 Y0.400
G1 X7.460 Y0.400 Z19.630
G1 Y0.000
G1 X7.258 Y0.000 Z19.706
G1 Y0.400
G1 X7.056 Y0.400 Z19.779
G1 Y0.000
G1 X6.855 Y0.000 Z19.850
G1 Y0.400
G1 X6.653 Y0.400 Z19.918
G1 Y0.000
G1 X6.452 Y0.000 Z19.984
G1 Y0.400
G1 X6.250 Y0.400 Z20.048
G1 Y0.000
G1 X6.048 Y0.000 Z20.110
G1 Y0.400
G1 X5.847 Y0.400 Z20.170
G1 Y0.000
G1 X5.645 Y0.000 Z20.227
G1 Y0.400
G1 X5.444 Y0.400 Z20.282
G1 Y0.000
G1 X5.242 Y0.000 Z20.335
G1 Y0.400
G1 X5.040 Y0.400 Z20.386
G1 Y0.000
G1 X4.839 Y0.000 Z20.435
G1 Y0.400
G1 X4.637 Y0.400 Z20.482
G1 Y0.000
G1 X4.435 Y0.000 Z20.526
G1 Y0.400
G1 X4.234 Y0.400 Z20.569
G1 Y0.000
G1 X4.032 Y0.000 Z20.609
G1 Y0.400
G1 X3.831 Y0.400 Z20.648
G1 Y0.000
G1 X3.629 Y0.000 Z20.684
G1 Y0.400
G1 X3.427 Y0.400 Z20.718
G1 Y0.000
G1 X3.226 Y0.000 Z20.751
G1 Y0.400
G1 X3.024 Y0.400 Z20.781
G1 Y0.000
G1 X2.823 Y0.000 Z20.809
G1 Y0.400
G1 X2.621 Y0.400 Z20.836
G1 Y0.000
G1 X2.419 Y0.000 Z20.860
G1 Y0.400
G1 X2.218 Y0.400 Z20.883
G1 Y0.000
G1 X2.016 Y0.000 Z20.903
G1 Y0.400
G1 X1.815 Y0.400 Z20.921
G1 Y0.000
G1 X1.613 Y0.000 Z20.938
G1 Y0.400
G1 X1.411 Y0.400 Z20.953
G1 Y0.000
G1 X1.210 Y0.000 Z20.965
G1 Y0.400
G1 X1.008 Y0.400 Z20.976
G1 Y0.000
G1 X0.806 Y0.000 Z20.985
G1 Y0.400
G1 X0.605 Y0.400 Z20.991
G1 Y0.000
G1 X0.403 Y0.000 Z20.996
G1 Y0.400
G1 X0.202 Y0.400 Z20.999
G1 Y0.000
G1 X0.000 Y0.000 Z21.000
G1 Y0.400

; Pass 3: Center -> Left with Y zigzag scan
G1 X0.000 Y0.000 Z21.000
G1 Y0.400
G1 X-0.202 Y0.400 Z20.999
G1 Y0.000
G1 X-0.403 Y0.000 Z20.996
G1 Y0.400
G1 X-0.605 Y0.400 Z20.991
G1 Y0.000
G1 X-0.806 Y0.000 Z20.985
G1 Y0.400
G1 X-1.008 Y0.400 Z20.976
G1 Y0.000
G1 X-1.210 Y0.000 Z20.965
G1 Y0.400
G1 X-1.411 Y0.400 Z20.953
G1 Y0.000
G1 X-1.613 Y0.000 Z20.938
G1 Y0.400
G1 X-1.815 Y0.400 Z20.921
G1 Y0.000
G1 X-2.016 Y0.000 Z20.903
G1 Y0.400
G1 X-2.218 Y0.400 Z20.883
G1 Y0.000
G1 X-2.419 Y0.000 Z20.860
G1 Y0.400
G1 X-2.621 Y0.400 Z20.836
G1 Y0.000
G1 X-2.823 Y0.000 Z20.809
G1 Y0.400
G1 X-3.024 Y0.400 Z20.781
G1 Y0.000
G1 X-3.226 Y0.000 Z20.751
G1 Y0.400
G1 X-3.427 Y0.400 Z20.718
G1 Y0.000
G1 X-3.629 Y0.000 Z20.684
G1 Y0.400
G1 X-3.831 Y0.400 Z20.648
G1 Y0.000
G1 X-4.032 Y0.000 Z20.609
G1 Y0.400
G1 X-4.234 Y0.400 Z20.569
G1 Y0.000
G1 X-4.435 Y0.000 Z20.526
G1 Y0.400
G1 X-4.637 Y0.400 Z20.482
G1 Y0.000
G1 X-4.839 Y0.000 Z20.435
G1 Y0.400
G1 X-5.040 Y0.400 Z20.386
G1 Y0.000
G1 X-5.242 Y0.000 Z20.335
G1 Y0.400
G1 X-5.444 Y0.400 Z20.282
G1 Y0.000
G1 X-5.645 Y0.000 Z20.227
G1 Y0.400
G1 X-5.847 Y0.400 Z20.170
G1 Y0.000
G1 X-6.048 Y0.000 Z20.110
G1 Y0.400
G1 X-6.250 Y0.400 Z20.048
G1 Y0.000
G1 X-6.452 Y0.000 Z19.984
G1 Y0.400
G1 X-6.653 Y0.400 Z19.918
G1 Y0.000
G1 X-6.855 Y0.000 Z19.850
G1 Y0.400
G1 X-7.056 Y0.400 Z19.779
G1 Y0.000
G1 X-7.258 Y0.000 Z19.706
G1 Y0.400
G1 X-7.460 Y0.400 Z19.630
G1 Y0.000
G1 X-7.661 Y0.000 Z19.553
G1 Y0.400
G1 X-7.863 Y0.400 Z19.472
G1 Y0.000
G1 X-8.065 Y0.000 Z19.390
G1 Y0.400
G1 X-8.266 Y0.400 Z19.305
G1 Y0.000
G1 X-8.468 Y0.000 Z19.217
G1 Y0.400
G1 X-8.669 Y0.400 Z19.127
G1 Y0.000
G1 X-8.871 Y0.000 Z19.034
G1 Y0.400
G1 X-9.073 Y0.400 Z18.939
G1 Y0.000
G1 X-9.274 Y0.000 Z18.841
G1 Y0.400
G1 X-9.476 Y0.400 Z18.741
G1 Y0.000
G1 X-9.677 Y0.000 Z18.637
G1 Y0.400
G1 X-9.879 Y0.400 Z18.531
G1 Y0.000
G1 X-10.081 Y0.000 Z18.422
G1 Y0.400
G1 X-10.282 Y0.400 Z18.311
G1 Y0.000
G1 X-10.484 Y0.000 Z18.196
G1 Y0.400
G1 X-10.685 Y0.400 Z18.078
G1 Y0.000
G1 X-10.887 Y0.000 Z17.957
G1 Y0.400
G1 X-11.089 Y0.400 Z17.834
G1 Y0.000
G1 X-11.290 Y0.000 Z17.707
G1 Y0.400
G1 X-11.492 Y0.400 Z17.577
G1 Y0.000
G1 X-11.694 Y0.000 Z17.443
G1 Y0.400
G1 X-11.895 Y0.400 Z17.306
G1 Y0.000
G1 X-12.097 Y0.000 Z17.166
G1 Y0.400
G1 X-12.298 Y0.400 Z17.022
G1 Y0.000
G1 X-12.500 Y0.000 Z16.875
G1 Y0.400

; Pass 4: Left -> Center with Y zigzag scan
G1 X-12.500 Y0.000 Z16.875
G1 Y0.400
G1 X-12.298 Y0.400 Z17.022
G1 Y0.000
G1 X-12.097 Y0.000 Z17.166
G1 Y0.400
G1 X-11.895 Y0.400 Z17.306
G1 Y0.000
G1 X-11.694 Y0.000 Z17.443
G1 Y0.400
G1 X-11.492 Y0.400 Z17.577
G1 Y0.000
G1 X-11.290 Y0.000 Z17.707
G1 Y0.400
G1 X-11.089 Y0.400 Z17.834
G1 Y0.000
G1 X-10.887 Y0.000 Z17.957
G1 Y0.400
G1 X-10.685 Y0.400 Z18.078
G1 Y0.000
G1 X-10.484 Y0.000 Z18.196
G1 Y0.400
G1 X-10.282 Y0.400 Z18.311
G1 Y0.000
G1 X-10.081 Y0.000 Z18.422
G1 Y0.400
G1 X-9.879 Y0.400 Z18.531
G1 Y0.000
G1 X-9.677 Y0.000 Z18.637
G1 Y0.400
G1 X-9.476 Y0.400 Z18.741
G1 Y0.000
G1 X-9.274 Y0.000 Z18.841
G1 Y0.400
G1 X-9.073 Y0.400 Z18.939
G1 Y0.000
G1 X-8.871 Y0.000 Z19.034
G1 Y0.400
G1 X-8.669 Y0.400 Z19.127
G1 Y0.000
G1 X-8.468 Y0.000 Z19.217
G1 Y0.400
G1 X-8.266 Y0.400 Z19.305
G1 Y0.000
G1 X-8.065 Y0.000 Z19.390
G1 Y0.400
G1 X-7.863 Y0.400 Z19.472
G1 Y0.000
G1 X-7.661 Y0.000 Z19.553
G1 Y0.400
G1 X-7.460 Y0.400 Z19.630
G1 Y0.000
G1 X-7.258 Y0.000 Z19.706
G1 Y0.400
G1 X-7.056 Y0.400 Z19.779
G1 Y0.000
G1 X-6.855 Y0.000 Z19.850
G1 Y0.400
G1 X-6.653 Y0.400 Z19.918
G1 Y0.000
G1 X-6.452 Y0.000 Z19.984
G1 Y0.400
G1 X-6.250 Y0.400 Z20.048
G1 Y0.000
G1 X-6.048 Y0.000 Z20.110
G1 Y0.400
G1 X-5.847 Y0.400 Z20.170
G1 Y0.000
G1 X-5.645 Y0.000 Z20.227
G1 Y0.400
G1 X-5.444 Y0.400 Z20.282
G1 Y0.000
G1 X-5.242 Y0.000 Z20.335
G1 Y0.400
G1 X-5.040 Y0.400 Z20.386
G1 Y0.000
G1 X-4.839 Y0.000 Z20.435
G1 Y0.400
G1 X-4.637 Y0.400 Z20.482
G1 Y0.000
G1 X-4.435 Y0.000 Z20.526
G1 Y0.400
G1 X-4.234 Y0.400 Z20.569
G1 Y0.000
G1 X-4.032 Y0.000 Z20.609
G1 Y0.400
G1 X-3.831 Y0.400 Z20.648
G1 Y0.000
G1 X-3.629 Y0.000 Z20.684
G1 Y0.400
G1 X-3.427 Y0.400 Z20.718
G1 Y0.000
G1 X-3.226 Y0.000 Z20.751
G1 Y0.400
G1 X-3.024 Y0.400 Z20.781
G1 Y0.000
G1 X-2.823 Y0.000 Z20.809
G1 Y0.400
G1 X-2.621 Y0.400 Z20.836
G1 Y0.000
G1 X-2.419 Y0.000 Z20.860
G1 Y0.400
G1 X-2.218 Y0.400 Z20.883
G1 Y0.000
G1 X-2.016 Y0.000 Z20.903
G1 Y0.400
G1 X-1.815 Y0.400 Z20.921
G1 Y0.000
G1 X-1.613 Y0.000 Z20.938
G1 Y0.400
G1 X-1.411 Y0.400 Z20.953
G1 Y0.000
G1 X-1.210 Y0.000 Z20.965
G1 Y0.400
G1 X-1.008 Y0.400 Z20.976
G1 Y0.000
G1 X-0.806 Y0.000 Z20.985
G1 Y0.400
G1 X-0.605 Y0.400 Z20.991
G1 Y0.000
G1 X-0.403 Y0.000 Z20.996
G1 Y0.400
G1 X-0.202 Y0.400 Z20.999
G1 Y0.000
G1 X0.000 Y0.000 Z21.000
G1 Y0.400


; ========== MACHINING COMPLETE ==========
G0 Z0.0         ; Retract tool
G0 X0.0 Y0.0        ; Return to origin
M30                 ; Program end
%
