%
; ============================================================
; 2.5D Arc Surface Constant-Thickness Scanning (INVERTED 180¢X)
; 
; Auto-generated by Python Generator v2
; Parameters: R0=22.0mm, Layers=10, DX=0.2mm
; Arc center: (X=0.0, Z=0.0)
; Machining range: X = -12.50 to 12.50 (¡Ó12.5mm from apex)
; Arc orientation: Convex upward (180¢X inverted)
; ============================================================

; ========== INITIALIZATION ==========
G90                 ; Absolute coordinates
G21                 ; Metric units
G40 G49 G80         ; Cancel offsets and cycles

F20            ; Set feed rate

G0 Z0.0         ; Retract to safe height
G0 X0.0 Y0.0    ; Move to apex X,Y position
G0 Z22.000        ; Lower to origin (Z = ZC + R0)

; NOTE: All subsequent machining paths have Z offset by -R0

; ========== MAIN MACHINING LOOP ==========

; ====== Layer 1: Z = -0.1 ======
; R = 21.9, X = [-12.50, 12.50]
; Path: Center->Right->Forward->Center->Left->Backward->Center

; Step 1: Center -> Right @ Y0
G1 X0.000 Y0.000 Z-0.100
G1 X0.202 Y0.000 Z-0.101
G1 X0.403 Y0.000 Z-0.104
G1 X0.605 Y0.000 Z-0.108
G1 X0.806 Y0.000 Z-0.115
G1 X1.008 Y0.000 Z-0.123
G1 X1.210 Y0.000 Z-0.133
G1 X1.411 Y0.000 Z-0.146
G1 X1.613 Y0.000 Z-0.159
G1 X1.815 Y0.000 Z-0.175
G1 X2.016 Y0.000 Z-0.193
G1 X2.218 Y0.000 Z-0.213
G1 X2.419 Y0.000 Z-0.234
G1 X2.621 Y0.000 Z-0.257
G1 X2.823 Y0.000 Z-0.283
G1 X3.024 Y0.000 Z-0.310
G1 X3.226 Y0.000 Z-0.339
G1 X3.427 Y0.000 Z-0.370
G1 X3.629 Y0.000 Z-0.403
G1 X3.831 Y0.000 Z-0.438
G1 X4.032 Y0.000 Z-0.474
G1 X4.234 Y0.000 Z-0.513
G1 X4.435 Y0.000 Z-0.554
G1 X4.637 Y0.000 Z-0.597
G1 X4.839 Y0.000 Z-0.641
G1 X5.040 Y0.000 Z-0.688
G1 X5.242 Y0.000 Z-0.737
G1 X5.444 Y0.000 Z-0.787
G1 X5.645 Y0.000 Z-0.840
G1 X5.847 Y0.000 Z-0.895
G1 X6.048 Y0.000 Z-0.952
G1 X6.250 Y0.000 Z-1.011
G1 X6.452 Y0.000 Z-1.072
G1 X6.653 Y0.000 Z-1.135
G1 X6.855 Y0.000 Z-1.200
G1 X7.056 Y0.000 Z-1.268
G1 X7.258 Y0.000 Z-1.338
G1 X7.460 Y0.000 Z-1.410
G1 X7.661 Y0.000 Z-1.484
G1 X7.863 Y0.000 Z-1.560
G1 X8.065 Y0.000 Z-1.639
G1 X8.266 Y0.000 Z-1.720
G1 X8.468 Y0.000 Z-1.803
G1 X8.669 Y0.000 Z-1.889
G1 X8.871 Y0.000 Z-1.977
G1 X9.073 Y0.000 Z-2.068
G1 X9.274 Y0.000 Z-2.161
G1 X9.476 Y0.000 Z-2.256
G1 X9.677 Y0.000 Z-2.354
G1 X9.879 Y0.000 Z-2.455
G1 X10.081 Y0.000 Z-2.558
G1 X10.282 Y0.000 Z-2.664
G1 X10.484 Y0.000 Z-2.772
G1 X10.685 Y0.000 Z-2.884
G1 X10.887 Y0.000 Z-2.998
G1 X11.089 Y0.000 Z-3.115
G1 X11.290 Y0.000 Z-3.235
G1 X11.492 Y0.000 Z-3.357
G1 X11.694 Y0.000 Z-3.483
G1 X11.895 Y0.000 Z-3.612
G1 X12.097 Y0.000 Z-3.744
G1 X12.298 Y0.000 Z-3.879
G1 X12.500 Y0.000 Z-4.018

; Step 2: Forward Y0 -> Y1 @ Right edge
G1 Y0.400

; Step 3: Right -> Center @ Y1
G1 X12.500 Y0.400 Z-4.018
G1 X12.298 Y0.400 Z-3.879
G1 X12.097 Y0.400 Z-3.744
G1 X11.895 Y0.400 Z-3.612
G1 X11.694 Y0.400 Z-3.483
G1 X11.492 Y0.400 Z-3.357
G1 X11.290 Y0.400 Z-3.235
G1 X11.089 Y0.400 Z-3.115
G1 X10.887 Y0.400 Z-2.998
G1 X10.685 Y0.400 Z-2.884
G1 X10.484 Y0.400 Z-2.772
G1 X10.282 Y0.400 Z-2.664
G1 X10.081 Y0.400 Z-2.558
G1 X9.879 Y0.400 Z-2.455
G1 X9.677 Y0.400 Z-2.354
G1 X9.476 Y0.400 Z-2.256
G1 X9.274 Y0.400 Z-2.161
G1 X9.073 Y0.400 Z-2.068
G1 X8.871 Y0.400 Z-1.977
G1 X8.669 Y0.400 Z-1.889
G1 X8.468 Y0.400 Z-1.803
G1 X8.266 Y0.400 Z-1.720
G1 X8.065 Y0.400 Z-1.639
G1 X7.863 Y0.400 Z-1.560
G1 X7.661 Y0.400 Z-1.484
G1 X7.460 Y0.400 Z-1.410
G1 X7.258 Y0.400 Z-1.338
G1 X7.056 Y0.400 Z-1.268
G1 X6.855 Y0.400 Z-1.200
G1 X6.653 Y0.400 Z-1.135
G1 X6.452 Y0.400 Z-1.072
G1 X6.250 Y0.400 Z-1.011
G1 X6.048 Y0.400 Z-0.952
G1 X5.847 Y0.400 Z-0.895
G1 X5.645 Y0.400 Z-0.840
G1 X5.444 Y0.400 Z-0.787
G1 X5.242 Y0.400 Z-0.737
G1 X5.040 Y0.400 Z-0.688
G1 X4.839 Y0.400 Z-0.641
G1 X4.637 Y0.400 Z-0.597
G1 X4.435 Y0.400 Z-0.554
G1 X4.234 Y0.400 Z-0.513
G1 X4.032 Y0.400 Z-0.474
G1 X3.831 Y0.400 Z-0.438
G1 X3.629 Y0.400 Z-0.403
G1 X3.427 Y0.400 Z-0.370
G1 X3.226 Y0.400 Z-0.339
G1 X3.024 Y0.400 Z-0.310
G1 X2.823 Y0.400 Z-0.283
G1 X2.621 Y0.400 Z-0.257
G1 X2.419 Y0.400 Z-0.234
G1 X2.218 Y0.400 Z-0.213
G1 X2.016 Y0.400 Z-0.193
G1 X1.815 Y0.400 Z-0.175
G1 X1.613 Y0.400 Z-0.159
G1 X1.411 Y0.400 Z-0.146
G1 X1.210 Y0.400 Z-0.133
G1 X1.008 Y0.400 Z-0.123
G1 X0.806 Y0.400 Z-0.115
G1 X0.605 Y0.400 Z-0.108
G1 X0.403 Y0.400 Z-0.104
G1 X0.202 Y0.400 Z-0.101
G1 X0.000 Y0.400 Z-0.100

; Step 4: Center -> Left @ Y1
G1 X0.000 Y0.400 Z-0.100
G1 X-0.202 Y0.400 Z-0.101
G1 X-0.403 Y0.400 Z-0.104
G1 X-0.605 Y0.400 Z-0.108
G1 X-0.806 Y0.400 Z-0.115
G1 X-1.008 Y0.400 Z-0.123
G1 X-1.210 Y0.400 Z-0.133
G1 X-1.411 Y0.400 Z-0.146
G1 X-1.613 Y0.400 Z-0.159
G1 X-1.815 Y0.400 Z-0.175
G1 X-2.016 Y0.400 Z-0.193
G1 X-2.218 Y0.400 Z-0.213
G1 X-2.419 Y0.400 Z-0.234
G1 X-2.621 Y0.400 Z-0.257
G1 X-2.823 Y0.400 Z-0.283
G1 X-3.024 Y0.400 Z-0.310
G1 X-3.226 Y0.400 Z-0.339
G1 X-3.427 Y0.400 Z-0.370
G1 X-3.629 Y0.400 Z-0.403
G1 X-3.831 Y0.400 Z-0.438
G1 X-4.032 Y0.400 Z-0.474
G1 X-4.234 Y0.400 Z-0.513
G1 X-4.435 Y0.400 Z-0.554
G1 X-4.637 Y0.400 Z-0.597
G1 X-4.839 Y0.400 Z-0.641
G1 X-5.040 Y0.400 Z-0.688
G1 X-5.242 Y0.400 Z-0.737
G1 X-5.444 Y0.400 Z-0.787
G1 X-5.645 Y0.400 Z-0.840
G1 X-5.847 Y0.400 Z-0.895
G1 X-6.048 Y0.400 Z-0.952
G1 X-6.250 Y0.400 Z-1.011
G1 X-6.452 Y0.400 Z-1.072
G1 X-6.653 Y0.400 Z-1.135
G1 X-6.855 Y0.400 Z-1.200
G1 X-7.056 Y0.400 Z-1.268
G1 X-7.258 Y0.400 Z-1.338
G1 X-7.460 Y0.400 Z-1.410
G1 X-7.661 Y0.400 Z-1.484
G1 X-7.863 Y0.400 Z-1.560
G1 X-8.065 Y0.400 Z-1.639
G1 X-8.266 Y0.400 Z-1.720
G1 X-8.468 Y0.400 Z-1.803
G1 X-8.669 Y0.400 Z-1.889
G1 X-8.871 Y0.400 Z-1.977
G1 X-9.073 Y0.400 Z-2.068
G1 X-9.274 Y0.400 Z-2.161
G1 X-9.476 Y0.400 Z-2.256
G1 X-9.677 Y0.400 Z-2.354
G1 X-9.879 Y0.400 Z-2.455
G1 X-10.081 Y0.400 Z-2.558
G1 X-10.282 Y0.400 Z-2.664
G1 X-10.484 Y0.400 Z-2.772
G1 X-10.685 Y0.400 Z-2.884
G1 X-10.887 Y0.400 Z-2.998
G1 X-11.089 Y0.400 Z-3.115
G1 X-11.290 Y0.400 Z-3.235
G1 X-11.492 Y0.400 Z-3.357
G1 X-11.694 Y0.400 Z-3.483
G1 X-11.895 Y0.400 Z-3.612
G1 X-12.097 Y0.400 Z-3.744
G1 X-12.298 Y0.400 Z-3.879
G1 X-12.500 Y0.400 Z-4.018

; Step 5: Backward Y1 -> Y0 @ Left edge
G1 Y0.000

; Step 6: Left -> Center @ Y0
G1 X-12.500 Y0.000 Z-4.018
G1 X-12.298 Y0.000 Z-3.879
G1 X-12.097 Y0.000 Z-3.744
G1 X-11.895 Y0.000 Z-3.612
G1 X-11.694 Y0.000 Z-3.483
G1 X-11.492 Y0.000 Z-3.357
G1 X-11.290 Y0.000 Z-3.235
G1 X-11.089 Y0.000 Z-3.115
G1 X-10.887 Y0.000 Z-2.998
G1 X-10.685 Y0.000 Z-2.884
G1 X-10.484 Y0.000 Z-2.772
G1 X-10.282 Y0.000 Z-2.664
G1 X-10.081 Y0.000 Z-2.558
G1 X-9.879 Y0.000 Z-2.455
G1 X-9.677 Y0.000 Z-2.354
G1 X-9.476 Y0.000 Z-2.256
G1 X-9.274 Y0.000 Z-2.161
G1 X-9.073 Y0.000 Z-2.068
G1 X-8.871 Y0.000 Z-1.977
G1 X-8.669 Y0.000 Z-1.889
G1 X-8.468 Y0.000 Z-1.803
G1 X-8.266 Y0.000 Z-1.720
G1 X-8.065 Y0.000 Z-1.639
G1 X-7.863 Y0.000 Z-1.560
G1 X-7.661 Y0.000 Z-1.484
G1 X-7.460 Y0.000 Z-1.410
G1 X-7.258 Y0.000 Z-1.338
G1 X-7.056 Y0.000 Z-1.268
G1 X-6.855 Y0.000 Z-1.200
G1 X-6.653 Y0.000 Z-1.135
G1 X-6.452 Y0.000 Z-1.072
G1 X-6.250 Y0.000 Z-1.011
G1 X-6.048 Y0.000 Z-0.952
G1 X-5.847 Y0.000 Z-0.895
G1 X-5.645 Y0.000 Z-0.840
G1 X-5.444 Y0.000 Z-0.787
G1 X-5.242 Y0.000 Z-0.737
G1 X-5.040 Y0.000 Z-0.688
G1 X-4.839 Y0.000 Z-0.641
G1 X-4.637 Y0.000 Z-0.597
G1 X-4.435 Y0.000 Z-0.554
G1 X-4.234 Y0.000 Z-0.513
G1 X-4.032 Y0.000 Z-0.474
G1 X-3.831 Y0.000 Z-0.438
G1 X-3.629 Y0.000 Z-0.403
G1 X-3.427 Y0.000 Z-0.370
G1 X-3.226 Y0.000 Z-0.339
G1 X-3.024 Y0.000 Z-0.310
G1 X-2.823 Y0.000 Z-0.283
G1 X-2.621 Y0.000 Z-0.257
G1 X-2.419 Y0.000 Z-0.234
G1 X-2.218 Y0.000 Z-0.213
G1 X-2.016 Y0.000 Z-0.193
G1 X-1.815 Y0.000 Z-0.175
G1 X-1.613 Y0.000 Z-0.159
G1 X-1.411 Y0.000 Z-0.146
G1 X-1.210 Y0.000 Z-0.133
G1 X-1.008 Y0.000 Z-0.123
G1 X-0.806 Y0.000 Z-0.115
G1 X-0.605 Y0.000 Z-0.108
G1 X-0.403 Y0.000 Z-0.104
G1 X-0.202 Y0.000 Z-0.101
G1 X0.000 Y0.000 Z-0.100


; ====== Layer 2: Z = -0.2 ======
; R = 21.8, X = [-12.50, 12.50]
; Path: Center->Right->Forward->Center->Left->Backward->Center

; Step 1: Center -> Right @ Y0
G1 X0.000 Y0.000 Z-0.200
G1 X0.202 Y0.000 Z-0.201
G1 X0.403 Y0.000 Z-0.204
G1 X0.605 Y0.000 Z-0.208
G1 X0.806 Y0.000 Z-0.215
G1 X1.008 Y0.000 Z-0.223
G1 X1.210 Y0.000 Z-0.234
G1 X1.411 Y0.000 Z-0.246
G1 X1.613 Y0.000 Z-0.260
G1 X1.815 Y0.000 Z-0.276
G1 X2.016 Y0.000 Z-0.293
G1 X2.218 Y0.000 Z-0.313
G1 X2.419 Y0.000 Z-0.335
G1 X2.621 Y0.000 Z-0.358
G1 X2.823 Y0.000 Z-0.384
G1 X3.024 Y0.000 Z-0.411
G1 X3.226 Y0.000 Z-0.440
G1 X3.427 Y0.000 Z-0.471
G1 X3.629 Y0.000 Z-0.504
G1 X3.831 Y0.000 Z-0.539
G1 X4.032 Y0.000 Z-0.576
G1 X4.234 Y0.000 Z-0.615
G1 X4.435 Y0.000 Z-0.656
G1 X4.637 Y0.000 Z-0.699
G1 X4.839 Y0.000 Z-0.744
G1 X5.040 Y0.000 Z-0.791
G1 X5.242 Y0.000 Z-0.840
G1 X5.444 Y0.000 Z-0.891
G1 X5.645 Y0.000 Z-0.944
G1 X5.847 Y0.000 Z-0.999
G1 X6.048 Y0.000 Z-1.056
G1 X6.250 Y0.000 Z-1.115
G1 X6.452 Y0.000 Z-1.177
G1 X6.653 Y0.000 Z-1.240
G1 X6.855 Y0.000 Z-1.306
G1 X7.056 Y0.000 Z-1.374
G1 X7.258 Y0.000 Z-1.444
G1 X7.460 Y0.000 Z-1.516
G1 X7.661 Y0.000 Z-1.591
G1 X7.863 Y0.000 Z-1.667
G1 X8.065 Y0.000 Z-1.747
G1 X8.266 Y0.000 Z-1.828
G1 X8.468 Y0.000 Z-1.912
G1 X8.669 Y0.000 Z-1.998
G1 X8.871 Y0.000 Z-2.087
G1 X9.073 Y0.000 Z-2.178
G1 X9.274 Y0.000 Z-2.271
G1 X9.476 Y0.000 Z-2.367
G1 X9.677 Y0.000 Z-2.466
G1 X9.879 Y0.000 Z-2.567
G1 X10.081 Y0.000 Z-2.671
G1 X10.282 Y0.000 Z-2.777
G1 X10.484 Y0.000 Z-2.886
G1 X10.685 Y0.000 Z-2.998
G1 X10.887 Y0.000 Z-3.113
G1 X11.089 Y0.000 Z-3.231
G1 X11.290 Y0.000 Z-3.351
G1 X11.492 Y0.000 Z-3.475
G1 X11.694 Y0.000 Z-3.602
G1 X11.895 Y0.000 Z-3.731
G1 X12.097 Y0.000 Z-3.864
G1 X12.298 Y0.000 Z-4.000
G1 X12.500 Y0.000 Z-4.140

; Step 2: Forward Y0 -> Y1 @ Right edge
G1 Y0.400

; Step 3: Right -> Center @ Y1
G1 X12.500 Y0.400 Z-4.140
G1 X12.298 Y0.400 Z-4.000
G1 X12.097 Y0.400 Z-3.864
G1 X11.895 Y0.400 Z-3.731
G1 X11.694 Y0.400 Z-3.602
G1 X11.492 Y0.400 Z-3.475
G1 X11.290 Y0.400 Z-3.351
G1 X11.089 Y0.400 Z-3.231
G1 X10.887 Y0.400 Z-3.113
G1 X10.685 Y0.400 Z-2.998
G1 X10.484 Y0.400 Z-2.886
G1 X10.282 Y0.400 Z-2.777
G1 X10.081 Y0.400 Z-2.671
G1 X9.879 Y0.400 Z-2.567
G1 X9.677 Y0.400 Z-2.466
G1 X9.476 Y0.400 Z-2.367
G1 X9.274 Y0.400 Z-2.271
G1 X9.073 Y0.400 Z-2.178
G1 X8.871 Y0.400 Z-2.087
G1 X8.669 Y0.400 Z-1.998
G1 X8.468 Y0.400 Z-1.912
G1 X8.266 Y0.400 Z-1.828
G1 X8.065 Y0.400 Z-1.747
G1 X7.863 Y0.400 Z-1.667
G1 X7.661 Y0.400 Z-1.591
G1 X7.460 Y0.400 Z-1.516
G1 X7.258 Y0.400 Z-1.444
G1 X7.056 Y0.400 Z-1.374
G1 X6.855 Y0.400 Z-1.306
G1 X6.653 Y0.400 Z-1.240
G1 X6.452 Y0.400 Z-1.177
G1 X6.250 Y0.400 Z-1.115
G1 X6.048 Y0.400 Z-1.056
G1 X5.847 Y0.400 Z-0.999
G1 X5.645 Y0.400 Z-0.944
G1 X5.444 Y0.400 Z-0.891
G1 X5.242 Y0.400 Z-0.840
G1 X5.040 Y0.400 Z-0.791
G1 X4.839 Y0.400 Z-0.744
G1 X4.637 Y0.400 Z-0.699
G1 X4.435 Y0.400 Z-0.656
G1 X4.234 Y0.400 Z-0.615
G1 X4.032 Y0.400 Z-0.576
G1 X3.831 Y0.400 Z-0.539
G1 X3.629 Y0.400 Z-0.504
G1 X3.427 Y0.400 Z-0.471
G1 X3.226 Y0.400 Z-0.440
G1 X3.024 Y0.400 Z-0.411
G1 X2.823 Y0.400 Z-0.384
G1 X2.621 Y0.400 Z-0.358
G1 X2.419 Y0.400 Z-0.335
G1 X2.218 Y0.400 Z-0.313
G1 X2.016 Y0.400 Z-0.293
G1 X1.815 Y0.400 Z-0.276
G1 X1.613 Y0.400 Z-0.260
G1 X1.411 Y0.400 Z-0.246
G1 X1.210 Y0.400 Z-0.234
G1 X1.008 Y0.400 Z-0.223
G1 X0.806 Y0.400 Z-0.215
G1 X0.605 Y0.400 Z-0.208
G1 X0.403 Y0.400 Z-0.204
G1 X0.202 Y0.400 Z-0.201
G1 X0.000 Y0.400 Z-0.200

; Step 4: Center -> Left @ Y1
G1 X0.000 Y0.400 Z-0.200
G1 X-0.202 Y0.400 Z-0.201
G1 X-0.403 Y0.400 Z-0.204
G1 X-0.605 Y0.400 Z-0.208
G1 X-0.806 Y0.400 Z-0.215
G1 X-1.008 Y0.400 Z-0.223
G1 X-1.210 Y0.400 Z-0.234
G1 X-1.411 Y0.400 Z-0.246
G1 X-1.613 Y0.400 Z-0.260
G1 X-1.815 Y0.400 Z-0.276
G1 X-2.016 Y0.400 Z-0.293
G1 X-2.218 Y0.400 Z-0.313
G1 X-2.419 Y0.400 Z-0.335
G1 X-2.621 Y0.400 Z-0.358
G1 X-2.823 Y0.400 Z-0.384
G1 X-3.024 Y0.400 Z-0.411
G1 X-3.226 Y0.400 Z-0.440
G1 X-3.427 Y0.400 Z-0.471
G1 X-3.629 Y0.400 Z-0.504
G1 X-3.831 Y0.400 Z-0.539
G1 X-4.032 Y0.400 Z-0.576
G1 X-4.234 Y0.400 Z-0.615
G1 X-4.435 Y0.400 Z-0.656
G1 X-4.637 Y0.400 Z-0.699
G1 X-4.839 Y0.400 Z-0.744
G1 X-5.040 Y0.400 Z-0.791
G1 X-5.242 Y0.400 Z-0.840
G1 X-5.444 Y0.400 Z-0.891
G1 X-5.645 Y0.400 Z-0.944
G1 X-5.847 Y0.400 Z-0.999
G1 X-6.048 Y0.400 Z-1.056
G1 X-6.250 Y0.400 Z-1.115
G1 X-6.452 Y0.400 Z-1.177
G1 X-6.653 Y0.400 Z-1.240
G1 X-6.855 Y0.400 Z-1.306
G1 X-7.056 Y0.400 Z-1.374
G1 X-7.258 Y0.400 Z-1.444
G1 X-7.460 Y0.400 Z-1.516
G1 X-7.661 Y0.400 Z-1.591
G1 X-7.863 Y0.400 Z-1.667
G1 X-8.065 Y0.400 Z-1.747
G1 X-8.266 Y0.400 Z-1.828
G1 X-8.468 Y0.400 Z-1.912
G1 X-8.669 Y0.400 Z-1.998
G1 X-8.871 Y0.400 Z-2.087
G1 X-9.073 Y0.400 Z-2.178
G1 X-9.274 Y0.400 Z-2.271
G1 X-9.476 Y0.400 Z-2.367
G1 X-9.677 Y0.400 Z-2.466
G1 X-9.879 Y0.400 Z-2.567
G1 X-10.081 Y0.400 Z-2.671
G1 X-10.282 Y0.400 Z-2.777
G1 X-10.484 Y0.400 Z-2.886
G1 X-10.685 Y0.400 Z-2.998
G1 X-10.887 Y0.400 Z-3.113
G1 X-11.089 Y0.400 Z-3.231
G1 X-11.290 Y0.400 Z-3.351
G1 X-11.492 Y0.400 Z-3.475
G1 X-11.694 Y0.400 Z-3.602
G1 X-11.895 Y0.400 Z-3.731
G1 X-12.097 Y0.400 Z-3.864
G1 X-12.298 Y0.400 Z-4.000
G1 X-12.500 Y0.400 Z-4.140

; Step 5: Backward Y1 -> Y0 @ Left edge
G1 Y0.000

; Step 6: Left -> Center @ Y0
G1 X-12.500 Y0.000 Z-4.140
G1 X-12.298 Y0.000 Z-4.000
G1 X-12.097 Y0.000 Z-3.864
G1 X-11.895 Y0.000 Z-3.731
G1 X-11.694 Y0.000 Z-3.602
G1 X-11.492 Y0.000 Z-3.475
G1 X-11.290 Y0.000 Z-3.351
G1 X-11.089 Y0.000 Z-3.231
G1 X-10.887 Y0.000 Z-3.113
G1 X-10.685 Y0.000 Z-2.998
G1 X-10.484 Y0.000 Z-2.886
G1 X-10.282 Y0.000 Z-2.777
G1 X-10.081 Y0.000 Z-2.671
G1 X-9.879 Y0.000 Z-2.567
G1 X-9.677 Y0.000 Z-2.466
G1 X-9.476 Y0.000 Z-2.367
G1 X-9.274 Y0.000 Z-2.271
G1 X-9.073 Y0.000 Z-2.178
G1 X-8.871 Y0.000 Z-2.087
G1 X-8.669 Y0.000 Z-1.998
G1 X-8.468 Y0.000 Z-1.912
G1 X-8.266 Y0.000 Z-1.828
G1 X-8.065 Y0.000 Z-1.747
G1 X-7.863 Y0.000 Z-1.667
G1 X-7.661 Y0.000 Z-1.591
G1 X-7.460 Y0.000 Z-1.516
G1 X-7.258 Y0.000 Z-1.444
G1 X-7.056 Y0.000 Z-1.374
G1 X-6.855 Y0.000 Z-1.306
G1 X-6.653 Y0.000 Z-1.240
G1 X-6.452 Y0.000 Z-1.177
G1 X-6.250 Y0.000 Z-1.115
G1 X-6.048 Y0.000 Z-1.056
G1 X-5.847 Y0.000 Z-0.999
G1 X-5.645 Y0.000 Z-0.944
G1 X-5.444 Y0.000 Z-0.891
G1 X-5.242 Y0.000 Z-0.840
G1 X-5.040 Y0.000 Z-0.791
G1 X-4.839 Y0.000 Z-0.744
G1 X-4.637 Y0.000 Z-0.699
G1 X-4.435 Y0.000 Z-0.656
G1 X-4.234 Y0.000 Z-0.615
G1 X-4.032 Y0.000 Z-0.576
G1 X-3.831 Y0.000 Z-0.539
G1 X-3.629 Y0.000 Z-0.504
G1 X-3.427 Y0.000 Z-0.471
G1 X-3.226 Y0.000 Z-0.440
G1 X-3.024 Y0.000 Z-0.411
G1 X-2.823 Y0.000 Z-0.384
G1 X-2.621 Y0.000 Z-0.358
G1 X-2.419 Y0.000 Z-0.335
G1 X-2.218 Y0.000 Z-0.313
G1 X-2.016 Y0.000 Z-0.293
G1 X-1.815 Y0.000 Z-0.276
G1 X-1.613 Y0.000 Z-0.260
G1 X-1.411 Y0.000 Z-0.246
G1 X-1.210 Y0.000 Z-0.234
G1 X-1.008 Y0.000 Z-0.223
G1 X-0.806 Y0.000 Z-0.215
G1 X-0.605 Y0.000 Z-0.208
G1 X-0.403 Y0.000 Z-0.204
G1 X-0.202 Y0.000 Z-0.201
G1 X0.000 Y0.000 Z-0.200


; ====== Layer 3: Z = -0.3 ======
; R = 21.7, X = [-12.50, 12.50]
; Path: Center->Right->Forward->Center->Left->Backward->Center

; Step 1: Center -> Right @ Y0
G1 X0.000 Y0.000 Z-0.300
G1 X0.202 Y0.000 Z-0.301
G1 X0.403 Y0.000 Z-0.304
G1 X0.605 Y0.000 Z-0.308
G1 X0.806 Y0.000 Z-0.315
G1 X1.008 Y0.000 Z-0.323
G1 X1.210 Y0.000 Z-0.334
G1 X1.411 Y0.000 Z-0.346
G1 X1.613 Y0.000 Z-0.360
G1 X1.815 Y0.000 Z-0.376
G1 X2.016 Y0.000 Z-0.394
G1 X2.218 Y0.000 Z-0.414
G1 X2.419 Y0.000 Z-0.435
G1 X2.621 Y0.000 Z-0.459
G1 X2.823 Y0.000 Z-0.484
G1 X3.024 Y0.000 Z-0.512
G1 X3.226 Y0.000 Z-0.541
G1 X3.427 Y0.000 Z-0.572
G1 X3.629 Y0.000 Z-0.606
G1 X3.831 Y0.000 Z-0.641
G1 X4.032 Y0.000 Z-0.678
G1 X4.234 Y0.000 Z-0.717
G1 X4.435 Y0.000 Z-0.758
G1 X4.637 Y0.000 Z-0.801
G1 X4.839 Y0.000 Z-0.846
G1 X5.040 Y0.000 Z-0.893
G1 X5.242 Y0.000 Z-0.943
G1 X5.444 Y0.000 Z-0.994
G1 X5.645 Y0.000 Z-1.047
G1 X5.847 Y0.000 Z-1.103
G1 X6.048 Y0.000 Z-1.160
G1 X6.250 Y0.000 Z-1.220
G1 X6.452 Y0.000 Z-1.281
G1 X6.653 Y0.000 Z-1.345
G1 X6.855 Y0.000 Z-1.411
G1 X7.056 Y0.000 Z-1.479
G1 X7.258 Y0.000 Z-1.550
G1 X7.460 Y0.000 Z-1.622
G1 X7.661 Y0.000 Z-1.697
G1 X7.863 Y0.000 Z-1.775
G1 X8.065 Y0.000 Z-1.854
G1 X8.266 Y0.000 Z-1.936
G1 X8.468 Y0.000 Z-2.020
G1 X8.669 Y0.000 Z-2.107
G1 X8.871 Y0.000 Z-2.196
G1 X9.073 Y0.000 Z-2.288
G1 X9.274 Y0.000 Z-2.382
G1 X9.476 Y0.000 Z-2.478
G1 X9.677 Y0.000 Z-2.577
G1 X9.879 Y0.000 Z-2.679
G1 X10.081 Y0.000 Z-2.784
G1 X10.282 Y0.000 Z-2.891
G1 X10.484 Y0.000 Z-3.001
G1 X10.685 Y0.000 Z-3.113
G1 X10.887 Y0.000 Z-3.229
G1 X11.089 Y0.000 Z-3.347
G1 X11.290 Y0.000 Z-3.468
G1 X11.492 Y0.000 Z-3.593
G1 X11.694 Y0.000 Z-3.720
G1 X11.895 Y0.000 Z-3.851
G1 X12.097 Y0.000 Z-3.985
G1 X12.298 Y0.000 Z-4.122
G1 X12.500 Y0.000 Z-4.262

; Step 2: Forward Y0 -> Y1 @ Right edge
G1 Y0.400

; Step 3: Right -> Center @ Y1
G1 X12.500 Y0.400 Z-4.262
G1 X12.298 Y0.400 Z-4.122
G1 X12.097 Y0.400 Z-3.985
G1 X11.895 Y0.400 Z-3.851
G1 X11.694 Y0.400 Z-3.720
G1 X11.492 Y0.400 Z-3.593
G1 X11.290 Y0.400 Z-3.468
G1 X11.089 Y0.400 Z-3.347
G1 X10.887 Y0.400 Z-3.229
G1 X10.685 Y0.400 Z-3.113
G1 X10.484 Y0.400 Z-3.001
G1 X10.282 Y0.400 Z-2.891
G1 X10.081 Y0.400 Z-2.784
G1 X9.879 Y0.400 Z-2.679
G1 X9.677 Y0.400 Z-2.577
G1 X9.476 Y0.400 Z-2.478
G1 X9.274 Y0.400 Z-2.382
G1 X9.073 Y0.400 Z-2.288
G1 X8.871 Y0.400 Z-2.196
G1 X8.669 Y0.400 Z-2.107
G1 X8.468 Y0.400 Z-2.020
G1 X8.266 Y0.400 Z-1.936
G1 X8.065 Y0.400 Z-1.854
G1 X7.863 Y0.400 Z-1.775
G1 X7.661 Y0.400 Z-1.697
G1 X7.460 Y0.400 Z-1.622
G1 X7.258 Y0.400 Z-1.550
G1 X7.056 Y0.400 Z-1.479
G1 X6.855 Y0.400 Z-1.411
G1 X6.653 Y0.400 Z-1.345
G1 X6.452 Y0.400 Z-1.281
G1 X6.250 Y0.400 Z-1.220
G1 X6.048 Y0.400 Z-1.160
G1 X5.847 Y0.400 Z-1.103
G1 X5.645 Y0.400 Z-1.047
G1 X5.444 Y0.400 Z-0.994
G1 X5.242 Y0.400 Z-0.943
G1 X5.040 Y0.400 Z-0.893
G1 X4.839 Y0.400 Z-0.846
G1 X4.637 Y0.400 Z-0.801
G1 X4.435 Y0.400 Z-0.758
G1 X4.234 Y0.400 Z-0.717
G1 X4.032 Y0.400 Z-0.678
G1 X3.831 Y0.400 Z-0.641
G1 X3.629 Y0.400 Z-0.606
G1 X3.427 Y0.400 Z-0.572
G1 X3.226 Y0.400 Z-0.541
G1 X3.024 Y0.400 Z-0.512
G1 X2.823 Y0.400 Z-0.484
G1 X2.621 Y0.400 Z-0.459
G1 X2.419 Y0.400 Z-0.435
G1 X2.218 Y0.400 Z-0.414
G1 X2.016 Y0.400 Z-0.394
G1 X1.815 Y0.400 Z-0.376
G1 X1.613 Y0.400 Z-0.360
G1 X1.411 Y0.400 Z-0.346
G1 X1.210 Y0.400 Z-0.334
G1 X1.008 Y0.400 Z-0.323
G1 X0.806 Y0.400 Z-0.315
G1 X0.605 Y0.400 Z-0.308
G1 X0.403 Y0.400 Z-0.304
G1 X0.202 Y0.400 Z-0.301
G1 X0.000 Y0.400 Z-0.300

; Step 4: Center -> Left @ Y1
G1 X0.000 Y0.400 Z-0.300
G1 X-0.202 Y0.400 Z-0.301
G1 X-0.403 Y0.400 Z-0.304
G1 X-0.605 Y0.400 Z-0.308
G1 X-0.806 Y0.400 Z-0.315
G1 X-1.008 Y0.400 Z-0.323
G1 X-1.210 Y0.400 Z-0.334
G1 X-1.411 Y0.400 Z-0.346
G1 X-1.613 Y0.400 Z-0.360
G1 X-1.815 Y0.400 Z-0.376
G1 X-2.016 Y0.400 Z-0.394
G1 X-2.218 Y0.400 Z-0.414
G1 X-2.419 Y0.400 Z-0.435
G1 X-2.621 Y0.400 Z-0.459
G1 X-2.823 Y0.400 Z-0.484
G1 X-3.024 Y0.400 Z-0.512
G1 X-3.226 Y0.400 Z-0.541
G1 X-3.427 Y0.400 Z-0.572
G1 X-3.629 Y0.400 Z-0.606
G1 X-3.831 Y0.400 Z-0.641
G1 X-4.032 Y0.400 Z-0.678
G1 X-4.234 Y0.400 Z-0.717
G1 X-4.435 Y0.400 Z-0.758
G1 X-4.637 Y0.400 Z-0.801
G1 X-4.839 Y0.400 Z-0.846
G1 X-5.040 Y0.400 Z-0.893
G1 X-5.242 Y0.400 Z-0.943
G1 X-5.444 Y0.400 Z-0.994
G1 X-5.645 Y0.400 Z-1.047
G1 X-5.847 Y0.400 Z-1.103
G1 X-6.048 Y0.400 Z-1.160
G1 X-6.250 Y0.400 Z-1.220
G1 X-6.452 Y0.400 Z-1.281
G1 X-6.653 Y0.400 Z-1.345
G1 X-6.855 Y0.400 Z-1.411
G1 X-7.056 Y0.400 Z-1.479
G1 X-7.258 Y0.400 Z-1.550
G1 X-7.460 Y0.400 Z-1.622
G1 X-7.661 Y0.400 Z-1.697
G1 X-7.863 Y0.400 Z-1.775
G1 X-8.065 Y0.400 Z-1.854
G1 X-8.266 Y0.400 Z-1.936
G1 X-8.468 Y0.400 Z-2.020
G1 X-8.669 Y0.400 Z-2.107
G1 X-8.871 Y0.400 Z-2.196
G1 X-9.073 Y0.400 Z-2.288
G1 X-9.274 Y0.400 Z-2.382
G1 X-9.476 Y0.400 Z-2.478
G1 X-9.677 Y0.400 Z-2.577
G1 X-9.879 Y0.400 Z-2.679
G1 X-10.081 Y0.400 Z-2.784
G1 X-10.282 Y0.400 Z-2.891
G1 X-10.484 Y0.400 Z-3.001
G1 X-10.685 Y0.400 Z-3.113
G1 X-10.887 Y0.400 Z-3.229
G1 X-11.089 Y0.400 Z-3.347
G1 X-11.290 Y0.400 Z-3.468
G1 X-11.492 Y0.400 Z-3.593
G1 X-11.694 Y0.400 Z-3.720
G1 X-11.895 Y0.400 Z-3.851
G1 X-12.097 Y0.400 Z-3.985
G1 X-12.298 Y0.400 Z-4.122
G1 X-12.500 Y0.400 Z-4.262

; Step 5: Backward Y1 -> Y0 @ Left edge
G1 Y0.000

; Step 6: Left -> Center @ Y0
G1 X-12.500 Y0.000 Z-4.262
G1 X-12.298 Y0.000 Z-4.122
G1 X-12.097 Y0.000 Z-3.985
G1 X-11.895 Y0.000 Z-3.851
G1 X-11.694 Y0.000 Z-3.720
G1 X-11.492 Y0.000 Z-3.593
G1 X-11.290 Y0.000 Z-3.468
G1 X-11.089 Y0.000 Z-3.347
G1 X-10.887 Y0.000 Z-3.229
G1 X-10.685 Y0.000 Z-3.113
G1 X-10.484 Y0.000 Z-3.001
G1 X-10.282 Y0.000 Z-2.891
G1 X-10.081 Y0.000 Z-2.784
G1 X-9.879 Y0.000 Z-2.679
G1 X-9.677 Y0.000 Z-2.577
G1 X-9.476 Y0.000 Z-2.478
G1 X-9.274 Y0.000 Z-2.382
G1 X-9.073 Y0.000 Z-2.288
G1 X-8.871 Y0.000 Z-2.196
G1 X-8.669 Y0.000 Z-2.107
G1 X-8.468 Y0.000 Z-2.020
G1 X-8.266 Y0.000 Z-1.936
G1 X-8.065 Y0.000 Z-1.854
G1 X-7.863 Y0.000 Z-1.775
G1 X-7.661 Y0.000 Z-1.697
G1 X-7.460 Y0.000 Z-1.622
G1 X-7.258 Y0.000 Z-1.550
G1 X-7.056 Y0.000 Z-1.479
G1 X-6.855 Y0.000 Z-1.411
G1 X-6.653 Y0.000 Z-1.345
G1 X-6.452 Y0.000 Z-1.281
G1 X-6.250 Y0.000 Z-1.220
G1 X-6.048 Y0.000 Z-1.160
G1 X-5.847 Y0.000 Z-1.103
G1 X-5.645 Y0.000 Z-1.047
G1 X-5.444 Y0.000 Z-0.994
G1 X-5.242 Y0.000 Z-0.943
G1 X-5.040 Y0.000 Z-0.893
G1 X-4.839 Y0.000 Z-0.846
G1 X-4.637 Y0.000 Z-0.801
G1 X-4.435 Y0.000 Z-0.758
G1 X-4.234 Y0.000 Z-0.717
G1 X-4.032 Y0.000 Z-0.678
G1 X-3.831 Y0.000 Z-0.641
G1 X-3.629 Y0.000 Z-0.606
G1 X-3.427 Y0.000 Z-0.572
G1 X-3.226 Y0.000 Z-0.541
G1 X-3.024 Y0.000 Z-0.512
G1 X-2.823 Y0.000 Z-0.484
G1 X-2.621 Y0.000 Z-0.459
G1 X-2.419 Y0.000 Z-0.435
G1 X-2.218 Y0.000 Z-0.414
G1 X-2.016 Y0.000 Z-0.394
G1 X-1.815 Y0.000 Z-0.376
G1 X-1.613 Y0.000 Z-0.360
G1 X-1.411 Y0.000 Z-0.346
G1 X-1.210 Y0.000 Z-0.334
G1 X-1.008 Y0.000 Z-0.323
G1 X-0.806 Y0.000 Z-0.315
G1 X-0.605 Y0.000 Z-0.308
G1 X-0.403 Y0.000 Z-0.304
G1 X-0.202 Y0.000 Z-0.301
G1 X0.000 Y0.000 Z-0.300


; ====== Layer 4: Z = -0.4 ======
; R = 21.6, X = [-12.50, 12.50]
; Path: Center->Right->Forward->Center->Left->Backward->Center

; Step 1: Center -> Right @ Y0
G1 X0.000 Y0.000 Z-0.400
G1 X0.202 Y0.000 Z-0.401
G1 X0.403 Y0.000 Z-0.404
G1 X0.605 Y0.000 Z-0.408
G1 X0.806 Y0.000 Z-0.415
G1 X1.008 Y0.000 Z-0.424
G1 X1.210 Y0.000 Z-0.434
G1 X1.411 Y0.000 Z-0.446
G1 X1.613 Y0.000 Z-0.460
G1 X1.815 Y0.000 Z-0.476
G1 X2.016 Y0.000 Z-0.494
G1 X2.218 Y0.000 Z-0.514
G1 X2.419 Y0.000 Z-0.536
G1 X2.621 Y0.000 Z-0.560
G1 X2.823 Y0.000 Z-0.585
G1 X3.024 Y0.000 Z-0.613
G1 X3.226 Y0.000 Z-0.642
G1 X3.427 Y0.000 Z-0.674
G1 X3.629 Y0.000 Z-0.707
G1 X3.831 Y0.000 Z-0.742
G1 X4.032 Y0.000 Z-0.780
G1 X4.234 Y0.000 Z-0.819
G1 X4.435 Y0.000 Z-0.860
G1 X4.637 Y0.000 Z-0.904
G1 X4.839 Y0.000 Z-0.949
G1 X5.040 Y0.000 Z-0.996
G1 X5.242 Y0.000 Z-1.046
G1 X5.444 Y0.000 Z-1.097
G1 X5.645 Y0.000 Z-1.151
G1 X5.847 Y0.000 Z-1.206
G1 X6.048 Y0.000 Z-1.264
G1 X6.250 Y0.000 Z-1.324
G1 X6.452 Y0.000 Z-1.386
G1 X6.653 Y0.000 Z-1.450
G1 X6.855 Y0.000 Z-1.517
G1 X7.056 Y0.000 Z-1.585
G1 X7.258 Y0.000 Z-1.656
G1 X7.460 Y0.000 Z-1.729
G1 X7.661 Y0.000 Z-1.804
G1 X7.863 Y0.000 Z-1.882
G1 X8.065 Y0.000 Z-1.962
G1 X8.266 Y0.000 Z-2.044
G1 X8.468 Y0.000 Z-2.129
G1 X8.669 Y0.000 Z-2.216
G1 X8.871 Y0.000 Z-2.306
G1 X9.073 Y0.000 Z-2.398
G1 X9.274 Y0.000 Z-2.492
G1 X9.476 Y0.000 Z-2.589
G1 X9.677 Y0.000 Z-2.689
G1 X9.879 Y0.000 Z-2.792
G1 X10.081 Y0.000 Z-2.897
G1 X10.282 Y0.000 Z-3.004
G1 X10.484 Y0.000 Z-3.115
G1 X10.685 Y0.000 Z-3.228
G1 X10.887 Y0.000 Z-3.344
G1 X11.089 Y0.000 Z-3.464
G1 X11.290 Y0.000 Z-3.586
G1 X11.492 Y0.000 Z-3.711
G1 X11.694 Y0.000 Z-3.839
G1 X11.895 Y0.000 Z-3.970
G1 X12.097 Y0.000 Z-4.105
G1 X12.298 Y0.000 Z-4.243
G1 X12.500 Y0.000 Z-4.384

; Step 2: Forward Y0 -> Y1 @ Right edge
G1 Y0.400

; Step 3: Right -> Center @ Y1
G1 X12.500 Y0.400 Z-4.384
G1 X12.298 Y0.400 Z-4.243
G1 X12.097 Y0.400 Z-4.105
G1 X11.895 Y0.400 Z-3.970
G1 X11.694 Y0.400 Z-3.839
G1 X11.492 Y0.400 Z-3.711
G1 X11.290 Y0.400 Z-3.586
G1 X11.089 Y0.400 Z-3.464
G1 X10.887 Y0.400 Z-3.344
G1 X10.685 Y0.400 Z-3.228
G1 X10.484 Y0.400 Z-3.115
G1 X10.282 Y0.400 Z-3.004
G1 X10.081 Y0.400 Z-2.897
G1 X9.879 Y0.400 Z-2.792
G1 X9.677 Y0.400 Z-2.689
G1 X9.476 Y0.400 Z-2.589
G1 X9.274 Y0.400 Z-2.492
G1 X9.073 Y0.400 Z-2.398
G1 X8.871 Y0.400 Z-2.306
G1 X8.669 Y0.400 Z-2.216
G1 X8.468 Y0.400 Z-2.129
G1 X8.266 Y0.400 Z-2.044
G1 X8.065 Y0.400 Z-1.962
G1 X7.863 Y0.400 Z-1.882
G1 X7.661 Y0.400 Z-1.804
G1 X7.460 Y0.400 Z-1.729
G1 X7.258 Y0.400 Z-1.656
G1 X7.056 Y0.400 Z-1.585
G1 X6.855 Y0.400 Z-1.517
G1 X6.653 Y0.400 Z-1.450
G1 X6.452 Y0.400 Z-1.386
G1 X6.250 Y0.400 Z-1.324
G1 X6.048 Y0.400 Z-1.264
G1 X5.847 Y0.400 Z-1.206
G1 X5.645 Y0.400 Z-1.151
G1 X5.444 Y0.400 Z-1.097
G1 X5.242 Y0.400 Z-1.046
G1 X5.040 Y0.400 Z-0.996
G1 X4.839 Y0.400 Z-0.949
G1 X4.637 Y0.400 Z-0.904
G1 X4.435 Y0.400 Z-0.860
G1 X4.234 Y0.400 Z-0.819
G1 X4.032 Y0.400 Z-0.780
G1 X3.831 Y0.400 Z-0.742
G1 X3.629 Y0.400 Z-0.707
G1 X3.427 Y0.400 Z-0.674
G1 X3.226 Y0.400 Z-0.642
G1 X3.024 Y0.400 Z-0.613
G1 X2.823 Y0.400 Z-0.585
G1 X2.621 Y0.400 Z-0.560
G1 X2.419 Y0.400 Z-0.536
G1 X2.218 Y0.400 Z-0.514
G1 X2.016 Y0.400 Z-0.494
G1 X1.815 Y0.400 Z-0.476
G1 X1.613 Y0.400 Z-0.460
G1 X1.411 Y0.400 Z-0.446
G1 X1.210 Y0.400 Z-0.434
G1 X1.008 Y0.400 Z-0.424
G1 X0.806 Y0.400 Z-0.415
G1 X0.605 Y0.400 Z-0.408
G1 X0.403 Y0.400 Z-0.404
G1 X0.202 Y0.400 Z-0.401
G1 X0.000 Y0.400 Z-0.400

; Step 4: Center -> Left @ Y1
G1 X0.000 Y0.400 Z-0.400
G1 X-0.202 Y0.400 Z-0.401
G1 X-0.403 Y0.400 Z-0.404
G1 X-0.605 Y0.400 Z-0.408
G1 X-0.806 Y0.400 Z-0.415
G1 X-1.008 Y0.400 Z-0.424
G1 X-1.210 Y0.400 Z-0.434
G1 X-1.411 Y0.400 Z-0.446
G1 X-1.613 Y0.400 Z-0.460
G1 X-1.815 Y0.400 Z-0.476
G1 X-2.016 Y0.400 Z-0.494
G1 X-2.218 Y0.400 Z-0.514
G1 X-2.419 Y0.400 Z-0.536
G1 X-2.621 Y0.400 Z-0.560
G1 X-2.823 Y0.400 Z-0.585
G1 X-3.024 Y0.400 Z-0.613
G1 X-3.226 Y0.400 Z-0.642
G1 X-3.427 Y0.400 Z-0.674
G1 X-3.629 Y0.400 Z-0.707
G1 X-3.831 Y0.400 Z-0.742
G1 X-4.032 Y0.400 Z-0.780
G1 X-4.234 Y0.400 Z-0.819
G1 X-4.435 Y0.400 Z-0.860
G1 X-4.637 Y0.400 Z-0.904
G1 X-4.839 Y0.400 Z-0.949
G1 X-5.040 Y0.400 Z-0.996
G1 X-5.242 Y0.400 Z-1.046
G1 X-5.444 Y0.400 Z-1.097
G1 X-5.645 Y0.400 Z-1.151
G1 X-5.847 Y0.400 Z-1.206
G1 X-6.048 Y0.400 Z-1.264
G1 X-6.250 Y0.400 Z-1.324
G1 X-6.452 Y0.400 Z-1.386
G1 X-6.653 Y0.400 Z-1.450
G1 X-6.855 Y0.400 Z-1.517
G1 X-7.056 Y0.400 Z-1.585
G1 X-7.258 Y0.400 Z-1.656
G1 X-7.460 Y0.400 Z-1.729
G1 X-7.661 Y0.400 Z-1.804
G1 X-7.863 Y0.400 Z-1.882
G1 X-8.065 Y0.400 Z-1.962
G1 X-8.266 Y0.400 Z-2.044
G1 X-8.468 Y0.400 Z-2.129
G1 X-8.669 Y0.400 Z-2.216
G1 X-8.871 Y0.400 Z-2.306
G1 X-9.073 Y0.400 Z-2.398
G1 X-9.274 Y0.400 Z-2.492
G1 X-9.476 Y0.400 Z-2.589
G1 X-9.677 Y0.400 Z-2.689
G1 X-9.879 Y0.400 Z-2.792
G1 X-10.081 Y0.400 Z-2.897
G1 X-10.282 Y0.400 Z-3.004
G1 X-10.484 Y0.400 Z-3.115
G1 X-10.685 Y0.400 Z-3.228
G1 X-10.887 Y0.400 Z-3.344
G1 X-11.089 Y0.400 Z-3.464
G1 X-11.290 Y0.400 Z-3.586
G1 X-11.492 Y0.400 Z-3.711
G1 X-11.694 Y0.400 Z-3.839
G1 X-11.895 Y0.400 Z-3.970
G1 X-12.097 Y0.400 Z-4.105
G1 X-12.298 Y0.400 Z-4.243
G1 X-12.500 Y0.400 Z-4.384

; Step 5: Backward Y1 -> Y0 @ Left edge
G1 Y0.000

; Step 6: Left -> Center @ Y0
G1 X-12.500 Y0.000 Z-4.384
G1 X-12.298 Y0.000 Z-4.243
G1 X-12.097 Y0.000 Z-4.105
G1 X-11.895 Y0.000 Z-3.970
G1 X-11.694 Y0.000 Z-3.839
G1 X-11.492 Y0.000 Z-3.711
G1 X-11.290 Y0.000 Z-3.586
G1 X-11.089 Y0.000 Z-3.464
G1 X-10.887 Y0.000 Z-3.344
G1 X-10.685 Y0.000 Z-3.228
G1 X-10.484 Y0.000 Z-3.115
G1 X-10.282 Y0.000 Z-3.004
G1 X-10.081 Y0.000 Z-2.897
G1 X-9.879 Y0.000 Z-2.792
G1 X-9.677 Y0.000 Z-2.689
G1 X-9.476 Y0.000 Z-2.589
G1 X-9.274 Y0.000 Z-2.492
G1 X-9.073 Y0.000 Z-2.398
G1 X-8.871 Y0.000 Z-2.306
G1 X-8.669 Y0.000 Z-2.216
G1 X-8.468 Y0.000 Z-2.129
G1 X-8.266 Y0.000 Z-2.044
G1 X-8.065 Y0.000 Z-1.962
G1 X-7.863 Y0.000 Z-1.882
G1 X-7.661 Y0.000 Z-1.804
G1 X-7.460 Y0.000 Z-1.729
G1 X-7.258 Y0.000 Z-1.656
G1 X-7.056 Y0.000 Z-1.585
G1 X-6.855 Y0.000 Z-1.517
G1 X-6.653 Y0.000 Z-1.450
G1 X-6.452 Y0.000 Z-1.386
G1 X-6.250 Y0.000 Z-1.324
G1 X-6.048 Y0.000 Z-1.264
G1 X-5.847 Y0.000 Z-1.206
G1 X-5.645 Y0.000 Z-1.151
G1 X-5.444 Y0.000 Z-1.097
G1 X-5.242 Y0.000 Z-1.046
G1 X-5.040 Y0.000 Z-0.996
G1 X-4.839 Y0.000 Z-0.949
G1 X-4.637 Y0.000 Z-0.904
G1 X-4.435 Y0.000 Z-0.860
G1 X-4.234 Y0.000 Z-0.819
G1 X-4.032 Y0.000 Z-0.780
G1 X-3.831 Y0.000 Z-0.742
G1 X-3.629 Y0.000 Z-0.707
G1 X-3.427 Y0.000 Z-0.674
G1 X-3.226 Y0.000 Z-0.642
G1 X-3.024 Y0.000 Z-0.613
G1 X-2.823 Y0.000 Z-0.585
G1 X-2.621 Y0.000 Z-0.560
G1 X-2.419 Y0.000 Z-0.536
G1 X-2.218 Y0.000 Z-0.514
G1 X-2.016 Y0.000 Z-0.494
G1 X-1.815 Y0.000 Z-0.476
G1 X-1.613 Y0.000 Z-0.460
G1 X-1.411 Y0.000 Z-0.446
G1 X-1.210 Y0.000 Z-0.434
G1 X-1.008 Y0.000 Z-0.424
G1 X-0.806 Y0.000 Z-0.415
G1 X-0.605 Y0.000 Z-0.408
G1 X-0.403 Y0.000 Z-0.404
G1 X-0.202 Y0.000 Z-0.401
G1 X0.000 Y0.000 Z-0.400


; ====== Layer 5: Z = -0.5 ======
; R = 21.5, X = [-12.50, 12.50]
; Path: Center->Right->Forward->Center->Left->Backward->Center

; Step 1: Center -> Right @ Y0
G1 X0.000 Y0.000 Z-0.500
G1 X0.202 Y0.000 Z-0.501
G1 X0.403 Y0.000 Z-0.504
G1 X0.605 Y0.000 Z-0.509
G1 X0.806 Y0.000 Z-0.515
G1 X1.008 Y0.000 Z-0.524
G1 X1.210 Y0.000 Z-0.534
G1 X1.411 Y0.000 Z-0.546
G1 X1.613 Y0.000 Z-0.561
G1 X1.815 Y0.000 Z-0.577
G1 X2.016 Y0.000 Z-0.595
G1 X2.218 Y0.000 Z-0.615
G1 X2.419 Y0.000 Z-0.637
G1 X2.621 Y0.000 Z-0.660
G1 X2.823 Y0.000 Z-0.686
G1 X3.024 Y0.000 Z-0.714
G1 X3.226 Y0.000 Z-0.743
G1 X3.427 Y0.000 Z-0.775
G1 X3.629 Y0.000 Z-0.808
G1 X3.831 Y0.000 Z-0.844
G1 X4.032 Y0.000 Z-0.882
G1 X4.234 Y0.000 Z-0.921
G1 X4.435 Y0.000 Z-0.962
G1 X4.637 Y0.000 Z-1.006
G1 X4.839 Y0.000 Z-1.052
G1 X5.040 Y0.000 Z-1.099
G1 X5.242 Y0.000 Z-1.149
G1 X5.444 Y0.000 Z-1.201
G1 X5.645 Y0.000 Z-1.254
G1 X5.847 Y0.000 Z-1.310
G1 X6.048 Y0.000 Z-1.368
G1 X6.250 Y0.000 Z-1.428
G1 X6.452 Y0.000 Z-1.491
G1 X6.653 Y0.000 Z-1.555
G1 X6.855 Y0.000 Z-1.622
G1 X7.056 Y0.000 Z-1.691
G1 X7.258 Y0.000 Z-1.762
G1 X7.460 Y0.000 Z-1.836
G1 X7.661 Y0.000 Z-1.911
G1 X7.863 Y0.000 Z-1.989
G1 X8.065 Y0.000 Z-2.070
G1 X8.266 Y0.000 Z-2.153
G1 X8.468 Y0.000 Z-2.238
G1 X8.669 Y0.000 Z-2.325
G1 X8.871 Y0.000 Z-2.415
G1 X9.073 Y0.000 Z-2.508
G1 X9.274 Y0.000 Z-2.603
G1 X9.476 Y0.000 Z-2.701
G1 X9.677 Y0.000 Z-2.801
G1 X9.879 Y0.000 Z-2.904
G1 X10.081 Y0.000 Z-3.010
G1 X10.282 Y0.000 Z-3.118
G1 X10.484 Y0.000 Z-3.229
G1 X10.685 Y0.000 Z-3.343
G1 X10.887 Y0.000 Z-3.460
G1 X11.089 Y0.000 Z-3.580
G1 X11.290 Y0.000 Z-3.703
G1 X11.492 Y0.000 Z-3.829
G1 X11.694 Y0.000 Z-3.958
G1 X11.895 Y0.000 Z-4.090
G1 X12.097 Y0.000 Z-4.226
G1 X12.298 Y0.000 Z-4.365
G1 X12.500 Y0.000 Z-4.507

; Step 2: Forward Y0 -> Y1 @ Right edge
G1 Y0.400

; Step 3: Right -> Center @ Y1
G1 X12.500 Y0.400 Z-4.507
G1 X12.298 Y0.400 Z-4.365
G1 X12.097 Y0.400 Z-4.226
G1 X11.895 Y0.400 Z-4.090
G1 X11.694 Y0.400 Z-3.958
G1 X11.492 Y0.400 Z-3.829
G1 X11.290 Y0.400 Z-3.703
G1 X11.089 Y0.400 Z-3.580
G1 X10.887 Y0.400 Z-3.460
G1 X10.685 Y0.400 Z-3.343
G1 X10.484 Y0.400 Z-3.229
G1 X10.282 Y0.400 Z-3.118
G1 X10.081 Y0.400 Z-3.010
G1 X9.879 Y0.400 Z-2.904
G1 X9.677 Y0.400 Z-2.801
G1 X9.476 Y0.400 Z-2.701
G1 X9.274 Y0.400 Z-2.603
G1 X9.073 Y0.400 Z-2.508
G1 X8.871 Y0.400 Z-2.415
G1 X8.669 Y0.400 Z-2.325
G1 X8.468 Y0.400 Z-2.238
G1 X8.266 Y0.400 Z-2.153
G1 X8.065 Y0.400 Z-2.070
G1 X7.863 Y0.400 Z-1.989
G1 X7.661 Y0.400 Z-1.911
G1 X7.460 Y0.400 Z-1.836
G1 X7.258 Y0.400 Z-1.762
G1 X7.056 Y0.400 Z-1.691
G1 X6.855 Y0.400 Z-1.622
G1 X6.653 Y0.400 Z-1.555
G1 X6.452 Y0.400 Z-1.491
G1 X6.250 Y0.400 Z-1.428
G1 X6.048 Y0.400 Z-1.368
G1 X5.847 Y0.400 Z-1.310
G1 X5.645 Y0.400 Z-1.254
G1 X5.444 Y0.400 Z-1.201
G1 X5.242 Y0.400 Z-1.149
G1 X5.040 Y0.400 Z-1.099
G1 X4.839 Y0.400 Z-1.052
G1 X4.637 Y0.400 Z-1.006
G1 X4.435 Y0.400 Z-0.962
G1 X4.234 Y0.400 Z-0.921
G1 X4.032 Y0.400 Z-0.882
G1 X3.831 Y0.400 Z-0.844
G1 X3.629 Y0.400 Z-0.808
G1 X3.427 Y0.400 Z-0.775
G1 X3.226 Y0.400 Z-0.743
G1 X3.024 Y0.400 Z-0.714
G1 X2.823 Y0.400 Z-0.686
G1 X2.621 Y0.400 Z-0.660
G1 X2.419 Y0.400 Z-0.637
G1 X2.218 Y0.400 Z-0.615
G1 X2.016 Y0.400 Z-0.595
G1 X1.815 Y0.400 Z-0.577
G1 X1.613 Y0.400 Z-0.561
G1 X1.411 Y0.400 Z-0.546
G1 X1.210 Y0.400 Z-0.534
G1 X1.008 Y0.400 Z-0.524
G1 X0.806 Y0.400 Z-0.515
G1 X0.605 Y0.400 Z-0.509
G1 X0.403 Y0.400 Z-0.504
G1 X0.202 Y0.400 Z-0.501
G1 X0.000 Y0.400 Z-0.500

; Step 4: Center -> Left @ Y1
G1 X0.000 Y0.400 Z-0.500
G1 X-0.202 Y0.400 Z-0.501
G1 X-0.403 Y0.400 Z-0.504
G1 X-0.605 Y0.400 Z-0.509
G1 X-0.806 Y0.400 Z-0.515
G1 X-1.008 Y0.400 Z-0.524
G1 X-1.210 Y0.400 Z-0.534
G1 X-1.411 Y0.400 Z-0.546
G1 X-1.613 Y0.400 Z-0.561
G1 X-1.815 Y0.400 Z-0.577
G1 X-2.016 Y0.400 Z-0.595
G1 X-2.218 Y0.400 Z-0.615
G1 X-2.419 Y0.400 Z-0.637
G1 X-2.621 Y0.400 Z-0.660
G1 X-2.823 Y0.400 Z-0.686
G1 X-3.024 Y0.400 Z-0.714
G1 X-3.226 Y0.400 Z-0.743
G1 X-3.427 Y0.400 Z-0.775
G1 X-3.629 Y0.400 Z-0.808
G1 X-3.831 Y0.400 Z-0.844
G1 X-4.032 Y0.400 Z-0.882
G1 X-4.234 Y0.400 Z-0.921
G1 X-4.435 Y0.400 Z-0.962
G1 X-4.637 Y0.400 Z-1.006
G1 X-4.839 Y0.400 Z-1.052
G1 X-5.040 Y0.400 Z-1.099
G1 X-5.242 Y0.400 Z-1.149
G1 X-5.444 Y0.400 Z-1.201
G1 X-5.645 Y0.400 Z-1.254
G1 X-5.847 Y0.400 Z-1.310
G1 X-6.048 Y0.400 Z-1.368
G1 X-6.250 Y0.400 Z-1.428
G1 X-6.452 Y0.400 Z-1.491
G1 X-6.653 Y0.400 Z-1.555
G1 X-6.855 Y0.400 Z-1.622
G1 X-7.056 Y0.400 Z-1.691
G1 X-7.258 Y0.400 Z-1.762
G1 X-7.460 Y0.400 Z-1.836
G1 X-7.661 Y0.400 Z-1.911
G1 X-7.863 Y0.400 Z-1.989
G1 X-8.065 Y0.400 Z-2.070
G1 X-8.266 Y0.400 Z-2.153
G1 X-8.468 Y0.400 Z-2.238
G1 X-8.669 Y0.400 Z-2.325
G1 X-8.871 Y0.400 Z-2.415
G1 X-9.073 Y0.400 Z-2.508
G1 X-9.274 Y0.400 Z-2.603
G1 X-9.476 Y0.400 Z-2.701
G1 X-9.677 Y0.400 Z-2.801
G1 X-9.879 Y0.400 Z-2.904
G1 X-10.081 Y0.400 Z-3.010
G1 X-10.282 Y0.400 Z-3.118
G1 X-10.484 Y0.400 Z-3.229
G1 X-10.685 Y0.400 Z-3.343
G1 X-10.887 Y0.400 Z-3.460
G1 X-11.089 Y0.400 Z-3.580
G1 X-11.290 Y0.400 Z-3.703
G1 X-11.492 Y0.400 Z-3.829
G1 X-11.694 Y0.400 Z-3.958
G1 X-11.895 Y0.400 Z-4.090
G1 X-12.097 Y0.400 Z-4.226
G1 X-12.298 Y0.400 Z-4.365
G1 X-12.500 Y0.400 Z-4.507

; Step 5: Backward Y1 -> Y0 @ Left edge
G1 Y0.000

; Step 6: Left -> Center @ Y0
G1 X-12.500 Y0.000 Z-4.507
G1 X-12.298 Y0.000 Z-4.365
G1 X-12.097 Y0.000 Z-4.226
G1 X-11.895 Y0.000 Z-4.090
G1 X-11.694 Y0.000 Z-3.958
G1 X-11.492 Y0.000 Z-3.829
G1 X-11.290 Y0.000 Z-3.703
G1 X-11.089 Y0.000 Z-3.580
G1 X-10.887 Y0.000 Z-3.460
G1 X-10.685 Y0.000 Z-3.343
G1 X-10.484 Y0.000 Z-3.229
G1 X-10.282 Y0.000 Z-3.118
G1 X-10.081 Y0.000 Z-3.010
G1 X-9.879 Y0.000 Z-2.904
G1 X-9.677 Y0.000 Z-2.801
G1 X-9.476 Y0.000 Z-2.701
G1 X-9.274 Y0.000 Z-2.603
G1 X-9.073 Y0.000 Z-2.508
G1 X-8.871 Y0.000 Z-2.415
G1 X-8.669 Y0.000 Z-2.325
G1 X-8.468 Y0.000 Z-2.238
G1 X-8.266 Y0.000 Z-2.153
G1 X-8.065 Y0.000 Z-2.070
G1 X-7.863 Y0.000 Z-1.989
G1 X-7.661 Y0.000 Z-1.911
G1 X-7.460 Y0.000 Z-1.836
G1 X-7.258 Y0.000 Z-1.762
G1 X-7.056 Y0.000 Z-1.691
G1 X-6.855 Y0.000 Z-1.622
G1 X-6.653 Y0.000 Z-1.555
G1 X-6.452 Y0.000 Z-1.491
G1 X-6.250 Y0.000 Z-1.428
G1 X-6.048 Y0.000 Z-1.368
G1 X-5.847 Y0.000 Z-1.310
G1 X-5.645 Y0.000 Z-1.254
G1 X-5.444 Y0.000 Z-1.201
G1 X-5.242 Y0.000 Z-1.149
G1 X-5.040 Y0.000 Z-1.099
G1 X-4.839 Y0.000 Z-1.052
G1 X-4.637 Y0.000 Z-1.006
G1 X-4.435 Y0.000 Z-0.962
G1 X-4.234 Y0.000 Z-0.921
G1 X-4.032 Y0.000 Z-0.882
G1 X-3.831 Y0.000 Z-0.844
G1 X-3.629 Y0.000 Z-0.808
G1 X-3.427 Y0.000 Z-0.775
G1 X-3.226 Y0.000 Z-0.743
G1 X-3.024 Y0.000 Z-0.714
G1 X-2.823 Y0.000 Z-0.686
G1 X-2.621 Y0.000 Z-0.660
G1 X-2.419 Y0.000 Z-0.637
G1 X-2.218 Y0.000 Z-0.615
G1 X-2.016 Y0.000 Z-0.595
G1 X-1.815 Y0.000 Z-0.577
G1 X-1.613 Y0.000 Z-0.561
G1 X-1.411 Y0.000 Z-0.546
G1 X-1.210 Y0.000 Z-0.534
G1 X-1.008 Y0.000 Z-0.524
G1 X-0.806 Y0.000 Z-0.515
G1 X-0.605 Y0.000 Z-0.509
G1 X-0.403 Y0.000 Z-0.504
G1 X-0.202 Y0.000 Z-0.501
G1 X0.000 Y0.000 Z-0.500


; ====== Layer 6: Z = -0.6 ======
; R = 21.4, X = [-12.50, 12.50]
; Path: Center->Right->Forward->Center->Left->Backward->Center

; Step 1: Center -> Right @ Y0
G1 X0.000 Y0.000 Z-0.600
G1 X0.202 Y0.000 Z-0.601
G1 X0.403 Y0.000 Z-0.604
G1 X0.605 Y0.000 Z-0.609
G1 X0.806 Y0.000 Z-0.615
G1 X1.008 Y0.000 Z-0.624
G1 X1.210 Y0.000 Z-0.634
G1 X1.411 Y0.000 Z-0.647
G1 X1.613 Y0.000 Z-0.661
G1 X1.815 Y0.000 Z-0.677
G1 X2.016 Y0.000 Z-0.695
G1 X2.218 Y0.000 Z-0.715
G1 X2.419 Y0.000 Z-0.737
G1 X2.621 Y0.000 Z-0.761
G1 X2.823 Y0.000 Z-0.787
G1 X3.024 Y0.000 Z-0.815
G1 X3.226 Y0.000 Z-0.845
G1 X3.427 Y0.000 Z-0.876
G1 X3.629 Y0.000 Z-0.910
G1 X3.831 Y0.000 Z-0.946
G1 X4.032 Y0.000 Z-0.983
G1 X4.234 Y0.000 Z-1.023
G1 X4.435 Y0.000 Z-1.065
G1 X4.637 Y0.000 Z-1.108
G1 X4.839 Y0.000 Z-1.154
G1 X5.040 Y0.000 Z-1.202
G1 X5.242 Y0.000 Z-1.252
G1 X5.444 Y0.000 Z-1.304
G1 X5.645 Y0.000 Z-1.358
G1 X5.847 Y0.000 Z-1.414
G1 X6.048 Y0.000 Z-1.473
G1 X6.250 Y0.000 Z-1.533
G1 X6.452 Y0.000 Z-1.596
G1 X6.653 Y0.000 Z-1.661
G1 X6.855 Y0.000 Z-1.728
G1 X7.056 Y0.000 Z-1.797
G1 X7.258 Y0.000 Z-1.868
G1 X7.460 Y0.000 Z-1.942
G1 X7.661 Y0.000 Z-2.018
G1 X7.863 Y0.000 Z-2.097
G1 X8.065 Y0.000 Z-2.178
G1 X8.266 Y0.000 Z-2.261
G1 X8.468 Y0.000 Z-2.347
G1 X8.669 Y0.000 Z-2.435
G1 X8.871 Y0.000 Z-2.525
G1 X9.073 Y0.000 Z-2.618
G1 X9.274 Y0.000 Z-2.714
G1 X9.476 Y0.000 Z-2.812
G1 X9.677 Y0.000 Z-2.913
G1 X9.879 Y0.000 Z-3.017
G1 X10.081 Y0.000 Z-3.123
G1 X10.282 Y0.000 Z-3.232
G1 X10.484 Y0.000 Z-3.344
G1 X10.685 Y0.000 Z-3.459
G1 X10.887 Y0.000 Z-3.576
G1 X11.089 Y0.000 Z-3.697
G1 X11.290 Y0.000 Z-3.821
G1 X11.492 Y0.000 Z-3.947
G1 X11.694 Y0.000 Z-4.077
G1 X11.895 Y0.000 Z-4.211
G1 X12.097 Y0.000 Z-4.347
G1 X12.298 Y0.000 Z-4.487
G1 X12.500 Y0.000 Z-4.630

; Step 2: Forward Y0 -> Y1 @ Right edge
G1 Y0.400

; Step 3: Right -> Center @ Y1
G1 X12.500 Y0.400 Z-4.630
G1 X12.298 Y0.400 Z-4.487
G1 X12.097 Y0.400 Z-4.347
G1 X11.895 Y0.400 Z-4.211
G1 X11.694 Y0.400 Z-4.077
G1 X11.492 Y0.400 Z-3.947
G1 X11.290 Y0.400 Z-3.821
G1 X11.089 Y0.400 Z-3.697
G1 X10.887 Y0.400 Z-3.576
G1 X10.685 Y0.400 Z-3.459
G1 X10.484 Y0.400 Z-3.344
G1 X10.282 Y0.400 Z-3.232
G1 X10.081 Y0.400 Z-3.123
G1 X9.879 Y0.400 Z-3.017
G1 X9.677 Y0.400 Z-2.913
G1 X9.476 Y0.400 Z-2.812
G1 X9.274 Y0.400 Z-2.714
G1 X9.073 Y0.400 Z-2.618
G1 X8.871 Y0.400 Z-2.525
G1 X8.669 Y0.400 Z-2.435
G1 X8.468 Y0.400 Z-2.347
G1 X8.266 Y0.400 Z-2.261
G1 X8.065 Y0.400 Z-2.178
G1 X7.863 Y0.400 Z-2.097
G1 X7.661 Y0.400 Z-2.018
G1 X7.460 Y0.400 Z-1.942
G1 X7.258 Y0.400 Z-1.868
G1 X7.056 Y0.400 Z-1.797
G1 X6.855 Y0.400 Z-1.728
G1 X6.653 Y0.400 Z-1.661
G1 X6.452 Y0.400 Z-1.596
G1 X6.250 Y0.400 Z-1.533
G1 X6.048 Y0.400 Z-1.473
G1 X5.847 Y0.400 Z-1.414
G1 X5.645 Y0.400 Z-1.358
G1 X5.444 Y0.400 Z-1.304
G1 X5.242 Y0.400 Z-1.252
G1 X5.040 Y0.400 Z-1.202
G1 X4.839 Y0.400 Z-1.154
G1 X4.637 Y0.400 Z-1.108
G1 X4.435 Y0.400 Z-1.065
G1 X4.234 Y0.400 Z-1.023
G1 X4.032 Y0.400 Z-0.983
G1 X3.831 Y0.400 Z-0.946
G1 X3.629 Y0.400 Z-0.910
G1 X3.427 Y0.400 Z-0.876
G1 X3.226 Y0.400 Z-0.845
G1 X3.024 Y0.400 Z-0.815
G1 X2.823 Y0.400 Z-0.787
G1 X2.621 Y0.400 Z-0.761
G1 X2.419 Y0.400 Z-0.737
G1 X2.218 Y0.400 Z-0.715
G1 X2.016 Y0.400 Z-0.695
G1 X1.815 Y0.400 Z-0.677
G1 X1.613 Y0.400 Z-0.661
G1 X1.411 Y0.400 Z-0.647
G1 X1.210 Y0.400 Z-0.634
G1 X1.008 Y0.400 Z-0.624
G1 X0.806 Y0.400 Z-0.615
G1 X0.605 Y0.400 Z-0.609
G1 X0.403 Y0.400 Z-0.604
G1 X0.202 Y0.400 Z-0.601
G1 X0.000 Y0.400 Z-0.600

; Step 4: Center -> Left @ Y1
G1 X0.000 Y0.400 Z-0.600
G1 X-0.202 Y0.400 Z-0.601
G1 X-0.403 Y0.400 Z-0.604
G1 X-0.605 Y0.400 Z-0.609
G1 X-0.806 Y0.400 Z-0.615
G1 X-1.008 Y0.400 Z-0.624
G1 X-1.210 Y0.400 Z-0.634
G1 X-1.411 Y0.400 Z-0.647
G1 X-1.613 Y0.400 Z-0.661
G1 X-1.815 Y0.400 Z-0.677
G1 X-2.016 Y0.400 Z-0.695
G1 X-2.218 Y0.400 Z-0.715
G1 X-2.419 Y0.400 Z-0.737
G1 X-2.621 Y0.400 Z-0.761
G1 X-2.823 Y0.400 Z-0.787
G1 X-3.024 Y0.400 Z-0.815
G1 X-3.226 Y0.400 Z-0.845
G1 X-3.427 Y0.400 Z-0.876
G1 X-3.629 Y0.400 Z-0.910
G1 X-3.831 Y0.400 Z-0.946
G1 X-4.032 Y0.400 Z-0.983
G1 X-4.234 Y0.400 Z-1.023
G1 X-4.435 Y0.400 Z-1.065
G1 X-4.637 Y0.400 Z-1.108
G1 X-4.839 Y0.400 Z-1.154
G1 X-5.040 Y0.400 Z-1.202
G1 X-5.242 Y0.400 Z-1.252
G1 X-5.444 Y0.400 Z-1.304
G1 X-5.645 Y0.400 Z-1.358
G1 X-5.847 Y0.400 Z-1.414
G1 X-6.048 Y0.400 Z-1.473
G1 X-6.250 Y0.400 Z-1.533
G1 X-6.452 Y0.400 Z-1.596
G1 X-6.653 Y0.400 Z-1.661
G1 X-6.855 Y0.400 Z-1.728
G1 X-7.056 Y0.400 Z-1.797
G1 X-7.258 Y0.400 Z-1.868
G1 X-7.460 Y0.400 Z-1.942
G1 X-7.661 Y0.400 Z-2.018
G1 X-7.863 Y0.400 Z-2.097
G1 X-8.065 Y0.400 Z-2.178
G1 X-8.266 Y0.400 Z-2.261
G1 X-8.468 Y0.400 Z-2.347
G1 X-8.669 Y0.400 Z-2.435
G1 X-8.871 Y0.400 Z-2.525
G1 X-9.073 Y0.400 Z-2.618
G1 X-9.274 Y0.400 Z-2.714
G1 X-9.476 Y0.400 Z-2.812
G1 X-9.677 Y0.400 Z-2.913
G1 X-9.879 Y0.400 Z-3.017
G1 X-10.081 Y0.400 Z-3.123
G1 X-10.282 Y0.400 Z-3.232
G1 X-10.484 Y0.400 Z-3.344
G1 X-10.685 Y0.400 Z-3.459
G1 X-10.887 Y0.400 Z-3.576
G1 X-11.089 Y0.400 Z-3.697
G1 X-11.290 Y0.400 Z-3.821
G1 X-11.492 Y0.400 Z-3.947
G1 X-11.694 Y0.400 Z-4.077
G1 X-11.895 Y0.400 Z-4.211
G1 X-12.097 Y0.400 Z-4.347
G1 X-12.298 Y0.400 Z-4.487
G1 X-12.500 Y0.400 Z-4.630

; Step 5: Backward Y1 -> Y0 @ Left edge
G1 Y0.000

; Step 6: Left -> Center @ Y0
G1 X-12.500 Y0.000 Z-4.630
G1 X-12.298 Y0.000 Z-4.487
G1 X-12.097 Y0.000 Z-4.347
G1 X-11.895 Y0.000 Z-4.211
G1 X-11.694 Y0.000 Z-4.077
G1 X-11.492 Y0.000 Z-3.947
G1 X-11.290 Y0.000 Z-3.821
G1 X-11.089 Y0.000 Z-3.697
G1 X-10.887 Y0.000 Z-3.576
G1 X-10.685 Y0.000 Z-3.459
G1 X-10.484 Y0.000 Z-3.344
G1 X-10.282 Y0.000 Z-3.232
G1 X-10.081 Y0.000 Z-3.123
G1 X-9.879 Y0.000 Z-3.017
G1 X-9.677 Y0.000 Z-2.913
G1 X-9.476 Y0.000 Z-2.812
G1 X-9.274 Y0.000 Z-2.714
G1 X-9.073 Y0.000 Z-2.618
G1 X-8.871 Y0.000 Z-2.525
G1 X-8.669 Y0.000 Z-2.435
G1 X-8.468 Y0.000 Z-2.347
G1 X-8.266 Y0.000 Z-2.261
G1 X-8.065 Y0.000 Z-2.178
G1 X-7.863 Y0.000 Z-2.097
G1 X-7.661 Y0.000 Z-2.018
G1 X-7.460 Y0.000 Z-1.942
G1 X-7.258 Y0.000 Z-1.868
G1 X-7.056 Y0.000 Z-1.797
G1 X-6.855 Y0.000 Z-1.728
G1 X-6.653 Y0.000 Z-1.661
G1 X-6.452 Y0.000 Z-1.596
G1 X-6.250 Y0.000 Z-1.533
G1 X-6.048 Y0.000 Z-1.473
G1 X-5.847 Y0.000 Z-1.414
G1 X-5.645 Y0.000 Z-1.358
G1 X-5.444 Y0.000 Z-1.304
G1 X-5.242 Y0.000 Z-1.252
G1 X-5.040 Y0.000 Z-1.202
G1 X-4.839 Y0.000 Z-1.154
G1 X-4.637 Y0.000 Z-1.108
G1 X-4.435 Y0.000 Z-1.065
G1 X-4.234 Y0.000 Z-1.023
G1 X-4.032 Y0.000 Z-0.983
G1 X-3.831 Y0.000 Z-0.946
G1 X-3.629 Y0.000 Z-0.910
G1 X-3.427 Y0.000 Z-0.876
G1 X-3.226 Y0.000 Z-0.845
G1 X-3.024 Y0.000 Z-0.815
G1 X-2.823 Y0.000 Z-0.787
G1 X-2.621 Y0.000 Z-0.761
G1 X-2.419 Y0.000 Z-0.737
G1 X-2.218 Y0.000 Z-0.715
G1 X-2.016 Y0.000 Z-0.695
G1 X-1.815 Y0.000 Z-0.677
G1 X-1.613 Y0.000 Z-0.661
G1 X-1.411 Y0.000 Z-0.647
G1 X-1.210 Y0.000 Z-0.634
G1 X-1.008 Y0.000 Z-0.624
G1 X-0.806 Y0.000 Z-0.615
G1 X-0.605 Y0.000 Z-0.609
G1 X-0.403 Y0.000 Z-0.604
G1 X-0.202 Y0.000 Z-0.601
G1 X0.000 Y0.000 Z-0.600


; ====== Layer 7: Z = -0.7 ======
; R = 21.3, X = [-12.50, 12.50]
; Path: Center->Right->Forward->Center->Left->Backward->Center

; Step 1: Center -> Right @ Y0
G1 X0.000 Y0.000 Z-0.700
G1 X0.202 Y0.000 Z-0.701
G1 X0.403 Y0.000 Z-0.704
G1 X0.605 Y0.000 Z-0.709
G1 X0.806 Y0.000 Z-0.715
G1 X1.008 Y0.000 Z-0.724
G1 X1.210 Y0.000 Z-0.734
G1 X1.411 Y0.000 Z-0.747
G1 X1.613 Y0.000 Z-0.761
G1 X1.815 Y0.000 Z-0.777
G1 X2.016 Y0.000 Z-0.796
G1 X2.218 Y0.000 Z-0.816
G1 X2.419 Y0.000 Z-0.838
G1 X2.621 Y0.000 Z-0.862
G1 X2.823 Y0.000 Z-0.888
G1 X3.024 Y0.000 Z-0.916
G1 X3.226 Y0.000 Z-0.946
G1 X3.427 Y0.000 Z-0.978
G1 X3.629 Y0.000 Z-1.011
G1 X3.831 Y0.000 Z-1.047
G1 X4.032 Y0.000 Z-1.085
G1 X4.234 Y0.000 Z-1.125
G1 X4.435 Y0.000 Z-1.167
G1 X4.637 Y0.000 Z-1.211
G1 X4.839 Y0.000 Z-1.257
G1 X5.040 Y0.000 Z-1.305
G1 X5.242 Y0.000 Z-1.355
G1 X5.444 Y0.000 Z-1.407
G1 X5.645 Y0.000 Z-1.462
G1 X5.847 Y0.000 Z-1.518
G1 X6.048 Y0.000 Z-1.577
G1 X6.250 Y0.000 Z-1.638
G1 X6.452 Y0.000 Z-1.701
G1 X6.653 Y0.000 Z-1.766
G1 X6.855 Y0.000 Z-1.833
G1 X7.056 Y0.000 Z-1.903
G1 X7.258 Y0.000 Z-1.975
G1 X7.460 Y0.000 Z-2.049
G1 X7.661 Y0.000 Z-2.126
G1 X7.863 Y0.000 Z-2.204
G1 X8.065 Y0.000 Z-2.286
G1 X8.266 Y0.000 Z-2.369
G1 X8.468 Y0.000 Z-2.456
G1 X8.669 Y0.000 Z-2.544
G1 X8.871 Y0.000 Z-2.635
G1 X9.073 Y0.000 Z-2.729
G1 X9.274 Y0.000 Z-2.825
G1 X9.476 Y0.000 Z-2.924
G1 X9.677 Y0.000 Z-3.025
G1 X9.879 Y0.000 Z-3.130
G1 X10.081 Y0.000 Z-3.236
G1 X10.282 Y0.000 Z-3.346
G1 X10.484 Y0.000 Z-3.459
G1 X10.685 Y0.000 Z-3.574
G1 X10.887 Y0.000 Z-3.693
G1 X11.089 Y0.000 Z-3.814
G1 X11.290 Y0.000 Z-3.938
G1 X11.492 Y0.000 Z-4.066
G1 X11.694 Y0.000 Z-4.197
G1 X11.895 Y0.000 Z-4.331
G1 X12.097 Y0.000 Z-4.468
G1 X12.298 Y0.000 Z-4.609
G1 X12.500 Y0.000 Z-4.754

; Step 2: Forward Y0 -> Y1 @ Right edge
G1 Y0.400

; Step 3: Right -> Center @ Y1
G1 X12.500 Y0.400 Z-4.754
G1 X12.298 Y0.400 Z-4.609
G1 X12.097 Y0.400 Z-4.468
G1 X11.895 Y0.400 Z-4.331
G1 X11.694 Y0.400 Z-4.197
G1 X11.492 Y0.400 Z-4.066
G1 X11.290 Y0.400 Z-3.938
G1 X11.089 Y0.400 Z-3.814
G1 X10.887 Y0.400 Z-3.693
G1 X10.685 Y0.400 Z-3.574
G1 X10.484 Y0.400 Z-3.459
G1 X10.282 Y0.400 Z-3.346
G1 X10.081 Y0.400 Z-3.236
G1 X9.879 Y0.400 Z-3.130
G1 X9.677 Y0.400 Z-3.025
G1 X9.476 Y0.400 Z-2.924
G1 X9.274 Y0.400 Z-2.825
G1 X9.073 Y0.400 Z-2.729
G1 X8.871 Y0.400 Z-2.635
G1 X8.669 Y0.400 Z-2.544
G1 X8.468 Y0.400 Z-2.456
G1 X8.266 Y0.400 Z-2.369
G1 X8.065 Y0.400 Z-2.286
G1 X7.863 Y0.400 Z-2.204
G1 X7.661 Y0.400 Z-2.126
G1 X7.460 Y0.400 Z-2.049
G1 X7.258 Y0.400 Z-1.975
G1 X7.056 Y0.400 Z-1.903
G1 X6.855 Y0.400 Z-1.833
G1 X6.653 Y0.400 Z-1.766
G1 X6.452 Y0.400 Z-1.701
G1 X6.250 Y0.400 Z-1.638
G1 X6.048 Y0.400 Z-1.577
G1 X5.847 Y0.400 Z-1.518
G1 X5.645 Y0.400 Z-1.462
G1 X5.444 Y0.400 Z-1.407
G1 X5.242 Y0.400 Z-1.355
G1 X5.040 Y0.400 Z-1.305
G1 X4.839 Y0.400 Z-1.257
G1 X4.637 Y0.400 Z-1.211
G1 X4.435 Y0.400 Z-1.167
G1 X4.234 Y0.400 Z-1.125
G1 X4.032 Y0.400 Z-1.085
G1 X3.831 Y0.400 Z-1.047
G1 X3.629 Y0.400 Z-1.011
G1 X3.427 Y0.400 Z-0.978
G1 X3.226 Y0.400 Z-0.946
G1 X3.024 Y0.400 Z-0.916
G1 X2.823 Y0.400 Z-0.888
G1 X2.621 Y0.400 Z-0.862
G1 X2.419 Y0.400 Z-0.838
G1 X2.218 Y0.400 Z-0.816
G1 X2.016 Y0.400 Z-0.796
G1 X1.815 Y0.400 Z-0.777
G1 X1.613 Y0.400 Z-0.761
G1 X1.411 Y0.400 Z-0.747
G1 X1.210 Y0.400 Z-0.734
G1 X1.008 Y0.400 Z-0.724
G1 X0.806 Y0.400 Z-0.715
G1 X0.605 Y0.400 Z-0.709
G1 X0.403 Y0.400 Z-0.704
G1 X0.202 Y0.400 Z-0.701
G1 X0.000 Y0.400 Z-0.700

; Step 4: Center -> Left @ Y1
G1 X0.000 Y0.400 Z-0.700
G1 X-0.202 Y0.400 Z-0.701
G1 X-0.403 Y0.400 Z-0.704
G1 X-0.605 Y0.400 Z-0.709
G1 X-0.806 Y0.400 Z-0.715
G1 X-1.008 Y0.400 Z-0.724
G1 X-1.210 Y0.400 Z-0.734
G1 X-1.411 Y0.400 Z-0.747
G1 X-1.613 Y0.400 Z-0.761
G1 X-1.815 Y0.400 Z-0.777
G1 X-2.016 Y0.400 Z-0.796
G1 X-2.218 Y0.400 Z-0.816
G1 X-2.419 Y0.400 Z-0.838
G1 X-2.621 Y0.400 Z-0.862
G1 X-2.823 Y0.400 Z-0.888
G1 X-3.024 Y0.400 Z-0.916
G1 X-3.226 Y0.400 Z-0.946
G1 X-3.427 Y0.400 Z-0.978
G1 X-3.629 Y0.400 Z-1.011
G1 X-3.831 Y0.400 Z-1.047
G1 X-4.032 Y0.400 Z-1.085
G1 X-4.234 Y0.400 Z-1.125
G1 X-4.435 Y0.400 Z-1.167
G1 X-4.637 Y0.400 Z-1.211
G1 X-4.839 Y0.400 Z-1.257
G1 X-5.040 Y0.400 Z-1.305
G1 X-5.242 Y0.400 Z-1.355
G1 X-5.444 Y0.400 Z-1.407
G1 X-5.645 Y0.400 Z-1.462
G1 X-5.847 Y0.400 Z-1.518
G1 X-6.048 Y0.400 Z-1.577
G1 X-6.250 Y0.400 Z-1.638
G1 X-6.452 Y0.400 Z-1.701
G1 X-6.653 Y0.400 Z-1.766
G1 X-6.855 Y0.400 Z-1.833
G1 X-7.056 Y0.400 Z-1.903
G1 X-7.258 Y0.400 Z-1.975
G1 X-7.460 Y0.400 Z-2.049
G1 X-7.661 Y0.400 Z-2.126
G1 X-7.863 Y0.400 Z-2.204
G1 X-8.065 Y0.400 Z-2.286
G1 X-8.266 Y0.400 Z-2.369
G1 X-8.468 Y0.400 Z-2.456
G1 X-8.669 Y0.400 Z-2.544
G1 X-8.871 Y0.400 Z-2.635
G1 X-9.073 Y0.400 Z-2.729
G1 X-9.274 Y0.400 Z-2.825
G1 X-9.476 Y0.400 Z-2.924
G1 X-9.677 Y0.400 Z-3.025
G1 X-9.879 Y0.400 Z-3.130
G1 X-10.081 Y0.400 Z-3.236
G1 X-10.282 Y0.400 Z-3.346
G1 X-10.484 Y0.400 Z-3.459
G1 X-10.685 Y0.400 Z-3.574
G1 X-10.887 Y0.400 Z-3.693
G1 X-11.089 Y0.400 Z-3.814
G1 X-11.290 Y0.400 Z-3.938
G1 X-11.492 Y0.400 Z-4.066
G1 X-11.694 Y0.400 Z-4.197
G1 X-11.895 Y0.400 Z-4.331
G1 X-12.097 Y0.400 Z-4.468
G1 X-12.298 Y0.400 Z-4.609
G1 X-12.500 Y0.400 Z-4.754

; Step 5: Backward Y1 -> Y0 @ Left edge
G1 Y0.000

; Step 6: Left -> Center @ Y0
G1 X-12.500 Y0.000 Z-4.754
G1 X-12.298 Y0.000 Z-4.609
G1 X-12.097 Y0.000 Z-4.468
G1 X-11.895 Y0.000 Z-4.331
G1 X-11.694 Y0.000 Z-4.197
G1 X-11.492 Y0.000 Z-4.066
G1 X-11.290 Y0.000 Z-3.938
G1 X-11.089 Y0.000 Z-3.814
G1 X-10.887 Y0.000 Z-3.693
G1 X-10.685 Y0.000 Z-3.574
G1 X-10.484 Y0.000 Z-3.459
G1 X-10.282 Y0.000 Z-3.346
G1 X-10.081 Y0.000 Z-3.236
G1 X-9.879 Y0.000 Z-3.130
G1 X-9.677 Y0.000 Z-3.025
G1 X-9.476 Y0.000 Z-2.924
G1 X-9.274 Y0.000 Z-2.825
G1 X-9.073 Y0.000 Z-2.729
G1 X-8.871 Y0.000 Z-2.635
G1 X-8.669 Y0.000 Z-2.544
G1 X-8.468 Y0.000 Z-2.456
G1 X-8.266 Y0.000 Z-2.369
G1 X-8.065 Y0.000 Z-2.286
G1 X-7.863 Y0.000 Z-2.204
G1 X-7.661 Y0.000 Z-2.126
G1 X-7.460 Y0.000 Z-2.049
G1 X-7.258 Y0.000 Z-1.975
G1 X-7.056 Y0.000 Z-1.903
G1 X-6.855 Y0.000 Z-1.833
G1 X-6.653 Y0.000 Z-1.766
G1 X-6.452 Y0.000 Z-1.701
G1 X-6.250 Y0.000 Z-1.638
G1 X-6.048 Y0.000 Z-1.577
G1 X-5.847 Y0.000 Z-1.518
G1 X-5.645 Y0.000 Z-1.462
G1 X-5.444 Y0.000 Z-1.407
G1 X-5.242 Y0.000 Z-1.355
G1 X-5.040 Y0.000 Z-1.305
G1 X-4.839 Y0.000 Z-1.257
G1 X-4.637 Y0.000 Z-1.211
G1 X-4.435 Y0.000 Z-1.167
G1 X-4.234 Y0.000 Z-1.125
G1 X-4.032 Y0.000 Z-1.085
G1 X-3.831 Y0.000 Z-1.047
G1 X-3.629 Y0.000 Z-1.011
G1 X-3.427 Y0.000 Z-0.978
G1 X-3.226 Y0.000 Z-0.946
G1 X-3.024 Y0.000 Z-0.916
G1 X-2.823 Y0.000 Z-0.888
G1 X-2.621 Y0.000 Z-0.862
G1 X-2.419 Y0.000 Z-0.838
G1 X-2.218 Y0.000 Z-0.816
G1 X-2.016 Y0.000 Z-0.796
G1 X-1.815 Y0.000 Z-0.777
G1 X-1.613 Y0.000 Z-0.761
G1 X-1.411 Y0.000 Z-0.747
G1 X-1.210 Y0.000 Z-0.734
G1 X-1.008 Y0.000 Z-0.724
G1 X-0.806 Y0.000 Z-0.715
G1 X-0.605 Y0.000 Z-0.709
G1 X-0.403 Y0.000 Z-0.704
G1 X-0.202 Y0.000 Z-0.701
G1 X0.000 Y0.000 Z-0.700


; ====== Layer 8: Z = -0.8 ======
; R = 21.2, X = [-12.50, 12.50]
; Path: Center->Right->Forward->Center->Left->Backward->Center

; Step 1: Center -> Right @ Y0
G1 X0.000 Y0.000 Z-0.800
G1 X0.202 Y0.000 Z-0.801
G1 X0.403 Y0.000 Z-0.804
G1 X0.605 Y0.000 Z-0.809
G1 X0.806 Y0.000 Z-0.815
G1 X1.008 Y0.000 Z-0.824
G1 X1.210 Y0.000 Z-0.835
G1 X1.411 Y0.000 Z-0.847
G1 X1.613 Y0.000 Z-0.861
G1 X1.815 Y0.000 Z-0.878
G1 X2.016 Y0.000 Z-0.896
G1 X2.218 Y0.000 Z-0.916
G1 X2.419 Y0.000 Z-0.939
G1 X2.621 Y0.000 Z-0.963
G1 X2.823 Y0.000 Z-0.989
G1 X3.024 Y0.000 Z-1.017
G1 X3.226 Y0.000 Z-1.047
G1 X3.427 Y0.000 Z-1.079
G1 X3.629 Y0.000 Z-1.113
G1 X3.831 Y0.000 Z-1.149
G1 X4.032 Y0.000 Z-1.187
G1 X4.234 Y0.000 Z-1.227
G1 X4.435 Y0.000 Z-1.269
G1 X4.637 Y0.000 Z-1.313
G1 X4.839 Y0.000 Z-1.360
G1 X5.040 Y0.000 Z-1.408
G1 X5.242 Y0.000 Z-1.458
G1 X5.444 Y0.000 Z-1.511
G1 X5.645 Y0.000 Z-1.565
G1 X5.847 Y0.000 Z-1.622
G1 X6.048 Y0.000 Z-1.681
G1 X6.250 Y0.000 Z-1.742
G1 X6.452 Y0.000 Z-1.806
G1 X6.653 Y0.000 Z-1.871
G1 X6.855 Y0.000 Z-1.939
G1 X7.056 Y0.000 Z-2.009
G1 X7.258 Y0.000 Z-2.081
G1 X7.460 Y0.000 Z-2.156
G1 X7.661 Y0.000 Z-2.233
G1 X7.863 Y0.000 Z-2.312
G1 X8.065 Y0.000 Z-2.394
G1 X8.266 Y0.000 Z-2.478
G1 X8.468 Y0.000 Z-2.565
G1 X8.669 Y0.000 Z-2.654
G1 X8.871 Y0.000 Z-2.745
G1 X9.073 Y0.000 Z-2.839
G1 X9.274 Y0.000 Z-2.936
G1 X9.476 Y0.000 Z-3.036
G1 X9.677 Y0.000 Z-3.138
G1 X9.879 Y0.000 Z-3.242
G1 X10.081 Y0.000 Z-3.350
G1 X10.282 Y0.000 Z-3.460
G1 X10.484 Y0.000 Z-3.574
G1 X10.685 Y0.000 Z-3.690
G1 X10.887 Y0.000 Z-3.809
G1 X11.089 Y0.000 Z-3.931
G1 X11.290 Y0.000 Z-4.057
G1 X11.492 Y0.000 Z-4.185
G1 X11.694 Y0.000 Z-4.317
G1 X11.895 Y0.000 Z-4.452
G1 X12.097 Y0.000 Z-4.590
G1 X12.298 Y0.000 Z-4.732
G1 X12.500 Y0.000 Z-4.877

; Step 2: Forward Y0 -> Y1 @ Right edge
G1 Y0.400

; Step 3: Right -> Center @ Y1
G1 X12.500 Y0.400 Z-4.877
G1 X12.298 Y0.400 Z-4.732
G1 X12.097 Y0.400 Z-4.590
G1 X11.895 Y0.400 Z-4.452
G1 X11.694 Y0.400 Z-4.317
G1 X11.492 Y0.400 Z-4.185
G1 X11.290 Y0.400 Z-4.057
G1 X11.089 Y0.400 Z-3.931
G1 X10.887 Y0.400 Z-3.809
G1 X10.685 Y0.400 Z-3.690
G1 X10.484 Y0.400 Z-3.574
G1 X10.282 Y0.400 Z-3.460
G1 X10.081 Y0.400 Z-3.350
G1 X9.879 Y0.400 Z-3.242
G1 X9.677 Y0.400 Z-3.138
G1 X9.476 Y0.400 Z-3.036
G1 X9.274 Y0.400 Z-2.936
G1 X9.073 Y0.400 Z-2.839
G1 X8.871 Y0.400 Z-2.745
G1 X8.669 Y0.400 Z-2.654
G1 X8.468 Y0.400 Z-2.565
G1 X8.266 Y0.400 Z-2.478
G1 X8.065 Y0.400 Z-2.394
G1 X7.863 Y0.400 Z-2.312
G1 X7.661 Y0.400 Z-2.233
G1 X7.460 Y0.400 Z-2.156
G1 X7.258 Y0.400 Z-2.081
G1 X7.056 Y0.400 Z-2.009
G1 X6.855 Y0.400 Z-1.939
G1 X6.653 Y0.400 Z-1.871
G1 X6.452 Y0.400 Z-1.806
G1 X6.250 Y0.400 Z-1.742
G1 X6.048 Y0.400 Z-1.681
G1 X5.847 Y0.400 Z-1.622
G1 X5.645 Y0.400 Z-1.565
G1 X5.444 Y0.400 Z-1.511
G1 X5.242 Y0.400 Z-1.458
G1 X5.040 Y0.400 Z-1.408
G1 X4.839 Y0.400 Z-1.360
G1 X4.637 Y0.400 Z-1.313
G1 X4.435 Y0.400 Z-1.269
G1 X4.234 Y0.400 Z-1.227
G1 X4.032 Y0.400 Z-1.187
G1 X3.831 Y0.400 Z-1.149
G1 X3.629 Y0.400 Z-1.113
G1 X3.427 Y0.400 Z-1.079
G1 X3.226 Y0.400 Z-1.047
G1 X3.024 Y0.400 Z-1.017
G1 X2.823 Y0.400 Z-0.989
G1 X2.621 Y0.400 Z-0.963
G1 X2.419 Y0.400 Z-0.939
G1 X2.218 Y0.400 Z-0.916
G1 X2.016 Y0.400 Z-0.896
G1 X1.815 Y0.400 Z-0.878
G1 X1.613 Y0.400 Z-0.861
G1 X1.411 Y0.400 Z-0.847
G1 X1.210 Y0.400 Z-0.835
G1 X1.008 Y0.400 Z-0.824
G1 X0.806 Y0.400 Z-0.815
G1 X0.605 Y0.400 Z-0.809
G1 X0.403 Y0.400 Z-0.804
G1 X0.202 Y0.400 Z-0.801
G1 X0.000 Y0.400 Z-0.800

; Step 4: Center -> Left @ Y1
G1 X0.000 Y0.400 Z-0.800
G1 X-0.202 Y0.400 Z-0.801
G1 X-0.403 Y0.400 Z-0.804
G1 X-0.605 Y0.400 Z-0.809
G1 X-0.806 Y0.400 Z-0.815
G1 X-1.008 Y0.400 Z-0.824
G1 X-1.210 Y0.400 Z-0.835
G1 X-1.411 Y0.400 Z-0.847
G1 X-1.613 Y0.400 Z-0.861
G1 X-1.815 Y0.400 Z-0.878
G1 X-2.016 Y0.400 Z-0.896
G1 X-2.218 Y0.400 Z-0.916
G1 X-2.419 Y0.400 Z-0.939
G1 X-2.621 Y0.400 Z-0.963
G1 X-2.823 Y0.400 Z-0.989
G1 X-3.024 Y0.400 Z-1.017
G1 X-3.226 Y0.400 Z-1.047
G1 X-3.427 Y0.400 Z-1.079
G1 X-3.629 Y0.400 Z-1.113
G1 X-3.831 Y0.400 Z-1.149
G1 X-4.032 Y0.400 Z-1.187
G1 X-4.234 Y0.400 Z-1.227
G1 X-4.435 Y0.400 Z-1.269
G1 X-4.637 Y0.400 Z-1.313
G1 X-4.839 Y0.400 Z-1.360
G1 X-5.040 Y0.400 Z-1.408
G1 X-5.242 Y0.400 Z-1.458
G1 X-5.444 Y0.400 Z-1.511
G1 X-5.645 Y0.400 Z-1.565
G1 X-5.847 Y0.400 Z-1.622
G1 X-6.048 Y0.400 Z-1.681
G1 X-6.250 Y0.400 Z-1.742
G1 X-6.452 Y0.400 Z-1.806
G1 X-6.653 Y0.400 Z-1.871
G1 X-6.855 Y0.400 Z-1.939
G1 X-7.056 Y0.400 Z-2.009
G1 X-7.258 Y0.400 Z-2.081
G1 X-7.460 Y0.400 Z-2.156
G1 X-7.661 Y0.400 Z-2.233
G1 X-7.863 Y0.400 Z-2.312
G1 X-8.065 Y0.400 Z-2.394
G1 X-8.266 Y0.400 Z-2.478
G1 X-8.468 Y0.400 Z-2.565
G1 X-8.669 Y0.400 Z-2.654
G1 X-8.871 Y0.400 Z-2.745
G1 X-9.073 Y0.400 Z-2.839
G1 X-9.274 Y0.400 Z-2.936
G1 X-9.476 Y0.400 Z-3.036
G1 X-9.677 Y0.400 Z-3.138
G1 X-9.879 Y0.400 Z-3.242
G1 X-10.081 Y0.400 Z-3.350
G1 X-10.282 Y0.400 Z-3.460
G1 X-10.484 Y0.400 Z-3.574
G1 X-10.685 Y0.400 Z-3.690
G1 X-10.887 Y0.400 Z-3.809
G1 X-11.089 Y0.400 Z-3.931
G1 X-11.290 Y0.400 Z-4.057
G1 X-11.492 Y0.400 Z-4.185
G1 X-11.694 Y0.400 Z-4.317
G1 X-11.895 Y0.400 Z-4.452
G1 X-12.097 Y0.400 Z-4.590
G1 X-12.298 Y0.400 Z-4.732
G1 X-12.500 Y0.400 Z-4.877

; Step 5: Backward Y1 -> Y0 @ Left edge
G1 Y0.000

; Step 6: Left -> Center @ Y0
G1 X-12.500 Y0.000 Z-4.877
G1 X-12.298 Y0.000 Z-4.732
G1 X-12.097 Y0.000 Z-4.590
G1 X-11.895 Y0.000 Z-4.452
G1 X-11.694 Y0.000 Z-4.317
G1 X-11.492 Y0.000 Z-4.185
G1 X-11.290 Y0.000 Z-4.057
G1 X-11.089 Y0.000 Z-3.931
G1 X-10.887 Y0.000 Z-3.809
G1 X-10.685 Y0.000 Z-3.690
G1 X-10.484 Y0.000 Z-3.574
G1 X-10.282 Y0.000 Z-3.460
G1 X-10.081 Y0.000 Z-3.350
G1 X-9.879 Y0.000 Z-3.242
G1 X-9.677 Y0.000 Z-3.138
G1 X-9.476 Y0.000 Z-3.036
G1 X-9.274 Y0.000 Z-2.936
G1 X-9.073 Y0.000 Z-2.839
G1 X-8.871 Y0.000 Z-2.745
G1 X-8.669 Y0.000 Z-2.654
G1 X-8.468 Y0.000 Z-2.565
G1 X-8.266 Y0.000 Z-2.478
G1 X-8.065 Y0.000 Z-2.394
G1 X-7.863 Y0.000 Z-2.312
G1 X-7.661 Y0.000 Z-2.233
G1 X-7.460 Y0.000 Z-2.156
G1 X-7.258 Y0.000 Z-2.081
G1 X-7.056 Y0.000 Z-2.009
G1 X-6.855 Y0.000 Z-1.939
G1 X-6.653 Y0.000 Z-1.871
G1 X-6.452 Y0.000 Z-1.806
G1 X-6.250 Y0.000 Z-1.742
G1 X-6.048 Y0.000 Z-1.681
G1 X-5.847 Y0.000 Z-1.622
G1 X-5.645 Y0.000 Z-1.565
G1 X-5.444 Y0.000 Z-1.511
G1 X-5.242 Y0.000 Z-1.458
G1 X-5.040 Y0.000 Z-1.408
G1 X-4.839 Y0.000 Z-1.360
G1 X-4.637 Y0.000 Z-1.313
G1 X-4.435 Y0.000 Z-1.269
G1 X-4.234 Y0.000 Z-1.227
G1 X-4.032 Y0.000 Z-1.187
G1 X-3.831 Y0.000 Z-1.149
G1 X-3.629 Y0.000 Z-1.113
G1 X-3.427 Y0.000 Z-1.079
G1 X-3.226 Y0.000 Z-1.047
G1 X-3.024 Y0.000 Z-1.017
G1 X-2.823 Y0.000 Z-0.989
G1 X-2.621 Y0.000 Z-0.963
G1 X-2.419 Y0.000 Z-0.939
G1 X-2.218 Y0.000 Z-0.916
G1 X-2.016 Y0.000 Z-0.896
G1 X-1.815 Y0.000 Z-0.878
G1 X-1.613 Y0.000 Z-0.861
G1 X-1.411 Y0.000 Z-0.847
G1 X-1.210 Y0.000 Z-0.835
G1 X-1.008 Y0.000 Z-0.824
G1 X-0.806 Y0.000 Z-0.815
G1 X-0.605 Y0.000 Z-0.809
G1 X-0.403 Y0.000 Z-0.804
G1 X-0.202 Y0.000 Z-0.801
G1 X0.000 Y0.000 Z-0.800


; ====== Layer 9: Z = -0.9 ======
; R = 21.1, X = [-12.50, 12.50]
; Path: Center->Right->Forward->Center->Left->Backward->Center

; Step 1: Center -> Right @ Y0
G1 X0.000 Y0.000 Z-0.900
G1 X0.202 Y0.000 Z-0.901
G1 X0.403 Y0.000 Z-0.904
G1 X0.605 Y0.000 Z-0.909
G1 X0.806 Y0.000 Z-0.915
G1 X1.008 Y0.000 Z-0.924
G1 X1.210 Y0.000 Z-0.935
G1 X1.411 Y0.000 Z-0.947
G1 X1.613 Y0.000 Z-0.962
G1 X1.815 Y0.000 Z-0.978
G1 X2.016 Y0.000 Z-0.997
G1 X2.218 Y0.000 Z-1.017
G1 X2.419 Y0.000 Z-1.039
G1 X2.621 Y0.000 Z-1.063
G1 X2.823 Y0.000 Z-1.090
G1 X3.024 Y0.000 Z-1.118
G1 X3.226 Y0.000 Z-1.148
G1 X3.427 Y0.000 Z-1.180
G1 X3.629 Y0.000 Z-1.214
G1 X3.831 Y0.000 Z-1.251
G1 X4.032 Y0.000 Z-1.289
G1 X4.234 Y0.000 Z-1.329
G1 X4.435 Y0.000 Z-1.371
G1 X4.637 Y0.000 Z-1.416
G1 X4.839 Y0.000 Z-1.462
G1 X5.040 Y0.000 Z-1.511
G1 X5.242 Y0.000 Z-1.562
G1 X5.444 Y0.000 Z-1.614
G1 X5.645 Y0.000 Z-1.669
G1 X5.847 Y0.000 Z-1.726
G1 X6.048 Y0.000 Z-1.785
G1 X6.250 Y0.000 Z-1.847
G1 X6.452 Y0.000 Z-1.911
G1 X6.653 Y0.000 Z-1.976
G1 X6.855 Y0.000 Z-2.045
G1 X7.056 Y0.000 Z-2.115
G1 X7.258 Y0.000 Z-2.188
G1 X7.460 Y0.000 Z-2.263
G1 X7.661 Y0.000 Z-2.340
G1 X7.863 Y0.000 Z-2.420
G1 X8.065 Y0.000 Z-2.502
G1 X8.266 Y0.000 Z-2.587
G1 X8.468 Y0.000 Z-2.674
G1 X8.669 Y0.000 Z-2.763
G1 X8.871 Y0.000 Z-2.855
G1 X9.073 Y0.000 Z-2.950
G1 X9.274 Y0.000 Z-3.047
G1 X9.476 Y0.000 Z-3.147
G1 X9.677 Y0.000 Z-3.250
G1 X9.879 Y0.000 Z-3.356
G1 X10.081 Y0.000 Z-3.464
G1 X10.282 Y0.000 Z-3.575
G1 X10.484 Y0.000 Z-3.689
G1 X10.685 Y0.000 Z-3.806
G1 X10.887 Y0.000 Z-3.926
G1 X11.089 Y0.000 Z-4.049
G1 X11.290 Y0.000 Z-4.175
G1 X11.492 Y0.000 Z-4.304
G1 X11.694 Y0.000 Z-4.437
G1 X11.895 Y0.000 Z-4.573
G1 X12.097 Y0.000 Z-4.712
G1 X12.298 Y0.000 Z-4.855
G1 X12.500 Y0.000 Z-5.001

; Step 2: Forward Y0 -> Y1 @ Right edge
G1 Y0.400

; Step 3: Right -> Center @ Y1
G1 X12.500 Y0.400 Z-5.001
G1 X12.298 Y0.400 Z-4.855
G1 X12.097 Y0.400 Z-4.712
G1 X11.895 Y0.400 Z-4.573
G1 X11.694 Y0.400 Z-4.437
G1 X11.492 Y0.400 Z-4.304
G1 X11.290 Y0.400 Z-4.175
G1 X11.089 Y0.400 Z-4.049
G1 X10.887 Y0.400 Z-3.926
G1 X10.685 Y0.400 Z-3.806
G1 X10.484 Y0.400 Z-3.689
G1 X10.282 Y0.400 Z-3.575
G1 X10.081 Y0.400 Z-3.464
G1 X9.879 Y0.400 Z-3.356
G1 X9.677 Y0.400 Z-3.250
G1 X9.476 Y0.400 Z-3.147
G1 X9.274 Y0.400 Z-3.047
G1 X9.073 Y0.400 Z-2.950
G1 X8.871 Y0.400 Z-2.855
G1 X8.669 Y0.400 Z-2.763
G1 X8.468 Y0.400 Z-2.674
G1 X8.266 Y0.400 Z-2.587
G1 X8.065 Y0.400 Z-2.502
G1 X7.863 Y0.400 Z-2.420
G1 X7.661 Y0.400 Z-2.340
G1 X7.460 Y0.400 Z-2.263
G1 X7.258 Y0.400 Z-2.188
G1 X7.056 Y0.400 Z-2.115
G1 X6.855 Y0.400 Z-2.045
G1 X6.653 Y0.400 Z-1.976
G1 X6.452 Y0.400 Z-1.911
G1 X6.250 Y0.400 Z-1.847
G1 X6.048 Y0.400 Z-1.785
G1 X5.847 Y0.400 Z-1.726
G1 X5.645 Y0.400 Z-1.669
G1 X5.444 Y0.400 Z-1.614
G1 X5.242 Y0.400 Z-1.562
G1 X5.040 Y0.400 Z-1.511
G1 X4.839 Y0.400 Z-1.462
G1 X4.637 Y0.400 Z-1.416
G1 X4.435 Y0.400 Z-1.371
G1 X4.234 Y0.400 Z-1.329
G1 X4.032 Y0.400 Z-1.289
G1 X3.831 Y0.400 Z-1.251
G1 X3.629 Y0.400 Z-1.214
G1 X3.427 Y0.400 Z-1.180
G1 X3.226 Y0.400 Z-1.148
G1 X3.024 Y0.400 Z-1.118
G1 X2.823 Y0.400 Z-1.090
G1 X2.621 Y0.400 Z-1.063
G1 X2.419 Y0.400 Z-1.039
G1 X2.218 Y0.400 Z-1.017
G1 X2.016 Y0.400 Z-0.997
G1 X1.815 Y0.400 Z-0.978
G1 X1.613 Y0.400 Z-0.962
G1 X1.411 Y0.400 Z-0.947
G1 X1.210 Y0.400 Z-0.935
G1 X1.008 Y0.400 Z-0.924
G1 X0.806 Y0.400 Z-0.915
G1 X0.605 Y0.400 Z-0.909
G1 X0.403 Y0.400 Z-0.904
G1 X0.202 Y0.400 Z-0.901
G1 X0.000 Y0.400 Z-0.900

; Step 4: Center -> Left @ Y1
G1 X0.000 Y0.400 Z-0.900
G1 X-0.202 Y0.400 Z-0.901
G1 X-0.403 Y0.400 Z-0.904
G1 X-0.605 Y0.400 Z-0.909
G1 X-0.806 Y0.400 Z-0.915
G1 X-1.008 Y0.400 Z-0.924
G1 X-1.210 Y0.400 Z-0.935
G1 X-1.411 Y0.400 Z-0.947
G1 X-1.613 Y0.400 Z-0.962
G1 X-1.815 Y0.400 Z-0.978
G1 X-2.016 Y0.400 Z-0.997
G1 X-2.218 Y0.400 Z-1.017
G1 X-2.419 Y0.400 Z-1.039
G1 X-2.621 Y0.400 Z-1.063
G1 X-2.823 Y0.400 Z-1.090
G1 X-3.024 Y0.400 Z-1.118
G1 X-3.226 Y0.400 Z-1.148
G1 X-3.427 Y0.400 Z-1.180
G1 X-3.629 Y0.400 Z-1.214
G1 X-3.831 Y0.400 Z-1.251
G1 X-4.032 Y0.400 Z-1.289
G1 X-4.234 Y0.400 Z-1.329
G1 X-4.435 Y0.400 Z-1.371
G1 X-4.637 Y0.400 Z-1.416
G1 X-4.839 Y0.400 Z-1.462
G1 X-5.040 Y0.400 Z-1.511
G1 X-5.242 Y0.400 Z-1.562
G1 X-5.444 Y0.400 Z-1.614
G1 X-5.645 Y0.400 Z-1.669
G1 X-5.847 Y0.400 Z-1.726
G1 X-6.048 Y0.400 Z-1.785
G1 X-6.250 Y0.400 Z-1.847
G1 X-6.452 Y0.400 Z-1.911
G1 X-6.653 Y0.400 Z-1.976
G1 X-6.855 Y0.400 Z-2.045
G1 X-7.056 Y0.400 Z-2.115
G1 X-7.258 Y0.400 Z-2.188
G1 X-7.460 Y0.400 Z-2.263
G1 X-7.661 Y0.400 Z-2.340
G1 X-7.863 Y0.400 Z-2.420
G1 X-8.065 Y0.400 Z-2.502
G1 X-8.266 Y0.400 Z-2.587
G1 X-8.468 Y0.400 Z-2.674
G1 X-8.669 Y0.400 Z-2.763
G1 X-8.871 Y0.400 Z-2.855
G1 X-9.073 Y0.400 Z-2.950
G1 X-9.274 Y0.400 Z-3.047
G1 X-9.476 Y0.400 Z-3.147
G1 X-9.677 Y0.400 Z-3.250
G1 X-9.879 Y0.400 Z-3.356
G1 X-10.081 Y0.400 Z-3.464
G1 X-10.282 Y0.400 Z-3.575
G1 X-10.484 Y0.400 Z-3.689
G1 X-10.685 Y0.400 Z-3.806
G1 X-10.887 Y0.400 Z-3.926
G1 X-11.089 Y0.400 Z-4.049
G1 X-11.290 Y0.400 Z-4.175
G1 X-11.492 Y0.400 Z-4.304
G1 X-11.694 Y0.400 Z-4.437
G1 X-11.895 Y0.400 Z-4.573
G1 X-12.097 Y0.400 Z-4.712
G1 X-12.298 Y0.400 Z-4.855
G1 X-12.500 Y0.400 Z-5.001

; Step 5: Backward Y1 -> Y0 @ Left edge
G1 Y0.000

; Step 6: Left -> Center @ Y0
G1 X-12.500 Y0.000 Z-5.001
G1 X-12.298 Y0.000 Z-4.855
G1 X-12.097 Y0.000 Z-4.712
G1 X-11.895 Y0.000 Z-4.573
G1 X-11.694 Y0.000 Z-4.437
G1 X-11.492 Y0.000 Z-4.304
G1 X-11.290 Y0.000 Z-4.175
G1 X-11.089 Y0.000 Z-4.049
G1 X-10.887 Y0.000 Z-3.926
G1 X-10.685 Y0.000 Z-3.806
G1 X-10.484 Y0.000 Z-3.689
G1 X-10.282 Y0.000 Z-3.575
G1 X-10.081 Y0.000 Z-3.464
G1 X-9.879 Y0.000 Z-3.356
G1 X-9.677 Y0.000 Z-3.250
G1 X-9.476 Y0.000 Z-3.147
G1 X-9.274 Y0.000 Z-3.047
G1 X-9.073 Y0.000 Z-2.950
G1 X-8.871 Y0.000 Z-2.855
G1 X-8.669 Y0.000 Z-2.763
G1 X-8.468 Y0.000 Z-2.674
G1 X-8.266 Y0.000 Z-2.587
G1 X-8.065 Y0.000 Z-2.502
G1 X-7.863 Y0.000 Z-2.420
G1 X-7.661 Y0.000 Z-2.340
G1 X-7.460 Y0.000 Z-2.263
G1 X-7.258 Y0.000 Z-2.188
G1 X-7.056 Y0.000 Z-2.115
G1 X-6.855 Y0.000 Z-2.045
G1 X-6.653 Y0.000 Z-1.976
G1 X-6.452 Y0.000 Z-1.911
G1 X-6.250 Y0.000 Z-1.847
G1 X-6.048 Y0.000 Z-1.785
G1 X-5.847 Y0.000 Z-1.726
G1 X-5.645 Y0.000 Z-1.669
G1 X-5.444 Y0.000 Z-1.614
G1 X-5.242 Y0.000 Z-1.562
G1 X-5.040 Y0.000 Z-1.511
G1 X-4.839 Y0.000 Z-1.462
G1 X-4.637 Y0.000 Z-1.416
G1 X-4.435 Y0.000 Z-1.371
G1 X-4.234 Y0.000 Z-1.329
G1 X-4.032 Y0.000 Z-1.289
G1 X-3.831 Y0.000 Z-1.251
G1 X-3.629 Y0.000 Z-1.214
G1 X-3.427 Y0.000 Z-1.180
G1 X-3.226 Y0.000 Z-1.148
G1 X-3.024 Y0.000 Z-1.118
G1 X-2.823 Y0.000 Z-1.090
G1 X-2.621 Y0.000 Z-1.063
G1 X-2.419 Y0.000 Z-1.039
G1 X-2.218 Y0.000 Z-1.017
G1 X-2.016 Y0.000 Z-0.997
G1 X-1.815 Y0.000 Z-0.978
G1 X-1.613 Y0.000 Z-0.962
G1 X-1.411 Y0.000 Z-0.947
G1 X-1.210 Y0.000 Z-0.935
G1 X-1.008 Y0.000 Z-0.924
G1 X-0.806 Y0.000 Z-0.915
G1 X-0.605 Y0.000 Z-0.909
G1 X-0.403 Y0.000 Z-0.904
G1 X-0.202 Y0.000 Z-0.901
G1 X0.000 Y0.000 Z-0.900


; ====== Layer 10: Z = -1.0 ======
; R = 21.0, X = [-12.50, 12.50]
; Path: Center->Right->Forward->Center->Left->Backward->Center

; Step 1: Center -> Right @ Y0
G1 X0.000 Y0.000 Z-1.000
G1 X0.202 Y0.000 Z-1.001
G1 X0.403 Y0.000 Z-1.004
G1 X0.605 Y0.000 Z-1.009
G1 X0.806 Y0.000 Z-1.015
G1 X1.008 Y0.000 Z-1.024
G1 X1.210 Y0.000 Z-1.035
G1 X1.411 Y0.000 Z-1.047
G1 X1.613 Y0.000 Z-1.062
G1 X1.815 Y0.000 Z-1.079
G1 X2.016 Y0.000 Z-1.097
G1 X2.218 Y0.000 Z-1.117
G1 X2.419 Y0.000 Z-1.140
G1 X2.621 Y0.000 Z-1.164
G1 X2.823 Y0.000 Z-1.191
G1 X3.024 Y0.000 Z-1.219
G1 X3.226 Y0.000 Z-1.249
G1 X3.427 Y0.000 Z-1.282
G1 X3.629 Y0.000 Z-1.316
G1 X3.831 Y0.000 Z-1.352
G1 X4.032 Y0.000 Z-1.391
G1 X4.234 Y0.000 Z-1.431
G1 X4.435 Y0.000 Z-1.474
G1 X4.637 Y0.000 Z-1.518
G1 X4.839 Y0.000 Z-1.565
G1 X5.040 Y0.000 Z-1.614
G1 X5.242 Y0.000 Z-1.665
G1 X5.444 Y0.000 Z-1.718
G1 X5.645 Y0.000 Z-1.773
G1 X5.847 Y0.000 Z-1.830
G1 X6.048 Y0.000 Z-1.890
G1 X6.250 Y0.000 Z-1.952
G1 X6.452 Y0.000 Z-2.016
G1 X6.653 Y0.000 Z-2.082
G1 X6.855 Y0.000 Z-2.150
G1 X7.056 Y0.000 Z-2.221
G1 X7.258 Y0.000 Z-2.294
G1 X7.460 Y0.000 Z-2.370
G1 X7.661 Y0.000 Z-2.447
G1 X7.863 Y0.000 Z-2.528
G1 X8.065 Y0.000 Z-2.610
G1 X8.266 Y0.000 Z-2.695
G1 X8.468 Y0.000 Z-2.783
G1 X8.669 Y0.000 Z-2.873
G1 X8.871 Y0.000 Z-2.966
G1 X9.073 Y0.000 Z-3.061
G1 X9.274 Y0.000 Z-3.159
G1 X9.476 Y0.000 Z-3.259
G1 X9.677 Y0.000 Z-3.363
G1 X9.879 Y0.000 Z-3.469
G1 X10.081 Y0.000 Z-3.578
G1 X10.282 Y0.000 Z-3.689
G1 X10.484 Y0.000 Z-3.804
G1 X10.685 Y0.000 Z-3.922
G1 X10.887 Y0.000 Z-4.043
G1 X11.089 Y0.000 Z-4.166
G1 X11.290 Y0.000 Z-4.293
G1 X11.492 Y0.000 Z-4.423
G1 X11.694 Y0.000 Z-4.557
G1 X11.895 Y0.000 Z-4.694
G1 X12.097 Y0.000 Z-4.834
G1 X12.298 Y0.000 Z-4.978
G1 X12.500 Y0.000 Z-5.125

; Step 2: Forward Y0 -> Y1 @ Right edge
G1 Y0.400

; Step 3: Right -> Center @ Y1
G1 X12.500 Y0.400 Z-5.125
G1 X12.298 Y0.400 Z-4.978
G1 X12.097 Y0.400 Z-4.834
G1 X11.895 Y0.400 Z-4.694
G1 X11.694 Y0.400 Z-4.557
G1 X11.492 Y0.400 Z-4.423
G1 X11.290 Y0.400 Z-4.293
G1 X11.089 Y0.400 Z-4.166
G1 X10.887 Y0.400 Z-4.043
G1 X10.685 Y0.400 Z-3.922
G1 X10.484 Y0.400 Z-3.804
G1 X10.282 Y0.400 Z-3.689
G1 X10.081 Y0.400 Z-3.578
G1 X9.879 Y0.400 Z-3.469
G1 X9.677 Y0.400 Z-3.363
G1 X9.476 Y0.400 Z-3.259
G1 X9.274 Y0.400 Z-3.159
G1 X9.073 Y0.400 Z-3.061
G1 X8.871 Y0.400 Z-2.966
G1 X8.669 Y0.400 Z-2.873
G1 X8.468 Y0.400 Z-2.783
G1 X8.266 Y0.400 Z-2.695
G1 X8.065 Y0.400 Z-2.610
G1 X7.863 Y0.400 Z-2.528
G1 X7.661 Y0.400 Z-2.447
G1 X7.460 Y0.400 Z-2.370
G1 X7.258 Y0.400 Z-2.294
G1 X7.056 Y0.400 Z-2.221
G1 X6.855 Y0.400 Z-2.150
G1 X6.653 Y0.400 Z-2.082
G1 X6.452 Y0.400 Z-2.016
G1 X6.250 Y0.400 Z-1.952
G1 X6.048 Y0.400 Z-1.890
G1 X5.847 Y0.400 Z-1.830
G1 X5.645 Y0.400 Z-1.773
G1 X5.444 Y0.400 Z-1.718
G1 X5.242 Y0.400 Z-1.665
G1 X5.040 Y0.400 Z-1.614
G1 X4.839 Y0.400 Z-1.565
G1 X4.637 Y0.400 Z-1.518
G1 X4.435 Y0.400 Z-1.474
G1 X4.234 Y0.400 Z-1.431
G1 X4.032 Y0.400 Z-1.391
G1 X3.831 Y0.400 Z-1.352
G1 X3.629 Y0.400 Z-1.316
G1 X3.427 Y0.400 Z-1.282
G1 X3.226 Y0.400 Z-1.249
G1 X3.024 Y0.400 Z-1.219
G1 X2.823 Y0.400 Z-1.191
G1 X2.621 Y0.400 Z-1.164
G1 X2.419 Y0.400 Z-1.140
G1 X2.218 Y0.400 Z-1.117
G1 X2.016 Y0.400 Z-1.097
G1 X1.815 Y0.400 Z-1.079
G1 X1.613 Y0.400 Z-1.062
G1 X1.411 Y0.400 Z-1.047
G1 X1.210 Y0.400 Z-1.035
G1 X1.008 Y0.400 Z-1.024
G1 X0.806 Y0.400 Z-1.015
G1 X0.605 Y0.400 Z-1.009
G1 X0.403 Y0.400 Z-1.004
G1 X0.202 Y0.400 Z-1.001
G1 X0.000 Y0.400 Z-1.000

; Step 4: Center -> Left @ Y1
G1 X0.000 Y0.400 Z-1.000
G1 X-0.202 Y0.400 Z-1.001
G1 X-0.403 Y0.400 Z-1.004
G1 X-0.605 Y0.400 Z-1.009
G1 X-0.806 Y0.400 Z-1.015
G1 X-1.008 Y0.400 Z-1.024
G1 X-1.210 Y0.400 Z-1.035
G1 X-1.411 Y0.400 Z-1.047
G1 X-1.613 Y0.400 Z-1.062
G1 X-1.815 Y0.400 Z-1.079
G1 X-2.016 Y0.400 Z-1.097
G1 X-2.218 Y0.400 Z-1.117
G1 X-2.419 Y0.400 Z-1.140
G1 X-2.621 Y0.400 Z-1.164
G1 X-2.823 Y0.400 Z-1.191
G1 X-3.024 Y0.400 Z-1.219
G1 X-3.226 Y0.400 Z-1.249
G1 X-3.427 Y0.400 Z-1.282
G1 X-3.629 Y0.400 Z-1.316
G1 X-3.831 Y0.400 Z-1.352
G1 X-4.032 Y0.400 Z-1.391
G1 X-4.234 Y0.400 Z-1.431
G1 X-4.435 Y0.400 Z-1.474
G1 X-4.637 Y0.400 Z-1.518
G1 X-4.839 Y0.400 Z-1.565
G1 X-5.040 Y0.400 Z-1.614
G1 X-5.242 Y0.400 Z-1.665
G1 X-5.444 Y0.400 Z-1.718
G1 X-5.645 Y0.400 Z-1.773
G1 X-5.847 Y0.400 Z-1.830
G1 X-6.048 Y0.400 Z-1.890
G1 X-6.250 Y0.400 Z-1.952
G1 X-6.452 Y0.400 Z-2.016
G1 X-6.653 Y0.400 Z-2.082
G1 X-6.855 Y0.400 Z-2.150
G1 X-7.056 Y0.400 Z-2.221
G1 X-7.258 Y0.400 Z-2.294
G1 X-7.460 Y0.400 Z-2.370
G1 X-7.661 Y0.400 Z-2.447
G1 X-7.863 Y0.400 Z-2.528
G1 X-8.065 Y0.400 Z-2.610
G1 X-8.266 Y0.400 Z-2.695
G1 X-8.468 Y0.400 Z-2.783
G1 X-8.669 Y0.400 Z-2.873
G1 X-8.871 Y0.400 Z-2.966
G1 X-9.073 Y0.400 Z-3.061
G1 X-9.274 Y0.400 Z-3.159
G1 X-9.476 Y0.400 Z-3.259
G1 X-9.677 Y0.400 Z-3.363
G1 X-9.879 Y0.400 Z-3.469
G1 X-10.081 Y0.400 Z-3.578
G1 X-10.282 Y0.400 Z-3.689
G1 X-10.484 Y0.400 Z-3.804
G1 X-10.685 Y0.400 Z-3.922
G1 X-10.887 Y0.400 Z-4.043
G1 X-11.089 Y0.400 Z-4.166
G1 X-11.290 Y0.400 Z-4.293
G1 X-11.492 Y0.400 Z-4.423
G1 X-11.694 Y0.400 Z-4.557
G1 X-11.895 Y0.400 Z-4.694
G1 X-12.097 Y0.400 Z-4.834
G1 X-12.298 Y0.400 Z-4.978
G1 X-12.500 Y0.400 Z-5.125

; Step 5: Backward Y1 -> Y0 @ Left edge
G1 Y0.000

; Step 6: Left -> Center @ Y0
G1 X-12.500 Y0.000 Z-5.125
G1 X-12.298 Y0.000 Z-4.978
G1 X-12.097 Y0.000 Z-4.834
G1 X-11.895 Y0.000 Z-4.694
G1 X-11.694 Y0.000 Z-4.557
G1 X-11.492 Y0.000 Z-4.423
G1 X-11.290 Y0.000 Z-4.293
G1 X-11.089 Y0.000 Z-4.166
G1 X-10.887 Y0.000 Z-4.043
G1 X-10.685 Y0.000 Z-3.922
G1 X-10.484 Y0.000 Z-3.804
G1 X-10.282 Y0.000 Z-3.689
G1 X-10.081 Y0.000 Z-3.578
G1 X-9.879 Y0.000 Z-3.469
G1 X-9.677 Y0.000 Z-3.363
G1 X-9.476 Y0.000 Z-3.259
G1 X-9.274 Y0.000 Z-3.159
G1 X-9.073 Y0.000 Z-3.061
G1 X-8.871 Y0.000 Z-2.966
G1 X-8.669 Y0.000 Z-2.873
G1 X-8.468 Y0.000 Z-2.783
G1 X-8.266 Y0.000 Z-2.695
G1 X-8.065 Y0.000 Z-2.610
G1 X-7.863 Y0.000 Z-2.528
G1 X-7.661 Y0.000 Z-2.447
G1 X-7.460 Y0.000 Z-2.370
G1 X-7.258 Y0.000 Z-2.294
G1 X-7.056 Y0.000 Z-2.221
G1 X-6.855 Y0.000 Z-2.150
G1 X-6.653 Y0.000 Z-2.082
G1 X-6.452 Y0.000 Z-2.016
G1 X-6.250 Y0.000 Z-1.952
G1 X-6.048 Y0.000 Z-1.890
G1 X-5.847 Y0.000 Z-1.830
G1 X-5.645 Y0.000 Z-1.773
G1 X-5.444 Y0.000 Z-1.718
G1 X-5.242 Y0.000 Z-1.665
G1 X-5.040 Y0.000 Z-1.614
G1 X-4.839 Y0.000 Z-1.565
G1 X-4.637 Y0.000 Z-1.518
G1 X-4.435 Y0.000 Z-1.474
G1 X-4.234 Y0.000 Z-1.431
G1 X-4.032 Y0.000 Z-1.391
G1 X-3.831 Y0.000 Z-1.352
G1 X-3.629 Y0.000 Z-1.316
G1 X-3.427 Y0.000 Z-1.282
G1 X-3.226 Y0.000 Z-1.249
G1 X-3.024 Y0.000 Z-1.219
G1 X-2.823 Y0.000 Z-1.191
G1 X-2.621 Y0.000 Z-1.164
G1 X-2.419 Y0.000 Z-1.140
G1 X-2.218 Y0.000 Z-1.117
G1 X-2.016 Y0.000 Z-1.097
G1 X-1.815 Y0.000 Z-1.079
G1 X-1.613 Y0.000 Z-1.062
G1 X-1.411 Y0.000 Z-1.047
G1 X-1.210 Y0.000 Z-1.035
G1 X-1.008 Y0.000 Z-1.024
G1 X-0.806 Y0.000 Z-1.015
G1 X-0.605 Y0.000 Z-1.009
G1 X-0.403 Y0.000 Z-1.004
G1 X-0.202 Y0.000 Z-1.001
G1 X0.000 Y0.000 Z-1.000


; ========== MACHINING COMPLETE ==========
G0 Z0.0         ; Retract tool
G0 X0.0 Y0.0        ; Return to origin
M30                 ; Program end
%
